app/src/main/assets/luts/01_Classic_Cyan_Orange.cube
TITLE "Classic Cyan-Orange Style"
LUT_3D_SIZE 9
0.000000 0.000000 0.000000
0.000000 0.000000 0.116793
0.000000 0.000000 0.235922
0.000000 0.000000 0.357387
0.000000 0.000000 0.481187
0.000000 0.000000 0.607324
0.000000 0.000000 0.735797
0.000000 0.000000 0.866605
0.000000 0.000000 0.999750
0.000000 0.129249 0.000000
0.000000 0.128548 0.119086
0.000000 0.127848 0.240508
0.000000 0.127147 0.364266
0.000000 0.126446 0.490359
0.000000 0.125745 0.618789
0.000000 0.125045 0.749555
0.000000 0.125000 0.875000
0.000000 0.125000 1.000000
0.000000 0.255747 0.000000
0.000000 0.254345 0.121379
0.000000 0.252944 0.245094
0.000000 0.251542 0.371145
0.000000 0.250141 0.499531
0.000000 0.250000 0.625000
0.000000 0.250000 0.750000
0.000000 0.250000 0.875000
0.000000 0.250000 1.000000
0.000000 0.379493 0.000000
0.000000 0.377391 0.123672
0.000000 0.375288 0.249680
0.000000 0.375000 0.375000
0.000000 0.375000 0.500000
0.000000 0.375000 0.613750
0.000000 0.375000 0.732500
0.000000 0.375000 0.851250
0.000000 0.375000 0.970000
0.000000 0.500487 0.000000
0.000000 0.500000 0.125000
0.000000 0.500000 0.250000
0.000000 0.500000 0.375000
0.000000 0.500000 0.500000
0.000000 0.500000 0.613750
0.000000 0.500000 0.732500
0.000000 0.500000 0.851250
0.000000 0.500000 0.970000
0.000000 0.625000 0.000000
0.000000 0.625000 0.125000
0.000000 0.625000 0.250000
0.000000 0.625000 0.375000
0.000000 0.625000 0.500000
0.000000 0.625000 0.613750
0.000000 0.625000 0.732500
0.000000 0.625000 0.851250
0.000000 0.625000 0.970000
0.000000 0.750000 0.000000
0.000000 0.750000 0.125000
0.000000 0.750000 0.250000
0.000000 0.750000 0.375000
0.000000 0.750000 0.500000
0.000000 0.750000 0.613750
0.000000 0.750000 0.732500
0.000000 0.750188 0.875656
0.000000 0.753925 1.015700
0.000000 0.875000 0.000000
0.000000 0.875000 0.125000
0.000000 0.875000 0.250000
0.000000 0.875000 0.375000
0.000000 0.875000 0.500000
0.000000 0.875058 0.625125
0.000000 0.879419 0.761362
0.000000 0.883779 0.901338
0.000000 0.888140 1.045050
0.000000 1.000000 0.000000
0.000000 1.000000 0.125000
0.000000 1.000000 0.250000
0.000000 1.000000 0.375000
0.000000 1.004867 0.507300
0.000000 1.009850 0.643469
0.000000 1.014833 0.783375
0.000000 1.019817 0.927019
0.000000 1.024800 1.074400
0.133930 0.000000 0.000000
0.132762 0.000000 0.117238
0.131594 0.000000 0.236813
0.130426 0.000000 0.358723
0.129258 0.000000 0.482969
0.128090 0.000000 0.609551
0.126922 0.000000 0.738469
0.125754 0.000000 0.869723
0.125000 0.000000 1.000000
0.131637 0.128982 0.000000
0.130469 0.128281 0.119531
0.129301 0.127580 0.241398
0.128133 0.126880 0.365602
0.126965 0.126179 0.492141
0.125797 0.125478 0.621016
0.125000 0.125000 0.750000
0.125000 0.125000 0.875000
0.125000 0.125000 1.000000
0.129344 0.255213 0.000000
0.128176 0.253811 0.121824
0.127008 0.252409 0.245984
0.125840 0.251008 0.372480
0.125000 0.250000 0.500000
0.125000 0.250000 0.625000
0.125000 0.250000 0.750000
0.125000 0.250000 0.875000
0.125000 0.250000 1.000000
0.127051 0.378691 0.000000
0.125883 0.376589 0.124117
0.125000 0.375000 0.250000
0.125000 0.375000 0.375000
0.125000 0.375000 0.500000
0.125000 0.375000 0.613750
0.125000 0.375000 0.732500
0.125000 0.375000 0.851250
0.125000 0.375000 0.970000
0.125000 0.500000 0.000000
0.125000 0.500000 0.125000
0.125000 0.500000 0.250000
0.125000 0.500000 0.375000
0.125000 0.500000 0.500000
0.125000 0.500000 0.613750
0.125000 0.500000 0.732500
0.125000 0.500000 0.851250
0.125000 0.500000 0.970000
0.125000 0.625000 0.000000
0.125000 0.625000 0.125000
0.125000 0.625000 0.250000
0.125000 0.625000 0.375000
0.125000 0.625000 0.500000
0.125000 0.625000 0.613750
0.125000 0.625000 0.732500
0.125000 0.625000 0.851250
0.125000 0.625000 0.970000
0.125000 0.750000 0.000000
0.125000 0.750000 0.125000
0.125000 0.750000 0.250000
0.125000 0.750000 0.375000
0.125000 0.750000 0.500000
0.125000 0.750000 0.613750
0.125000 0.750000 0.732500
0.124059 0.751613 0.880644
0.121879 0.755350 1.021400
0.125000 0.875000 0.000000
0.125000 0.875000 0.125000
0.125000 0.875000 0.250000
0.125000 0.875000 0.375000
0.125000 0.875000 0.500000
0.124140 0.876721 0.628688
0.121959 0.881081 0.765637
0.119779 0.885442 0.906325
0.117599 0.889802 1.050750
0.125000 1.000000 0.000000
0.125000 1.000000 0.125000
0.125000 1.000000 0.250000
0.124220 1.001783 0.377006
0.122040 1.006767 0.510150
0.119859 1.011750 0.647031
0.117679 1.016733 0.787650
0.115499 1.021717 0.932006
0.113319 1.026700 1.080100
0.266969 0.000000 0.000000
0.264633 0.000000 0.117684
0.262297 0.000000 0.237703
0.259961 0.000000 0.360059
0.257625 0.000000 0.484750
0.255289 0.000000 0.611777
0.252953 0.000000 0.741141
0.250617 0.000000 0.872840
0.250000 0.000000 1.000000
0.262383 0.128715 0.000000
0.260047 0.128014 0.119977
0.257711 0.127313 0.242289
0.255375 0.126612 0.366938
0.253039 0.125912 0.493922
0.250703 0.125211 0.623242
0.250000 0.125000 0.750000
0.250000 0.125000 0.875000
0.250000 0.125000 1.000000
0.257797 0.254678 0.000000
0.255461 0.253277 0.122270
0.253125 0.251875 0.246875
0.250789 0.250473 0.373816
0.250000 0.250000 0.500000
0.250000 0.250000 0.625000
0.250000 0.250000 0.750000
0.250000 0.250000 0.875000
0.250000 0.250000 1.000000
0.253211 0.377890 0.000000
0.250875 0.375787 0.124563
0.250000 0.375000 0.250000
0.250000 0.375000 0.375000
0.250000 0.375000 0.500000
0.250000 0.375000 0.613750
0.250000 0.375000 0.732500
0.250000 0.375000 0.851250
0.250000 0.375000 0.970000
0.250000 0.500000 0.000000
0.250000 0.500000 0.125000
0.250000 0.500000 0.250000
0.250000 0.500000 0.375000
0.250000 0.500000 0.500000
0.250000 0.500000 0.613750
0.250000 0.500000 0.732500
0.250000 0.500000 0.851250
0.250000 0.500000 0.970000
0.250000 0.625000 0.000000
0.250000 0.625000 0.125000
0.250000 0.625000 0.250000
0.250000 0.625000 0.375000
0.250000 0.625000 0.500000
0.250000 0.625000 0.613750
0.250000 0.625000 0.732500
0.250000 0.625000 0.851250
0.250000 0.625000 0.970000
0.250000 0.750000 0.000000
0.250000 0.750000 0.125000
0.250000 0.750000 0.250000
0.250000 0.750000 0.375000
0.250000 0.750000 0.500000
0.250000 0.750000 0.613750
0.250000 0.750000 0.732500
0.246456 0.753038 0.885631
0.242096 0.756775 1.027100
0.250000 0.875000 0.000000
0.250000 0.875000 0.125000
0.250000 0.875000 0.250000
0.250000 0.875000 0.375000
0.250000 0.875000 0.500000
0.246617 0.878383 0.632250
0.242256 0.882744 0.769912
0.237896 0.887104 0.911313
0.233535 0.891465 1.056450
0.250000 1.000000 0.000000
0.250000 1.000000 0.125000
0.250000 1.000000 0.250000
0.246777 1.003683 0.379144
0.242417 1.008667 0.513000
0.238056 1.013650 0.650594
0.233696 1.018633 0.791925
0.229335 1.023617 0.936994
0.224975 1.028600 1.085800
0.399117 0.000000 0.000000
0.395613 0.000000 0.118129
0.392109 0.000000 0.238594
0.388605 0.000000 0.361395
0.385102 0.000000 0.486531
0.381598 0.000000 0.614004
0.378094 0.000000 0.743812
0.375000 0.000000 0.875000
0.375000 0.000000 1.000000
0.392238 0.128448 0.000000
0.388734 0.127747 0.120422
0.385230 0.127046 0.243180
0.381727 0.126345 0.368273
0.378223 0.125645 0.495703
0.375000 0.125000 0.625000
0.375000 0.125000 0.750000
0.375000 0.125000 0.875000
0.375000 0.125000 1.000000
0.385359 0.254144 0.000000
0.381855 0.252742 0.122715
0.378352 0.251341 0.247766
0.375000 0.250000 0.375000
0.375000 0.250000 0.500000
0.375000 0.250000 0.625000
0.375000 0.250000 0.750000
0.375000 0.250000 0.875000
0.375000 0.250000 1.000000
0.378480 0.377088 0.000000
0.375000 0.375000 0.125000
0.375000 0.375000 0.250000
0.375000 0.375000 0.375000
0.375000 0.375000 0.500000
0.375000 0.375000 0.613750
0.375000 0.375000 0.732500
0.375000 0.375000 0.851250
0.375000 0.375000 0.970000
0.375000 0.500000 0.000000
0.375000 0.500000 0.125000
0.375000 0.500000 0.250000
0.375000 0.500000 0.375000
0.375000 0.500000 0.500000
0.375000 0.500000 0.613750
0.375000 0.500000 0.732500
0.375000 0.500000 0.851250
0.375000 0.500000 0.970000
0.375000 0.625000 0.000000
0.375000 0.625000 0.125000
0.375000 0.625000 0.250000
0.375000 0.625000 0.375000
0.375000 0.625000 0.500000
0.375000 0.625000 0.613750
0.375000 0.625000 0.732500
0.375000 0.625000 0.851250
0.373491 0.625719 1.003450
0.375000 0.750000 0.000000
0.375000 0.750000 0.125000
0.375000 0.750000 0.250000
0.375000 0.750000 0.375000
0.375000 0.750000 0.500000
0.375000 0.750000 0.613750
0.373731 0.750725 0.752175
0.367191 0.754462 0.890619
0.360650 0.758200 1.032800
0.375000 0.875000 0.000000
0.375000 0.875000 0.125000
0.375000 0.875000 0.250000
0.375000 0.875000 0.375000
0.373972 0.875685 0.501175
0.367431 0.880046 0.635813
0.360891 0.884406 0.774188
0.354350 0.888767 0.916300
0.347809 0.893127 1.062150
0.375000 1.000000 0.000000
0.375000 1.000000 0.125000
0.374213 1.000600 0.250450
0.367672 1.005583 0.381281
0.361131 1.010567 0.515850
0.354591 1.015550 0.654156
0.348050 1.020533 0.796200
0.341509 1.025517 0.941981
0.334969 1.030500 1.091500
0.530375 0.000000 0.000000
0.525703 0.000000 0.118574
0.521031 0.000000 0.239484
0.516359 0.000000 0.362730
0.511687 0.000000 0.488312
0.507016 0.000000 0.616230
0.502344 0.000000 0.746484
0.500000 0.000000 0.875000
0.500000 0.000000 1.000000
0.521203 0.128180 0.000000
0.516531 0.127480 0.120867
0.511859 0.126779 0.244070
0.507188 0.126078 0.369609
0.502516 0.125377 0.497484
0.500000 0.125000 0.625000
0.500000 0.125000 0.750000
0.500000 0.125000 0.875000
0.500000 0.125000 1.000000
0.512031 0.253609 0.000000
0.507359 0.252208 0.123160
0.502687 0.250806 0.248656
0.500000 0.250000 0.375000
0.500000 0.250000 0.500000
0.500000 0.250000 0.625000
0.500000 0.250000 0.750000
0.500000 0.250000 0.875000
0.500000 0.250000 1.000000
0.502859 0.376287 0.000000
0.500000 0.375000 0.125000
0.500000 0.375000 0.250000
0.500000 0.375000 0.375000
0.500000 0.375000 0.500000
0.500000 0.375000 0.625000
0.500000 0.375000 0.750000
0.500000 0.375000 0.875000
0.500000 0.375000 1.000000
0.500000 0.500000 0.000000
0.500000 0.500000 0.125000
0.500000 0.500000 0.250000
0.500000 0.500000 0.375000
0.500000 0.500000 0.500000
0.500000 0.500000 0.625000
0.500000 0.500000 0.750000
0.500000 0.500000 0.875000
0.500000 0.500000 1.000000
0.500000 0.625000 0.000000
0.500000 0.625000 0.125000
0.500000 0.625000 0.250000
0.500000 0.625000 0.375000
0.500000 0.625000 0.500000
0.500000 0.625000 0.625000
0.500000 0.625000 0.750000
0.500000 0.625000 0.875000
0.494663 0.626906 1.009150
0.500000 0.750000 0.000000
0.500000 0.750000 0.125000
0.500000 0.750000 0.250000
0.500000 0.750000 0.375000
0.500000 0.750000 0.500000
0.500000 0.750000 0.625000
0.494983 0.752150 0.756450
0.486262 0.755887 0.895606
0.477542 0.759625 1.038500
0.500000 0.875000 0.000000
0.500000 0.875000 0.125000
0.500000 0.875000 0.250000
0.500000 0.875000 0.375000
0.495304 0.877348 0.504025
0.486583 0.881708 0.639375
0.477862 0.886069 0.778463
0.469142 0.890429 0.921287
0.460421 0.894790 1.067850
0.500000 1.000000 0.000000
0.500000 1.000000 0.125000
0.495625 1.002500 0.251875
0.486904 1.007483 0.383419
0.478183 1.012467 0.518700
0.469463 1.017450 0.657719
0.460742 1.022433 0.800475
0.452021 1.027417 0.946969
0.443300 1.032400 1.097200
0.660742 0.000000 0.000000
0.654902 0.000000 0.119020
0.649062 0.000000 0.240375
0.643223 0.000000 0.364066
0.637383 0.000000 0.490094
0.631543 0.000000 0.618457
0.625703 0.000000 0.749156
0.625000 0.000000 0.875000
0.625000 0.000000 1.000000
0.649277 0.127913 0.000000
0.643438 0.127213 0.121313
0.637598 0.126512 0.244961
0.631758 0.125811 0.370945
0.625918 0.125110 0.499266
0.625000 0.125000 0.625000
0.625000 0.125000 0.750000
0.625000 0.125000 0.875000
0.625000 0.125000 1.000000
0.637813 0.253075 0.000000
0.631973 0.251673 0.123605
0.626133 0.250272 0.249547
0.625000 0.250000 0.375000
0.625000 0.250000 0.500000
0.625000 0.250000 0.625000
0.625000 0.250000 0.750000
0.625000 0.250000 0.875000
0.625000 0.250000 1.000000
0.626348 0.375485 0.000000
0.625000 0.375000 0.125000
0.625000 0.375000 0.250000
0.625000 0.375000 0.375000
0.625000 0.375000 0.500000
0.625000 0.375000 0.625000
0.625000 0.375000 0.750000
0.625000 0.375000 0.875000
0.625000 0.375000 1.000000
0.625000 0.500000 0.000000
0.625000 0.500000 0.125000
0.625000 0.500000 0.250000
0.625000 0.500000 0.375000
0.625000 0.500000 0.500000
0.625000 0.500000 0.625000
0.625000 0.500000 0.750000
0.625000 0.500000 0.875000
0.625000 0.500000 1.000000
0.625000 0.625000 0.000000
0.625000 0.625000 0.125000
0.625000 0.625000 0.250000
0.625000 0.625000 0.375000
0.625000 0.625000 0.500000
0.625000 0.625000 0.625000
0.625000 0.625000 0.750000
0.625000 0.625000 0.875000
0.614172 0.628094 1.014850
0.625000 0.750000 0.000000
0.625000 0.750000 0.125000
0.625000 0.750000 0.250000
0.625000 0.750000 0.375000
0.625000 0.750000 0.500000
0.625000 0.750000 0.625000
0.614573 0.753575 0.760725
0.603672 0.757312 0.900594
0.592771 0.761050 1.044200
0.625000 0.875000 0.000000
0.625000 0.875000 0.125000
0.625000 0.875000 0.250000
0.625000 0.875000 0.375000
0.614974 0.879010 0.506875
0.604073 0.883371 0.642937
0.593172 0.887731 0.782737
0.582271 0.892092 0.926275
0.571370 0.896452 1.073550
0.625000 1.000000 0.000000
0.625000 1.000000 0.125000
0.615375 1.004400 0.253300
0.604474 1.009383 0.385556
0.593573 1.014367 0.521550
0.582672 1.019350 0.661281
0.571771 1.024333 0.804750
0.560870 1.029317 0.951956
0.549969 1.034300 1.102900
0.790219 0.000000 0.000000
0.783211 0.000000 0.119465
0.776203 0.000000 0.241266
0.769195 0.000000 0.365402
0.762188 0.000000 0.491875
0.755180 0.000000 0.620684
0.750000 0.000000 0.750000
0.750000 0.000000 0.875000
0.750000 0.000000 1.000000
0.776461 0.127646 0.000000
0.769453 0.126945 0.121758
0.762445 0.126245 0.245852
0.755437 0.125544 0.372281
0.750000 0.125000 0.500000
0.750000 0.125000 0.625000
0.750000 0.125000 0.750000
0.750000 0.125000 0.875000
0.750000 0.125000 1.000000
0.762703 0.252541 0.000000
0.755695 0.251139 0.124051
0.750000 0.250000 0.250000
0.750000 0.250000 0.375000
0.750000 0.250000 0.500000
0.750000 0.250000 0.625000
0.750000 0.250000 0.750000
0.750000 0.250000 0.875000
0.750000 0.250000 1.000000
0.750000 0.375000 0.000000
0.750000 0.375000 0.125000
0.750000 0.375000 0.250000
0.750000 0.375000 0.375000
0.750000 0.375000 0.500000
0.750000 0.375000 0.625000
0.750000 0.375000 0.750000
0.750000 0.375000 0.875000
0.750000 0.375000 1.000000
0.750000 0.500000 0.000000
0.750000 0.500000 0.125000
0.750000 0.500000 0.250000
0.750000 0.500000 0.375000
0.750000 0.500000 0.500000
0.750000 0.500000 0.625000
0.750000 0.500000 0.750000
0.750000 0.500000 0.875000
0.750000 0.500000 1.000000
0.750000 0.625000 0.000000
0.750000 0.625000 0.125000
0.750000 0.625000 0.250000
0.750000 0.625000 0.375000
0.750000 0.625000 0.500000
0.750000 0.625000 0.625000
0.750000 0.625000 0.750000
0.745100 0.626167 0.879900
0.732019 0.629281 1.020550
0.750000 0.750000 0.000000
0.750000 0.750000 0.125000
0.750000 0.750000 0.250000
0.750000 0.750000 0.375000
0.750000 0.750000 0.500000
0.745581 0.751262 0.628156
0.732500 0.755000 0.765000
0.719419 0.758737 0.905581
0.706337 0.762475 1.049900
0.750000 0.875000 0.000000
0.750000 0.875000 0.125000
0.750000 0.875000 0.250000
0.746062 0.876313 0.376687
0.732981 0.880673 0.509725
0.719900 0.885033 0.646500
0.706819 0.889394 0.787013
0.693737 0.893754 0.931262
0.680656 0.898115 1.079250
0.750000 1.000000 0.000000
0.746544 1.001317 0.125494
0.733463 1.006300 0.254725
0.720381 1.011283 0.387694
0.707300 1.016267 0.524400
0.694219 1.021250 0.664844
0.681137 1.026233 0.809025
0.668056 1.031217 0.956944
0.654975 1.036200 1.108600
0.918805 0.000000 0.000000
0.910629 0.000000 0.119910
0.902453 0.000000 0.242156
0.894277 0.000000 0.366738
0.886102 0.000000 0.493656
0.877926 0.000000 0.622910
0.875000 0.000000 0.750000
0.875000 0.000000 0.875000
0.875000 0.000000 1.000000
0.902754 0.127379 0.000000
0.894578 0.126678 0.122203
0.886402 0.125977 0.246742
0.878227 0.125277 0.373617
0.875000 0.125000 0.500000
0.875000 0.125000 0.625000
0.875000 0.125000 0.750000
0.875000 0.125000 0.875000
0.875000 0.125000 1.000000
0.886703 0.252006 0.000000
0.878527 0.250605 0.124496
0.875000 0.250000 0.250000
0.875000 0.250000 0.375000
0.875000 0.250000 0.500000
0.875000 0.250000 0.625000
0.875000 0.250000 0.750000
0.875000 0.250000 0.875000
0.875000 0.250000 1.000000
0.875000 0.375000 0.000000
0.875000 0.375000 0.125000
0.875000 0.375000 0.250000
0.875000 0.375000 0.375000
0.875000 0.375000 0.500000
0.875000 0.375000 0.625000
0.875000 0.375000 0.750000
0.875000 0.375000 0.875000
0.875000 0.375000 1.000000
0.875000 0.500000 0.000000
0.875000 0.500000 0.125000
0.875000 0.500000 0.250000
0.875000 0.500000 0.375000
0.875000 0.500000 0.500000
0.875000 0.500000 0.625000
0.875000 0.500000 0.750000
0.875000 0.500000 0.875000
0.875000 0.500000 1.000000
0.875000 0.625000 0.000000
0.875000 0.625000 0.125000
0.875000 0.625000 0.250000
0.875000 0.625000 0.375000
0.875000 0.625000 0.500000
0.875000 0.625000 0.625000
0.875000 0.625000 0.750000
0.863465 0.627354 0.884888
0.848203 0.630469 1.026250
0.875000 0.750000 0.000000
0.875000 0.750000 0.125000
0.875000 0.750000 0.250000
0.875000 0.750000 0.375000
0.875000 0.750000 0.500000
0.864026 0.752687 0.631719
0.848765 0.756425 0.769275
0.833503 0.760162 0.910569
0.818242 0.763900 1.055600
0.875000 0.875000 0.000000
0.875000 0.875000 0.125000
0.875000 0.875000 0.250000
0.864587 0.877975 0.378825
0.849326 0.882335 0.512575
0.834065 0.886696 0.650062
0.818803 0.891056 0.791288
0.803542 0.895417 0.936250
0.788280 0.899777 1.084950
0.875000 1.000000 0.000000
0.865149 1.003217 0.126206
0.849888 1.008200 0.256150
0.834626 1.013183 0.389831
0.819365 1.018167 0.527250
0.804103 1.023150 0.668406
0.788842 1.028133 0.813300
0.773580 1.033117 0.961931
0.758319 1.038100 1.114300
1.046500 0.000000 0.000000
1.037156 0.000000 0.120355
1.027813 0.000000 0.243047
1.018469 0.000000 0.368074
1.009125 0.000000 0.495437
1.000000 0.000000 0.625000
1.000000 0.000000 0.750000
1.000000 0.000000 0.875000
1.000000 0.000000 1.000000
1.028156 0.127112 0.000000
1.018812 0.126411 0.122648
1.009469 0.125710 0.247633
1.000125 0.125009 0.374953
1.000000 0.125000 0.500000
1.000000 0.125000 0.625000
1.000000 0.125000 0.750000
1.000000 0.125000 0.875000
1.000000 0.125000 1.000000
1.009813 0.251472 0.000000
1.000469 0.250070 0.124941
1.000000 0.250000 0.250000
1.000000 0.250000 0.375000
1.000000 0.250000 0.500000
1.000000 0.250000 0.625000
1.000000 0.250000 0.750000
1.000000 0.250000 0.875000
1.000000 0.250000 1.000000
1.000000 0.375000 0.000000
1.000000 0.375000 0.125000
1.000000 0.375000 0.250000
1.000000 0.375000 0.375000
1.000000 0.375000 0.500000
1.000000 0.375000 0.625000
1.000000 0.375000 0.750000
1.000000 0.375000 0.875000
1.000000 0.375000 1.000000
1.000000 0.500000 0.000000
1.000000 0.500000 0.125000
1.000000 0.500000 0.250000
1.000000 0.500000 0.375000
1.000000 0.500000 0.500000
1.000000 0.500000 0.625000
1.000000 0.500000 0.750000
1.000000 0.500000 0.875000
0.996967 0.500433 1.002600
1.000000 0.625000 0.000000
1.000000 0.625000 0.125000
1.000000 0.625000 0.250000
1.000000 0.625000 0.375000
1.000000 0.625000 0.500000
1.000000 0.625000 0.625000
0.997608 0.625427 0.751537
0.980167 0.628542 0.889875
0.962725 0.631656 1.031950
1.000000 0.750000 0.000000
1.000000 0.750000 0.125000
1.000000 0.750000 0.250000
1.000000 0.750000 0.375000
0.998250 0.750375 0.500750
0.980808 0.754112 0.635281
0.963367 0.757850 0.773550
0.945925 0.761587 0.915556
0.928483 0.765325 1.061300
1.000000 0.875000 0.000000
1.000000 0.875000 0.125000
0.998892 0.875277 0.250238
0.981450 0.879638 0.380962
0.964008 0.883998 0.515425
0.946567 0.888358 0.653625
0.929125 0.892719 0.795563
0.911683 0.897079 0.941238
0.894242 0.901440 1.090650
0.999533 1.000133 0.000000
0.982092 1.005117 0.126919
0.964650 1.010100 0.257575
0.947208 1.015083 0.391969
0.929767 1.020067 0.530100
0.912325 1.025050 0.671969
0.894883 1.030033 0.817575
0.877442 1.035017 0.966919
0.860000 1.040000 1.120000
