app/src/main/assets/luts/01_Classic_Cyan_Orange.cube
TITLE "Classic Cyan-Orange Style"
LUT_3D_SIZE 33
0.000000 0.000000 0.000000
0.000000 0.000000 0.028979
0.000000 0.000000 0.058104
0.000000 0.000000 0.087376
0.000000 0.000000 0.116793
0.000000 0.000000 0.146356
0.000000 0.000000 0.176065
0.000000 0.000000 0.205921
0.000000 0.000000 0.235922
0.000000 0.000000 0.266069
0.000000 0.000000 0.296362
0.000000 0.000000 0.326802
0.000000 0.000000 0.357387
0.000000 0.000000 0.388118
0.000000 0.000000 0.418995
0.000000 0.000000 0.450018
0.000000 0.000000 0.481187
0.000000 0.000000 0.512503
0.000000 0.000000 0.543964
0.000000 0.000000 0.575571
0.000000 0.000000 0.607324
0.000000 0.000000 0.639223
0.000000 0.000000 0.671269
0.000000 0.000000 0.703460
0.000000 0.000000 0.735797
0.000000 0.000000 0.768280
0.000000 0.000000 0.800909
0.000000 0.000000 0.833684
0.000000 0.000000 0.866605
0.000000 0.000000 0.899673
0.000000 0.000000 0.932886
0.000000 0.000000 0.966245
0.000000 0.000000 0.999750
0.000000 0.032570 0.000000
0.000000 0.032526 0.029123
0.000000 0.032483 0.058391
0.000000 0.032439 0.087806
0.000000 0.032395 0.117366
0.000000 0.032351 0.147073
0.000000 0.032307 0.176925
0.000000 0.032264 0.206924
0.000000 0.032220 0.237068
0.000000 0.032176 0.267359
0.000000 0.032132 0.297795
0.000000 0.032088 0.328378
0.000000 0.032045 0.359106
0.000000 0.032001 0.389981
0.000000 0.031957 0.421001
0.000000 0.031913 0.452168
0.000000 0.031869 0.483480
0.000000 0.031826 0.514939
0.000000 0.031782 0.546543
0.000000 0.031738 0.578294
0.000000 0.031694 0.610190
0.000000 0.031650 0.642233
0.000000 0.031607 0.674421
0.000000 0.031563 0.706756
0.000000 0.031519 0.739236
0.000000 0.031475 0.771863
0.000000 0.031431 0.804635
0.000000 0.031388 0.837554
0.000000 0.031344 0.870618
0.000000 0.031300 0.903829
0.000000 0.031256 0.937185
0.000000 0.031250 0.968750
0.000000 0.031250 1.000000
0.000000 0.064969 0.000000
0.000000 0.064881 0.029266
0.000000 0.064793 0.058678
0.000000 0.064706 0.088236
0.000000 0.064618 0.117939
0.000000 0.064531 0.147789
0.000000 0.064443 0.177785
0.000000 0.064355 0.207927
0.000000 0.064268 0.238215
0.000000 0.064180 0.268649
0.000000 0.064093 0.299229
0.000000 0.064005 0.329954
0.000000 0.063917 0.360826
0.000000 0.063830 0.391844
0.000000 0.063742 0.423008
0.000000 0.063655 0.454318
0.000000 0.063567 0.485773
0.000000 0.063479 0.517375
0.000000 0.063392 0.549123
0.000000 0.063304 0.581017
0.000000 0.063217 0.613057
0.000000 0.063129 0.645242
0.000000 0.063041 0.677574
0.000000 0.062954 0.710052
0.000000 0.062866 0.742676
0.000000 0.062779 0.775446
0.000000 0.062691 0.808361
0.000000 0.062603 0.841423
0.000000 0.062516 0.874631
0.000000 0.062500 0.906250
0.000000 0.062500 0.937500
0.000000 0.062500 0.968750
0.000000 0.062500 1.000000
0.000000 0.097195 0.000000
0.000000 0.097063 0.029409
0.000000 0.096932 0.058964
0.000000 0.096801 0.088666
0.000000 0.096669 0.118513
0.000000 0.096538 0.148506
0.000000 0.096406 0.178645
0.000000 0.096275 0.208930
0.000000 0.096144 0.239361
0.000000 0.096012 0.269938
0.000000 0.095881 0.300662
0.000000 0.095750 0.331531
0.000000 0.095618 0.362546
0.000000 0.095487 0.393707
0.000000 0.095355 0.425014
0.000000 0.095224 0.456467
0.000000 0.095093 0.488066
0.000000 0.094961 0.519812
0.000000 0.094830 0.551703
0.000000 0.094698 0.583740
0.000000 0.094567 0.615923
0.000000 0.094436 0.648252
0.000000 0.094304 0.680727
0.000000 0.094173 0.713348
0.000000 0.094041 0.746115
0.000000 0.093910 0.779028
0.000000 0.093779 0.812087
0.000000 0.093750 0.843750
0.000000 0.093750 0.875000
0.000000 0.093750 0.906250
0.000000 0.093750 0.937500
0.000000 0.093750 0.968750
0.000000 0.093750 1.000000
0.000000 0.129249 0.000000
0.000000 0.129074 0.029552
0.000000 0.128899 0.059251
0.000000 0.128724 0.089095
0.000000 0.128548 0.119086
0.000000 0.128373 0.149222
0.000000 0.128198 0.179505
0.000000 0.128023 0.209933
0.000000 0.127848 0.240508
0.000000 0.127672 0.271228
0.000000 0.127497 0.302095
0.000000 0.127322 0.333107
0.000000 0.127147 0.364266
0.000000 0.126972 0.395570
0.000000 0.126796 0.427021
0.000000 0.126621 0.458617
0.000000 0.126446 0.490359
0.000000 0.126271 0.522248
0.000000 0.126096 0.554282
0.000000 0.125921 0.586463
0.000000 0.125745 0.618789
0.000000 0.125570 0.651261
0.000000 0.125395 0.683880
0.000000 0.125220 0.716644
0.000000 0.125045 0.749555
0.000000 0.125000 0.781250
0.000000 0.125000 0.812500
0.000000 0.125000 0.843750
0.000000 0.125000 0.875000
0.000000 0.125000 0.906250
0.000000 0.125000 0.937500
0.000000 0.125000 0.968750
0.000000 0.125000 1.000000
0.000000 0.161132 0.000000
0.000000 0.160913 0.029696
0.000000 0.160694 0.059538
0.000000 0.160475 0.089525
0.000000 0.160256 0.119659
0.000000 0.160037 0.149939
0.000000 0.159818 0.180365
0.000000 0.159599 0.210937
0.000000 0.159380 0.241654
0.000000 0.159161 0.272518
0.000000 0.158942 0.303528
0.000000 0.158723 0.334684
0.000000 0.158504 0.365985
0.000000 0.158285 0.397433
0.000000 0.158066 0.429027
0.000000 0.157847 0.460767
0.000000 0.157628 0.492652
0.000000 0.157409 0.524684
0.000000 0.157190 0.556862
0.000000 0.156971 0.589186
0.000000 0.156752 0.621655
0.000000 0.156533 0.654271
0.000000 0.156314 0.687033
0.000000 0.156250 0.718750
0.000000 0.156250 0.750000
0.000000 0.156250 0.781250
0.000000 0.156250 0.812500
0.000000 0.156250 0.843750
0.000000 0.156250 0.875000
0.000000 0.156250 0.906250
0.000000 0.156250 0.937500
0.000000 0.156250 0.968750
0.000000 0.156250 1.000000
0.000000 0.192842 0.000000
0.000000 0.192579 0.029839
0.000000 0.192316 0.059824
0.000000 0.192054 0.089955
0.000000 0.191791 0.120232
0.000000 0.191528 0.150656
0.000000 0.191265 0.181225
0.000000 0.191002 0.211940
0.000000 0.190740 0.242801
0.000000 0.190477 0.273808
0.000000 0.190214 0.304961
0.000000 0.189951 0.336260
0.000000 0.189688 0.367705
0.000000 0.189426 0.399296
0.000000 0.189163 0.431033
0.000000 0.188900 0.462916
0.000000 0.188637 0.494945
0.000000 0.188375 0.527120
0.000000 0.188112 0.559441
0.000000 0.187849 0.591908
0.000000 0.187586 0.624521
0.000000 0.187500 0.656250
0.000000 0.187500 0.687500
0.000000 0.187500 0.718750
0.000000 0.187500 0.750000
0.000000 0.187500 0.781250
0.000000 0.187500 0.812500
0.000000 0.187500 0.843750
0.000000 0.187500 0.875000
0.000000 0.187500 0.906250
0.000000 0.187500 0.937500
0.000000 0.187500 0.968750
0.000000 0.187500 1.000000
0.000000 0.224380 0.000000
0.000000 0.224074 0.029982
0.000000 0.223767 0.060111
0.000000 0.223461 0.090385
0.000000 0.223154 0.120806
0.000000 0.222847 0.151372
0.000000 0.222541 0.182084
0.000000 0.222234 0.212943
0.000000 0.221928 0.243947
0.000000 0.221621 0.275098
0.000000 0.221315 0.306394
0.000000 0.221008 0.337836
0.000000 0.220701 0.369425
0.000000 0.220395 0.401159
0.000000 0.220088 0.433040
0.000000 0.219782 0.465066
0.000000 0.219475 0.497238
0.000000 0.219168 0.529557
0.000000 0.218862 0.562021
0.000000 0.218750 0.593750
0.000000 0.218750 0.625000
0.000000 0.218750 0.656250
0.000000 0.218750 0.687500
0.000000 0.218750 0.718750
0.000000 0.218750 0.750000
0.000000 0.218750 0.781250
0.000000 0.218750 0.812500
0.000000 0.218750 0.843750
0.000000 0.218750 0.875000
0.000000 0.218750 0.906250
0.000000 0.218750 0.937500
0.000000 0.218750 0.968750
0.000000 0.218750 1.000000
0.000000 0.255747 0.000000
0.000000 0.255396 0.030126
0.000000 0.255046 0.060397
0.000000 0.254696 0.090815
0.000000 0.254345 0.121379
0.000000 0.253995 0.152089
0.000000 0.253645 0.182944
0.000000 0.253294 0.213946
0.000000 0.252944 0.245094
0.000000 0.252593 0.276387
0.000000 0.252243 0.307827
0.000000 0.251893 0.339413
0.000000 0.251542 0.371145
0.000000 0.251192 0.403022
0.000000 0.250841 0.435046
0.000000 0.250491 0.467216
0.000000 0.250141 0.499531
0.000000 0.250000 0.531250
0.000000 0.250000 0.562500
0.000000 0.250000 0.593750
0.000000 0.250000 0.625000
0.000000 0.250000 0.656250
0.000000 0.250000 0.687500
0.000000 0.250000 0.718750
0.000000 0.250000 0.750000
0.000000 0.250000 0.781250
0.000000 0.250000 0.812500
0.000000 0.250000 0.843750
0.000000 0.250000 0.875000
0.000000 0.250000 0.906250
0.000000 0.250000 0.937500
0.000000 0.250000 0.968750
0.000000 0.250000 1.000000
0.000000 0.286941 0.000000
0.000000 0.286547 0.030269
0.000000 0.286153 0.060684
0.000000 0.285759 0.091245
0.000000 0.285365 0.121952
0.000000 0.284970 0.152805
0.000000 0.284576 0.183804
0.000000 0.284182 0.214949
0.000000 0.283788 0.246240
0.000000 0.283394 0.277677
0.000000 0.282999 0.309260
0.000000 0.282605 0.340989
0.000000 0.282211 0.372864
0.000000 0.281817 0.404885
0.000000 0.281423 0.437052
0.000000 0.281250 0.468750
0.000000 0.281250 0.500000
0.000000 0.281250 0.531250
0.000000 0.281250 0.562500
0.000000 0.281250 0.593750
0.000000 0.281250 0.625000
0.000000 0.281250 0.656250
0.000000 0.281250 0.687500
0.000000 0.281250 0.718750
0.000000 0.281250 0.750000
0.000000 0.281250 0.781250
0.000000 0.281250 0.812500
0.000000 0.281250 0.843750
0.000000 0.281250 0.875000
0.000000 0.281250 0.906250
0.000000 0.281250 0.937500
0.000000 0.281250 0.968750
0.000000 0.281250 1.000000
0.000000 0.317964 0.000000
0.000000 0.317526 0.030412
0.000000 0.317088 0.060971
0.000000 0.316650 0.091675
0.000000 0.316212 0.122525
0.000000 0.315774 0.153522
0.000000 0.315336 0.184664
0.000000 0.314898 0.215952
0.000000 0.314460 0.247387
0.000000 0.314022 0.278967
0.000000 0.313584 0.310693
0.000000 0.313146 0.342566
0.000000 0.312708 0.374584
0.000000 0.312500 0.406250
0.000000 0.312500 0.437500
0.000000 0.312500 0.468750
0.000000 0.312500 0.500000
0.000000 0.312500 0.524687
0.000000 0.312500 0.554375
0.000000 0.312500 0.584063
0.000000 0.312500 0.613750
0.000000 0.312500 0.643437
0.000000 0.312500 0.673125
0.000000 0.312500 0.702812
0.000000 0.312500 0.732500
0.000000 0.312500 0.762188
0.000000 0.312500 0.791875
0.000000 0.312500 0.821562
0.000000 0.312500 0.851250
0.000000 0.312500 0.880937
0.000000 0.312500 0.910625
0.000000 0.312500 0.940312
0.000000 0.312500 0.970000
0.000000 0.348814 0.000000
0.000000 0.348333 0.030556
0.000000 0.347851 0.061257
0.000000 0.347369 0.092105
0.000000 0.346887 0.123099
0.000000 0.346405 0.154238
0.000000 0.345924 0.185524
0.000000 0.345442 0.216956
0.000000 0.344960 0.248533
0.000000 0.344478 0.280257
0.000000 0.343997 0.312126
0.000000 0.343750 0.343750
0.000000 0.343750 0.375000
0.000000 0.343750 0.406250
0.000000 0.343750 0.437500
0.000000 0.343750 0.468750
0.000000 0.343750 0.500000
0.000000 0.343750 0.524687
0.000000 0.343750 0.554375
0.000000 0.343750 0.584063
0.000000 0.343750 0.613750
0.000000 0.343750 0.643437
0.000000 0.343750 0.673125
0.000000 0.343750 0.702812
0.000000 0.343750 0.732500
0.000000 0.343750 0.762188
0.000000 0.343750 0.791875
0.000000 0.343750 0.821562
0.000000 0.343750 0.851250
0.000000 0.343750 0.880937
0.000000 0.343750 0.910625
0.000000 0.343750 0.940312
0.000000 0.343750 0.970000
0.000000 0.379493 0.000000
0.000000 0.378967 0.030699
0.000000 0.378442 0.061544
0.000000 0.377916 0.092535
0.000000 0.377391 0.123672
0.000000 0.376865 0.154955
0.000000 0.376339 0.186384
0.000000 0.375814 0.217959
0.000000 0.375288 0.249680
0.000000 0.375000 0.281250
0.000000 0.375000 0.312500
0.000000 0.375000 0.343750
0.000000 0.375000 0.375000
0.000000 0.375000 0.406250
0.000000 0.375000 0.437500
0.000000 0.375000 0.468750
0.000000 0.375000 0.500000
0.000000 0.375000 0.524687
0.000000 0.375000 0.554375
0.000000 0.375000 0.584063
0.000000 0.375000 0.613750
0.000000 0.375000 0.643437
0.000000 0.375000 0.673125
0.000000 0.375000 0.702812
0.000000 0.375000 0.732500
0.000000 0.375000 0.762188
0.000000 0.375000 0.791875
0.000000 0.375000 0.821562
0.000000 0.375000 0.851250
0.000000 0.375000 0.880937
0.000000 0.375000 0.910625
0.000000 0.375000 0.940312
0.000000 0.375000 0.970000
0.000000 0.410000 0.000000
0.000000 0.409430 0.030842
0.000000 0.408861 0.061831
0.000000 0.408291 0.092965
0.000000 0.407722 0.124245
0.000000 0.407153 0.155671
0.000000 0.406583 0.187244
0.000000 0.406250 0.218750
0.000000 0.406250 0.250000
0.000000 0.406250 0.281250
0.000000 0.406250 0.312500
0.000000 0.406250 0.343750
0.000000 0.406250 0.375000
0.000000 0.406250 0.406250
0.000000 0.406250 0.437500
0.000000 0.406250 0.468750
0.000000 0.406250 0.500000
0.000000 0.406250 0.524687
0.000000 0.406250 0.554375
0.000000 0.406250 0.584063
0.000000 0.406250 0.613750
0.000000 0.406250 0.643437
0.000000 0.406250 0.673125
0.000000 0.406250 0.702812
0.000000 0.406250 0.732500
0.000000 0.406250 0.762188
0.000000 0.406250 0.791875
0.000000 0.406250 0.821562
0.000000 0.406250 0.851250
0.000000 0.406250 0.880937
0.000000 0.406250 0.910625
0.000000 0.406250 0.940312
0.000000 0.406250 0.970000
0.000000 0.440334 0.000000
0.000000 0.439721 0.030986
0.000000 0.439108 0.062117
0.000000 0.438495 0.093395
0.000000 0.437881 0.124818
0.000000 0.437500 0.156250
0.000000 0.437500 0.187500
0.000000 0.437500 0.218750
0.000000 0.437500 0.250000
0.000000 0.437500 0.281250
0.000000 0.437500 0.312500
0.000000 0.437500 0.343750
0.000000 0.437500 0.375000
0.000000 0.437500 0.406250
0.000000 0.437500 0.437500
0.000000 0.437500 0.468750
0.000000 0.437500 0.500000
0.000000 0.437500 0.524687
0.000000 0.437500 0.554375
0.000000 0.437500 0.584063
0.000000 0.437500 0.613750
0.000000 0.437500 0.643437
0.000000 0.437500 0.673125
0.000000 0.437500 0.702812
0.000000 0.437500 0.732500
0.000000 0.437500 0.762188
0.000000 0.437500 0.791875
0.000000 0.437500 0.821562
0.000000 0.437500 0.851250
0.000000 0.437500 0.880937
0.000000 0.437500 0.910625
0.000000 0.437500 0.940312
0.000000 0.437500 0.970000
0.000000 0.470497 0.000000
0.000000 0.469840 0.031129
0.000000 0.469183 0.062404
0.000000 0.468750 0.093750
0.000000 0.468750 0.125000
0.000000 0.468750 0.156250
0.000000 0.468750 0.187500
0.000000 0.468750 0.218750
0.000000 0.468750 0.250000
0.000000 0.468750 0.281250
0.000000 0.468750 0.312500
0.000000 0.468750 0.343750
0.000000 0.468750 0.375000
0.000000 0.468750 0.406250
0.000000 0.468750 0.437500
0.000000 0.468750 0.468750
0.000000 0.468750 0.500000
0.000000 0.468750 0.524687
0.000000 0.468750 0.554375
0.000000 0.468750 0.584063
0.000000 0.468750 0.613750
0.000000 0.468750 0.643437
0.000000 0.468750 0.673125
0.000000 0.468750 0.702812
0.000000 0.468750 0.732500
0.000000 0.468750 0.762188
0.000000 0.468750 0.791875
0.000000 0.468750 0.821562
0.000000 0.468750 0.851250
0.000000 0.468750 0.880937
0.000000 0.468750 0.910625
0.000000 0.468750 0.940312
0.000000 0.468750 0.970000
0.000000 0.500487 0.000000
0.000000 0.500000 0.031250
0.000000 0.500000 0.062500
0.000000 0.500000 0.093750
0.000000 0.500000 0.125000
0.000000 0.500000 0.156250
0.000000 0.500000 0.187500
0.000000 0.500000 0.218750
0.000000 0.500000 0.250000
0.000000 0.500000 0.281250
0.000000 0.500000 0.312500
0.000000 0.500000 0.343750
0.000000 0.500000 0.375000
0.000000 0.500000 0.406250
0.000000 0.500000 0.437500
0.000000 0.500000 0.468750
0.000000 0.500000 0.500000
0.000000 0.500000 0.524687
0.000000 0.500000 0.554375
0.000000 0.500000 0.584063
0.000000 0.500000 0.613750
0.000000 0.500000 0.643437
0.000000 0.500000 0.673125
0.000000 0.500000 0.702812
0.000000 0.500000 0.732500
0.000000 0.500000 0.762188
0.000000 0.500000 0.791875
0.000000 0.500000 0.821562
0.000000 0.500000 0.851250
0.000000 0.500000 0.880937
0.000000 0.500000 0.910625
0.000000 0.500000 0.940312
0.000000 0.500000 0.970000
0.000000 0.531250 0.000000
0.000000 0.531250 0.031250
0.000000 0.531250 0.062500
0.000000 0.531250 0.093750
0.000000 0.531250 0.125000
0.000000 0.531250 0.156250
0.000000 0.531250 0.187500
0.000000 0.531250 0.218750
0.000000 0.531250 0.250000
0.000000 0.531250 0.281250
0.000000 0.531250 0.312500
0.000000 0.531250 0.343750
0.000000 0.531250 0.375000
0.000000 0.531250 0.406250
0.000000 0.531250 0.437500
0.000000 0.531250 0.468750
0.000000 0.531250 0.500000
0.000000 0.531250 0.524687
0.000000 0.531250 0.554375
0.000000 0.531250 0.584063
0.000000 0.531250 0.613750
0.000000 0.531250 0.643437
0.000000 0.531250 0.673125
0.000000 0.531250 0.702812
0.000000 0.531250 0.732500
0.000000 0.531250 0.762188
0.000000 0.531250 0.791875
0.000000 0.531250 0.821562
0.000000 0.531250 0.851250
0.000000 0.531250 0.880937
0.000000 0.531250 0.910625
0.000000 0.531250 0.940312
0.000000 0.531250 0.970000
0.000000 0.562500 0.000000
0.000000 0.562500 0.031250
0.000000 0.562500 0.062500
0.000000 0.562500 0.093750
0.000000 0.562500 0.125000
0.000000 0.562500 0.156250
0.000000 0.562500 0.187500
0.000000 0.562500 0.218750
0.000000 0.562500 0.250000
0.000000 0.562500 0.281250
0.000000 0.562500 0.312500
0.000000 0.562500 0.343750
0.000000 0.562500 0.375000
0.000000 0.562500 0.406250
0.000000 0.562500 0.437500
0.000000 0.562500 0.468750
0.000000 0.562500 0.500000
0.000000 0.562500 0.524687
0.000000 0.562500 0.554375
0.000000 0.562500 0.584063
0.000000 0.562500 0.613750
0.000000 0.562500 0.643437
0.000000 0.562500 0.673125
0.000000 0.562500 0.702812
0.000000 0.562500 0.732500
0.000000 0.562500 0.762188
0.000000 0.562500 0.791875
0.000000 0.562500 0.821562
0.000000 0.562500 0.851250
0.000000 0.562500 0.880937
0.000000 0.562500 0.910625
0.000000 0.562500 0.940312
0.000000 0.562500 0.970000
0.000000 0.593750 0.000000
0.000000 0.593750 0.031250
0.000000 0.593750 0.062500
0.000000 0.593750 0.093750
0.000000 0.593750 0.125000
0.000000 0.593750 0.156250
0.000000 0.593750 0.187500
0.000000 0.593750 0.218750
0.000000 0.593750 0.250000
0.000000 0.593750 0.281250
0.000000 0.593750 0.312500
0.000000 0.593750 0.343750
0.000000 0.593750 0.375000
0.000000 0.593750 0.406250
0.000000 0.593750 0.437500
0.000000 0.593750 0.468750
0.000000 0.593750 0.500000
0.000000 0.593750 0.524687
0.000000 0.593750 0.554375
0.000000 0.593750 0.584063
0.000000 0.593750 0.613750
0.000000 0.593750 0.643437
0.000000 0.593750 0.673125
0.000000 0.593750 0.702812
0.000000 0.593750 0.732500
0.000000 0.593750 0.762188
0.000000 0.593750 0.791875
0.000000 0.593750 0.821562
0.000000 0.593750 0.851250
0.000000 0.593750 0.880937
0.000000 0.593750 0.910625
0.000000 0.593750 0.940312
0.000000 0.593750 0.970000
0.000000 0.625000 0.000000
0.000000 0.625000 0.031250
0.000000 0.625000 0.062500
0.000000 0.625000 0.093750
0.000000 0.625000 0.125000
0.000000 0.625000 0.156250
0.000000 0.625000 0.187500
0.000000 0.625000 0.218750
0.000000 0.625000 0.250000
0.000000 0.625000 0.281250
0.000000 0.625000 0.312500
0.000000 0.625000 0.343750
0.000000 0.625000 0.375000
0.000000 0.625000 0.406250
0.000000 0.625000 0.437500
0.000000 0.625000 0.468750
0.000000 0.625000 0.500000
0.000000 0.625000 0.524687
0.000000 0.625000 0.554375
0.000000 0.625000 0.584063
0.000000 0.625000 0.613750
0.000000 0.625000 0.643437
0.000000 0.625000 0.673125
0.000000 0.625000 0.702812
0.000000 0.625000 0.732500
0.000000 0.625000 0.762188
0.000000 0.625000 0.791875
0.000000 0.625000 0.821562
0.000000 0.625000 0.851250
0.000000 0.625000 0.880937
0.000000 0.625000 0.910625
0.000000 0.625000 0.940312
0.000000 0.625000 0.970000
0.000000 0.656250 0.000000
0.000000 0.656250 0.031250
0.000000 0.656250 0.062500
0.000000 0.656250 0.093750
0.000000 0.656250 0.125000
0.000000 0.656250 0.156250
0.000000 0.656250 0.187500
0.000000 0.656250 0.218750
0.000000 0.656250 0.250000
0.000000 0.656250 0.281250
0.000000 0.656250 0.312500
0.000000 0.656250 0.343750
0.000000 0.656250 0.375000
0.000000 0.656250 0.406250
0.000000 0.656250 0.437500
0.000000 0.656250 0.468750
0.000000 0.656250 0.500000
0.000000 0.656250 0.524687
0.000000 0.656250 0.554375
0.000000 0.656250 0.584063
0.000000 0.656250 0.613750
0.000000 0.656250 0.643437
0.000000 0.656250 0.673125
0.000000 0.656250 0.702812
0.000000 0.656250 0.732500
0.000000 0.656250 0.762188
0.000000 0.656250 0.791875
0.000000 0.656250 0.821562
0.000000 0.656250 0.851250
0.000000 0.656250 0.880937
0.000000 0.656250 0.910625
0.000000 0.656250 0.940312
0.000000 0.656250 0.970000
0.000000 0.687500 0.000000
0.000000 0.687500 0.031250
0.000000 0.687500 0.062500
0.000000 0.687500 0.093750
0.000000 0.687500 0.125000
0.000000 0.687500 0.156250
0.000000 0.687500 0.187500
0.000000 0.687500 0.218750
0.000000 0.687500 0.250000
0.000000 0.687500 0.281250
0.000000 0.687500 0.312500
0.000000 0.687500 0.343750
0.000000 0.687500 0.375000
0.000000 0.687500 0.406250
0.000000 0.687500 0.437500
0.000000 0.687500 0.468750
0.000000 0.687500 0.500000
0.000000 0.687500 0.524687
0.000000 0.687500 0.554375
0.000000 0.687500 0.584063
0.000000 0.687500 0.613750
0.000000 0.687500 0.643437
0.000000 0.687500 0.673125
0.000000 0.687500 0.702812
0.000000 0.687500 0.732500
0.000000 0.687500 0.762188
0.000000 0.687500 0.791875
0.000000 0.687500 0.821562
0.000000 0.687500 0.851250
0.000000 0.687500 0.880937
0.000000 0.687500 0.910625
0.000000 0.687500 0.940312
0.000000 0.687735 1.001025
0.000000 0.718750 0.000000
0.000000 0.718750 0.031250
0.000000 0.718750 0.062500
0.000000 0.718750 0.093750
0.000000 0.718750 0.125000
0.000000 0.718750 0.156250
0.000000 0.718750 0.187500
0.000000 0.718750 0.218750
0.000000 0.718750 0.250000
0.000000 0.718750 0.281250
0.000000 0.718750 0.312500
0.000000 0.718750 0.343750
0.000000 0.718750 0.375000
0.000000 0.718750 0.406250
0.000000 0.718750 0.437500
0.000000 0.718750 0.468750
0.000000 0.718750 0.500000
0.000000 0.718750 0.524687
0.000000 0.718750 0.554375
0.000000 0.718750 0.584063
0.000000 0.718750 0.613750
0.000000 0.718750 0.643437
0.000000 0.718750 0.673125
0.000000 0.718750 0.702812
0.000000 0.718750 0.732500
0.000000 0.718750 0.762188
0.000000 0.718750 0.791875
0.000000 0.718750 0.821562
0.000000 0.718750 0.851250
0.000000 0.718750 0.880937
0.000000 0.718963 0.938332
0.000000 0.719858 0.973230
0.000000 0.720754 1.008363
0.000000 0.750000 0.000000
0.000000 0.750000 0.031250
0.000000 0.750000 0.062500
0.000000 0.750000 0.093750
0.000000 0.750000 0.125000
0.000000 0.750000 0.156250
0.000000 0.750000 0.187500
0.000000 0.750000 0.218750
0.000000 0.750000 0.250000
0.000000 0.750000 0.281250
0.000000 0.750000 0.312500
0.000000 0.750000 0.343750
0.000000 0.750000 0.375000
0.000000 0.750000 0.406250
0.000000 0.750000 0.437500
0.000000 0.750000 0.468750
0.000000 0.750000 0.500000
0.000000 0.750000 0.524687
0.000000 0.750000 0.554375
0.000000 0.750000 0.584063
0.000000 0.750000 0.613750
0.000000 0.750000 0.643437
0.000000 0.750000 0.673125
0.000000 0.750000 0.702812
0.000000 0.750000 0.732500
0.000000 0.750000 0.762188
0.000000 0.750000 0.791875
0.000000 0.750000 0.821562
0.000000 0.750188 0.875656
0.000000 0.751122 0.910317
0.000000 0.752056 0.945211
0.000000 0.752991 0.980339
0.000000 0.753925 1.015700
0.000000 0.781250 0.000000
0.000000 0.781250 0.031250
0.000000 0.781250 0.062500
0.000000 0.781250 0.093750
0.000000 0.781250 0.125000
0.000000 0.781250 0.156250
0.000000 0.781250 0.187500
0.000000 0.781250 0.218750
0.000000 0.781250 0.250000
0.000000 0.781250 0.281250
0.000000 0.781250 0.312500
0.000000 0.781250 0.343750
0.000000 0.781250 0.375000
0.000000 0.781250 0.406250
0.000000 0.781250 0.437500
0.000000 0.781250 0.468750
0.000000 0.781250 0.500000
0.000000 0.781250 0.524687
0.000000 0.781250 0.554375
0.000000 0.781250 0.584063
0.000000 0.781250 0.613750
0.000000 0.781250 0.643437
0.000000 0.781250 0.673125
0.000000 0.781250 0.702812
0.000000 0.781250 0.732500
0.000000 0.781250 0.762188
0.000000 0.781410 0.812998
0.000000 0.782383 0.847420
0.000000 0.783356 0.882077
0.000000 0.784329 0.916966
0.000000 0.785303 0.952090
0.000000 0.786276 0.987447
0.000000 0.787249 1.023038
0.000000 0.812500 0.000000
0.000000 0.812500 0.031250
0.000000 0.812500 0.062500
0.000000 0.812500 0.093750
0.000000 0.812500 0.125000
0.000000 0.812500 0.156250
0.000000 0.812500 0.187500
0.000000 0.812500 0.218750
0.000000 0.812500 0.250000
0.000000 0.812500 0.281250
0.000000 0.812500 0.312500
0.000000 0.812500 0.343750
0.000000 0.812500 0.375000
0.000000 0.812500 0.406250
0.000000 0.812500 0.437500
0.000000 0.812500 0.468750
0.000000 0.812500 0.500000
0.000000 0.812500 0.524687
0.000000 0.812500 0.554375
0.000000 0.812500 0.584063
0.000000 0.812500 0.613750
0.000000 0.812500 0.643437
0.000000 0.812500 0.673125
0.000000 0.812500 0.702812
0.000000 0.812629 0.750356
0.000000 0.813641 0.784541
0.000000 0.814653 0.818959
0.000000 0.815665 0.853611
0.000000 0.816678 0.888497
