app/src/main/assets/luts/01_Classic_Cyan_Orange.cube
TITLE "Classic Cyan-Orange Style"
LUT_3D_SIZE 5
0.000000 0.000000 0.000000
0.000000 0.000000 0.235922
0.000000 0.000000 0.481187
0.000000 0.000000 0.735797
0.000000 0.000000 0.999750
0.000000 0.255747 0.000000
0.000000 0.252944 0.245094
0.000000 0.250141 0.499531
0.000000 0.250000 0.750000
0.000000 0.250000 1.000000
0.000000 0.500487 0.000000
0.000000 0.500000 0.250000
0.000000 0.500000 0.500000
0.000000 0.500000 0.732500
0.000000 0.500000 0.970000
0.000000 0.750000 0.000000
0.000000 0.750000 0.250000
0.000000 0.750000 0.500000
0.000000 0.750000 0.732500
0.000000 0.753925 1.015700
0.000000 1.000000 0.000000
0.000000 1.000000 0.250000
0.000000 1.004867 0.507300
0.000000 1.014833 0.783375
0.000000 1.024800 1.074400
0.266969 0.000000 0.000000
0.262297 0.000000 0.237703
0.257625 0.000000 0.484750
0.252953 0.000000 0.741141
0.250000 0.000000 1.000000
0.257797 0.254678 0.000000
0.253125 0.251875 0.246875
0.250000 0.250000 0.500000
0.250000 0.250000 0.750000
0.250000 0.250000 1.000000
0.250000 0.500000 0.000000
0.250000 0.500000 0.250000
0.250000 0.500000 0.500000
0.250000 0.500000 0.732500
0.250000 0.500000 0.970000
0.250000 0.750000 0.000000
0.250000 0.750000 0.250000
0.250000 0.750000 0.500000
0.250000 0.750000 0.732500
0.242096 0.756775 1.027100
0.250000 1.000000 0.000000
0.250000 1.000000 0.250000
0.242417 1.008667 0.513000
0.233696 1.018633 0.791925
0.224975 1.028600 1.085800
0.530375 0.000000 0.000000
0.521031 0.000000 0.239484
0.511687 0.000000 0.488312
0.502344 0.000000 0.746484
0.500000 0.000000 1.000000
0.512031 0.253609 0.000000
0.502687 0.250806 0.248656
0.500000 0.250000 0.500000
0.500000 0.250000 0.750000
0.500000 0.250000 1.000000
0.500000 0.500000 0.000000
0.500000 0.500000 0.250000
0.500000 0.500000 0.500000
0.500000 0.500000 0.750000
0.500000 0.500000 1.000000
0.500000 0.750000 0.000000
0.500000 0.750000 0.250000
0.500000 0.750000 0.500000
0.494983 0.752150 0.756450
0.477542 0.759625 1.038500
0.500000 1.000000 0.000000
0.495625 1.002500 0.251875
0.478183 1.012467 0.518700
0.460742 1.022433 0.800475
0.443300 1.032400 1.097200
0.790219 0.000000 0.000000
0.776203 0.000000 0.241266
0.762188 0.000000 0.491875
0.750000 0.000000 0.750000
0.750000 0.000000 1.000000
0.762703 0.252541 0.000000
0.750000 0.250000 0.250000
0.750000 0.250000 0.500000
0.750000 0.250000 0.750000
0.750000 0.250000 1.000000
0.750000 0.500000 0.000000
0.750000 0.500000 0.250000
0.750000 0.500000 0.500000
0.750000 0.500000 0.750000
0.750000 0.500000 1.000000
0.750000 0.750000 0.000000
0.750000 0.750000 0.250000
0.750000 0.750000 0.500000
0.732500 0.755000 0.765000
0.706337 0.762475 1.049900
0.750000 1.000000 0.000000
0.733463 1.006300 0.254725
0.707300 1.016267 0.524400
0.681137 1.026233 0.809025
0.654975 1.036200 1.108600
1.046500 0.000000 0.000000
1.027813 0.000000 0.243047
1.009125 0.000000 0.495437
1.000000 0.000000 0.750000
1.000000 0.000000 1.000000
1.009813 0.251472 0.000000
1.000000 0.250000 0.250000
1.000000 0.250000 0.500000
1.000000 0.250000 0.750000
1.000000 0.250000 1.000000
1.000000 0.500000 0.000000
1.000000 0.500000 0.250000
1.000000 0.500000 0.500000
1.000000 0.500000 0.750000
0.996967 0.500433 1.002600
1.000000 0.750000 0.000000
1.000000 0.750000 0.250000
0.998250 0.750375 0.500750
0.963367 0.757850 0.773550
0.928483 0.765325 1.061300
0.999533 1.000133 0.000000
0.964650 1.010100 0.257575
0.929767 1.020067 0.530100
0.894883 1.030033 0.817575
0.860000 1.040000 1.120000
