app/src/main/assets/luts/02_Cinematic_Dark.cube
TITLE "Cinematic Dark Style"
LUT_3D_SIZE 33
0.000000 0.000000 0.000000
0.000000 0.000000 0.030936
0.000000 0.000000 0.057728
0.000000 0.000000 0.083152
0.000000 0.000000 0.107725
0.000000 0.000000 0.131685
0.000000 0.000000 0.155167
0.000000 0.000000 0.178259
0.000000 0.000000 0.201022
0.000000 0.000000 0.223502
0.000000 0.000000 0.245733
0.000000 0.000000 0.267742
0.000000 0.000000 0.289552
0.000000 0.000000 0.311180
0.000000 0.000000 0.332643
0.000000 0.000000 0.353953
0.000000 0.000000 0.375121
0.000000 0.000000 0.396157
0.000000 0.000000 0.417069
0.000000 0.000000 0.437866
0.000000 0.000000 0.458554
0.000000 0.000000 0.479138
0.000000 0.000000 0.685728
0.000000 0.000000 0.714644
0.000000 0.000000 0.743510
0.000000 0.000000 0.772332
0.000000 0.000000 0.801114
0.000000 0.000000 0.829862
0.000000 0.000000 0.858578
0.000000 0.000000 0.887267
0.000000 0.000000 0.915931
0.000000 0.000000 0.944575
0.000000 0.000000 0.973200
0.000000 0.037565 0.000000
0.000000 0.037565 0.030936
0.000000 0.037565 0.057728
0.000000 0.037565 0.083152
0.000000 0.037565 0.107725
0.000000 0.037565 0.131685
0.000000 0.037565 0.155167
0.000000 0.037565 0.178259
0.000000 0.037565 0.201022
0.000000 0.037565 0.223502
0.000000 0.037565 0.245733
0.000000 0.037565 0.267742
0.000000 0.037565 0.289552
0.000000 0.037565 0.311180
0.000000 0.037565 0.332643
0.000000 0.037565 0.353953
0.000000 0.037565 0.375121
0.000000 0.037565 0.396157
0.000000 0.037565 0.417069
0.000000 0.037565 0.437866
0.000000 0.045063 0.629329
0.000000 0.045035 0.658432
0.000000 0.045008 0.687474
0.000000 0.044980 0.716461
0.000000 0.044953 0.745398
0.000000 0.044925 0.774290
0.000000 0.044898 0.803143
0.000000 0.044870 0.831961
0.000000 0.044842 0.860747
0.000000 0.044815 0.889505
0.000000 0.044787 0.918239
0.000000 0.044760 0.946952
0.000000 0.044732 0.975646
0.000000 0.070099 0.000000
0.000000 0.070099 0.030936
0.000000 0.070099 0.057728
0.000000 0.070099 0.083152
0.000000 0.070099 0.107725
0.000000 0.070099 0.131685
0.000000 0.070099 0.155167
0.000000 0.070099 0.178259
0.000000 0.070099 0.201022
0.000000 0.070099 0.223502
0.000000 0.070099 0.245733
0.000000 0.070099 0.267742
0.000000 0.070099 0.289552
0.000000 0.070099 0.311180
0.000000 0.070099 0.332643
0.000000 0.070099 0.353953
0.000000 0.070099 0.375121
0.000000 0.070099 0.396157
0.000000 0.084092 0.572368
0.000000 0.084040 0.601688
0.000000 0.083989 0.630931
0.000000 0.083938 0.660106
0.000000 0.083886 0.689220
0.000000 0.083835 0.718278
0.000000 0.083784 0.747286
0.000000 0.083732 0.776249
0.000000 0.083681 0.805172
0.000000 0.083629 0.834060
0.000000 0.083578 0.862916
0.000000 0.083527 0.891744
0.000000 0.083475 0.920547
0.000000 0.083424 0.949329
0.000000 0.083373 0.978092
0.000000 0.100970 0.000000
0.000000 0.100970 0.030936
0.000000 0.100970 0.057728
0.000000 0.100970 0.083152
0.000000 0.100970 0.107725
0.000000 0.100970 0.131685
0.000000 0.100970 0.155167
0.000000 0.100970 0.178259
0.000000 0.100970 0.201022
0.000000 0.100970 0.223502
0.000000 0.100970 0.245733
0.000000 0.100970 0.267742
0.000000 0.100970 0.289552
0.000000 0.100970 0.311180
0.000000 0.100970 0.332643
0.000000 0.100970 0.353953
0.000000 0.121128 0.514775
0.000000 0.121054 0.544348
0.000000 0.120980 0.573825
0.000000 0.120906 0.603218
0.000000 0.120832 0.632534
0.000000 0.120758 0.661781
0.000000 0.120684 0.690965
0.000000 0.120610 0.720094
0.000000 0.120536 0.749173
0.000000 0.120462 0.778207
0.000000 0.120388 0.807201
0.000000 0.120314 0.836159
0.000000 0.120240 0.865085
0.000000 0.120166 0.893982
0.000000 0.120092 0.922855
0.000000 0.120018 0.951706
0.000000 0.119944 0.980537
0.000000 0.130809 0.000000
0.000000 0.130809 0.030936
0.000000 0.130809 0.057728
0.000000 0.130809 0.083152
0.000000 0.130809 0.107725
0.000000 0.130809 0.131685
0.000000 0.130809 0.155167
0.000000 0.130809 0.178259
0.000000 0.130809 0.201022
0.000000 0.130809 0.223502
0.000000 0.130809 0.245733
0.000000 0.130809 0.267742
0.000000 0.130809 0.289552
0.000000 0.130809 0.311180
0.000000 0.156928 0.456461
0.000000 0.156832 0.486333
0.000000 0.156736 0.516086
0.000000 0.156640 0.545732
0.000000 0.156545 0.575283
0.000000 0.156449 0.604748
0.000000 0.156353 0.634136
0.000000 0.156257 0.663455
0.000000 0.156161 0.692711
0.000000 0.156065 0.721911
0.000000 0.155969 0.751061
0.000000 0.155873 0.780166
0.000000 0.155778 0.809230
0.000000 0.155682 0.838258
0.000000 0.155586 0.867254
0.000000 0.155490 0.896221
0.000000 0.155394 0.925163
0.000000 0.155298 0.954082
0.000000 0.155202 0.982983
0.000000 0.159903 0.000000
0.000000 0.159903 0.030936
0.000000 0.159903 0.057728
0.000000 0.159903 0.083152
0.000000 0.159903 0.107725
0.000000 0.159903 0.131685
0.000000 0.159903 0.155167
0.000000 0.159903 0.178259
0.000000 0.159903 0.201022
0.000000 0.159903 0.223502
0.000000 0.159903 0.245733
0.000000 0.159903 0.267742
0.000000 0.191836 0.397312
0.000000 0.191718 0.427543
0.000000 0.191601 0.457624
0.000000 0.191484 0.487570
0.000000 0.191367 0.517396
0.000000 0.191250 0.547116
0.000000 0.191132 0.576740
0.000000 0.191015 0.606278
0.000000 0.190898 0.635738
0.000000 0.190781 0.665129
0.000000 0.190664 0.694457
0.000000 0.190547 0.723728
0.000000 0.190429 0.752949
0.000000 0.190312 0.782125
0.000000 0.190195 0.811259
0.000000 0.190078 0.840357
0.000000 0.189961 0.869422
0.000000 0.189843 0.898459
0.000000 0.189726 0.927470
0.000000 0.189609 0.956459
0.000000 0.189492 0.985429
0.000000 0.188417 0.000000
0.000000 0.188417 0.030936
0.000000 0.188417 0.057728
0.000000 0.188417 0.083152
0.000000 0.188417 0.107725
0.000000 0.188417 0.131685
0.000000 0.188417 0.155167
0.000000 0.188417 0.178259
0.000000 0.188417 0.201022
0.000000 0.188417 0.223502
0.000000 0.226049 0.337169
0.000000 0.225911 0.367844
0.000000 0.225773 0.398323
0.000000 0.225634 0.428630
0.000000 0.225496 0.458786
0.000000 0.225358 0.488807
0.000000 0.225220 0.518707
0.000000 0.225082 0.548500
0.000000 0.224944 0.578197
0.000000 0.224806 0.607808
0.000000 0.224668 0.637340
0.000000 0.224530 0.666803
0.000000 0.224392 0.696203
0.000000 0.224254 0.725545
0.000000 0.224116 0.754837
0.000000 0.223977 0.784083
0.000000 0.223839 0.813288
0.000000 0.223701 0.842456
0.000000 0.223563 0.871591
0.000000 0.223425 0.900698
0.000000 0.223287 0.929778
0.000000 0.223149 0.958836
0.000000 0.223011 0.987875
0.000000 0.216457 0.000000
0.000000 0.216457 0.030936
0.000000 0.216457 0.057728
0.000000 0.216457 0.083152
0.000000 0.216457 0.107725
0.000000 0.216457 0.131685
0.000000 0.216457 0.155167
0.000000 0.216457 0.178259
0.000000 0.259695 0.275808
0.000000 0.259537 0.307049
0.000000 0.259378 0.338027
0.000000 0.259219 0.368780
0.000000 0.259061 0.399335
0.000000 0.258902 0.429718
0.000000 0.258743 0.459948
0.000000 0.258585 0.490043
0.000000 0.258426 0.520018
0.000000 0.258267 0.549884
0.000000 0.258109 0.579654
0.000000 0.257950 0.609338
0.000000 0.257792 0.638943
0.000000 0.257633 0.668477
0.000000 0.257474 0.697948
0.000000 0.257316 0.727362
0.000000 0.257157 0.756725
0.000000 0.256998 0.786042
0.000000 0.256840 0.815317
0.000000 0.256681 0.844555
0.000000 0.256523 0.873760
0.000000 0.256364 0.902936
0.000000 0.256205 0.932086
0.000000 0.256047 0.961213
0.000000 0.255888 0.990321
0.000000 0.244098 0.000000
0.000000 0.244098 0.030936
0.000000 0.244098 0.057728
0.000000 0.244098 0.083152
0.000000 0.244098 0.107725
0.000000 0.244098 0.131685
0.000000 0.292864 0.212883
0.000000 0.292685 0.244882
0.000000 0.292506 0.276511
0.000000 0.292328 0.307830
0.000000 0.292149 0.338886
0.000000 0.291970 0.369715
0.000000 0.291791 0.400347
0.000000 0.291612 0.430805
0.000000 0.291433 0.461110
0.000000 0.291254 0.491280
0.000000 0.291075 0.521328
0.000000 0.290896 0.551269
0.000000 0.290718 0.581112
0.000000 0.290539 0.610867
0.000000 0.290360 0.640545
0.000000 0.290181 0.670151
0.000000 0.290002 0.699694
0.000000 0.289823 0.729179
0.000000 0.289644 0.758613
0.000000 0.289465 0.788000
0.000000 0.289287 0.817346
0.000000 0.289108 0.846654
0.000000 0.288929 0.875929
0.000000 0.288750 0.905175
0.000000 0.288571 0.934394
0.000000 0.288392 0.963590
0.000000 0.288213 0.992767
0.000000 0.271395 0.000000
0.000000 0.271395 0.030936
0.000000 0.271395 0.057728
0.000000 0.271395 0.083152
0.000000 0.325622 0.147788
0.000000 0.325423 0.180893
0.000000 0.325224 0.213426
0.000000 0.325025 0.245505
0.000000 0.324826 0.277213
0.000000 0.324627 0.308611
0.000000 0.324428 0.339745
0.000000 0.324229 0.370651
0.000000 0.324031 0.401358
0.000000 0.323832 0.431892
0.000000 0.323633 0.462273
0.000000 0.323434 0.492517
0.000000 0.323235 0.522639
0.000000 0.323036 0.552653
0.000000 0.322837 0.582569
0.000000 0.322638 0.612397
0.000000 0.322439 0.642147
0.000000 0.322241 0.671825
0.000000 0.322042 0.701440
0.000000 0.321843 0.730996
0.000000 0.321644 0.760501
0.000000 0.321445 0.789959
0.000000 0.321246 0.819375
0.000000 0.321047 0.848753
0.000000 0.320848 0.878098
0.000000 0.320649 0.907413
0.000000 0.320451 0.936702
0.000000 0.320252 0.965967
0.000000 0.320053 0.995212
0.000000 0.298390 0.000000
0.000000 0.298390 0.030936
0.000000 0.358018 0.079194
0.000000 0.357799 0.114219
0.000000 0.357581 0.148164
0.000000 0.357362 0.181353
0.000000 0.357143 0.213968
0.000000 0.356925 0.246128
0.000000 0.356706 0.277916
0.000000 0.356487 0.309392
0.000000 0.356269 0.340603
0.000000 0.356050 0.371586
0.000000 0.355831 0.402370
0.000000 0.355613 0.432980
0.000000 0.355394 0.463435
0.000000 0.355175 0.493753
0.000000 0.354957 0.523950
0.000000 0.354738 0.554037
0.000000 0.354519 0.584026
0.000000 0.354301 0.613927
0.000000 0.354082 0.643749
0.000000 0.353863 0.673499
0.000000 0.353645 0.703185
0.000000 0.353426 0.732813
0.000000 0.353207 0.762389
0.000000 0.352989 0.791917
0.000000 0.352770 0.821404
0.000000 0.352551 0.850852
0.000000 0.352333 0.880267
0.000000 0.352114 0.909651
0.000000 0.351895 0.939009
0.000000 0.351676 0.968344
0.000000 0.351458 0.997658
0.000000 0.390093 0.000000
0.000000 0.389855 0.042492
0.000000 0.389616 0.079396
0.000000 0.389378 0.114509
0.000000 0.389140 0.148541
0.000000 0.388902 0.181813
0.000000 0.388663 0.214510
0.000000 0.388425 0.246751
0.000000 0.388187 0.278618
0.000000 0.387949 0.310173
0.000000 0.387710 0.341462
0.000000 0.387472 0.372522
0.000000 0.387234 0.403382
0.000000 0.386996 0.434067
0.000000 0.386757 0.464597
0.000000 0.386519 0.494990
0.000000 0.386281 0.525261
0.000000 0.386043 0.555421
0.000000 0.385804 0.585483
0.000000 0.385566 0.615457
0.000000 0.385328 0.645351
0.000000 0.385089 0.675174
0.000000 0.384851 0.704931
0.000000 0.384613 0.734630
0.000000 0.384375 0.764277
0.000000 0.384136 0.793876
0.000000 0.383898 0.823433
0.000000 0.383660 0.852951
0.000000 0.383422 0.882436
0.000000 0.383183 0.911890
0.000000 0.382945 0.941317
0.000000 0.382707 0.970721
0.000000 0.382489 1.000000
0.000000 0.421363 0.000000
0.000000 0.421106 0.042600
0.000000 0.420848 0.079597
0.000000 0.420590 0.114800
0.000000 0.420333 0.148917
0.000000 0.420075 0.182273
0.000000 0.419817 0.215052
0.000000 0.419560 0.247374
0.000000 0.419302 0.279320
0.000000 0.419044 0.310954
0.000000 0.418787 0.342320
0.000000 0.418529 0.373457
0.000000 0.418271 0.404393
0.000000 0.418014 0.435154
0.000000 0.417756 0.465759
0.000000 0.417498 0.496227
0.000000 0.417241 0.526571
0.000000 0.416983 0.556805
0.000000 0.416725 0.586941
0.000000 0.416468 0.616987
0.000000 0.416210 0.646954
0.000000 0.415952 0.676848
0.000000 0.415695 0.706677
0.000000 0.415437 0.736447
0.000000 0.415179 0.766165
0.000000 0.414922 0.795835
0.000000 0.414664 0.825462
0.000000 0.414406 0.855050
0.000000 0.414149 0.884605
0.000000 0.413891 0.914128
0.000000 0.413645 0.943570
0.000000 0.413645 0.971831
0.000000 0.413645 1.000000
0.000000 0.452294 0.000000
0.000000 0.452017 0.042708
0.000000 0.451740 0.079799
0.000000 0.451463 0.115090
0.000000 0.451186 0.149294
0.000000 0.450909 0.182733
0.000000 0.450633 0.215594
0.000000 0.450356 0.247996
0.000000 0.450079 0.280023
0.000000 0.449802 0.311735
0.000000 0.449525 0.343179
0.000000 0.449248 0.374393
0.000000 0.448971 0.405405
0.000000 0.448694 0.436241
0.000000 0.448417 0.466922
0.000000 0.448140 0.497464
0.000000 0.447863 0.527882
0.000000 0.447587 0.558190
0.000000 0.447310 0.588398
0.000000 0.447033 0.618517
0.000000 0.446756 0.648556
0.000000 0.446479 0.678522
0.000000 0.446202 0.708423
0.000000 0.445925 0.738264
0.000000 0.445648 0.768053
0.000000 0.445371 0.797793
0.000000 0.445094 0.827490
0.000000 0.444817 0.857149
0.000000 0.444543 0.886762
0.000000 0.444543 0.915215
0.000000 0.444543 0.943570
0.000000 0.444543 0.971831
0.000000 0.444543 1.000000
0.000000 0.482908 0.000000
0.000000 0.482612 0.042816
0.000000 0.482316 0.080001
0.000000 0.482020 0.115381
0.000000 0.481724 0.149670
0.000000 0.481428 0.183193
0.000000 0.481132 0.216136
0.000000 0.480836 0.248619
0.000000 0.480540 0.280725
0.000000 0.480244 0.312516
0.000000 0.479948 0.344038
0.000000 0.479652 0.375328
0.000000 0.479356 0.406417
0.000000 0.479060 0.437329
0.000000 0.478764 0.468084
0.000000 0.478468 0.498700
0.000000 0.478172 0.529193
0.000000 0.477876 0.559574
0.000000 0.477580 0.589855
0.000000 0.477284 0.620047
0.000000 0.476988 0.650158
0.000000 0.476692 0.680196
0.000000 0.476396 0.710168
0.000000 0.476100 0.740081
0.000000 0.475804 0.769940
0.000000 0.475508 0.799752
0.000000 0.475212 0.829519
0.000000 0.475204 0.858208
0.000000 0.475204 0.886762
0.000000 0.475204 0.915215
0.000000 0.475204 0.943570
0.000000 0.475204 0.971831
0.000000 0.475204 1.000000
0.000000 0.513226 0.000000
0.000000 0.512911 0.042924
0.000000 0.512596 0.080202
0.000000 0.512281 0.115671
0.000000 0.511966 0.150046
0.000000 0.511651 0.183653
0.000000 0.511336 0.216679
0.000000 0.511021 0.249242
0.000000 0.510706 0.281428
0.000000 0.510391 0.313297
0.000000 0.510076 0.344896
0.000000 0.509761 0.376264
0.000000 0.509446 0.407429
0.000000 0.509131 0.438416
0.000000 0.508816 0.469246
0.000000 0.508501 0.499937
0.000000 0.508186 0.530503
0.000000 0.507872 0.560958
0.000000 0.507557 0.591313
0.000000 0.507242 0.621577
0.000000 0.506927 0.651760
0.000000 0.506612 0.681870
0.000000 0.506297 0.711914
0.000000 0.505982 0.741898
0.000000 0.505667 0.771828
0.000000 0.505647 0.800776
0.000000 0.505647 0.829547
0.000000 0.505647 0.858208
0.000000 0.505647 0.886762
0.000000 0.505647 0.915215
0.000000 0.505647 0.943570
0.000000 0.505647 0.971831
0.000000 0.505647 1.000000
0.000000 0.543264 0.000000
0.000000 0.542930 0.043032
0.000000 0.542596 0.080404
0.000000 0.542263 0.115962
0.000000 0.541929 0.150423
0.000000 0.541595 0.184114
0.000000 0.541261 0.217221
0.000000 0.540927 0.249865
0.000000 0.540594 0.282130
0.000000 0.540260 0.314077
0.000000 0.539926 0.345755
0.000000 0.539592 0.377199
0.000000 0.539258 0.408440
0.000000 0.538925 0.439503
0.000000 0.538591 0.470409
0.000000 0.538257 0.501174
0.000000 0.537923 0.531814
0.000000 0.537589 0.562342
0.000000 0.537255 0.592770
0.000000 0.536922 0.623107
0.000000 0.536588 0.653362
0.000000 0.536254 0.683544
0.000000 0.535920 0.713660
0.000000 0.535887 0.742882
0.000000 0.535887 0.771890
0.000000 0.535887 0.800776
0.000000 0.535887 0.829547
0.000000 0.535887 0.858208
0.000000 0.535887 0.886762
0.000000 0.535887 0.915215
0.000000 0.535887 0.943570
0.000000 0.535887 0.971831
0.000000 0.535887 1.000000
0.000000 0.573037 0.000000
0.000000 0.572685 0.043141
0.000000 0.572332 0.080606
0.000000 0.571980 0.116252
0.000000 0.571627 0.150799
0.000000 0.571275 0.184574
0.000000 0.570922 0.217763
0.000000 0.570570 0.250488
0.000000 0.570217 0.282832
0.000000 0.569864 0.314858
0.000000 0.569512 0.346613
0.000000 0.569159 0.378135
0.000000 0.568807 0.409452
0.000000 0.568454 0.440591
0.000000 0.568102 0.471571
0.000000 0.567749 0.502411
0.000000 0.567397 0.533125
0.000000 0.567044 0.563726
0.000000 0.566692 0.594227
0.000000 0.566339 0.624637
0.000000 0.565987 0.654965
0.000000 0.565938 0.684483
0.000000 0.565938 0.713749
0.000000 0.565938 0.742882
0.000000 0.565938 0.771890
0.000000 0.565938 0.800776
0.000000 0.565938 0.829547
0.000000 0.565938 0.858208
0.000000 0.565938 0.886762
0.000000 0.565938 0.915215
0.000000 0.565938 0.943570
0.000000 0.565989 0.972104
0.000000 0.566306 1.002033
0.000000 0.602559 0.000000
0.000000 0.602187 0.043249
0.000000 0.601816 0.080807
0.000000 0.601445 0.116543
0.000000 0.601074 0.151176
0.000000 0.600703 0.185034
0.000000 0.600332 0.218305
0.000000 0.599961 0.251111
0.000000 0.599589 0.283535
0.000000 0.599218 0.315639
0.000000 0.598847 0.347472
0.000000 0.598476 0.379070
0.000000 0.598105 0.410464
0.000000 0.597734 0.441678
0.000000 0.597363 0.472733
0.000000 0.596991 0.503647
0.000000 0.596620 0.534435
0.000000 0.596249 0.565111
0.000000 0.595878 0.595684
0.000000 0.595813 0.625523
0.000000 0.595813 0.655076
0.000000 0.595813 0.684483
0.000000 0.595813 0.713749
0.000000 0.595813 0.742882
0.000000 0.595813 0.771890
0.000000 0.595813 0.800776
0.000000 0.595813 0.829547
0.000000 0.595813 0.858208
0.000000 0.595813 0.886762
0.000000 0.595855 0.915414
0.000000 0.596189 0.945428
0.000000 0.596523 0.975446
0.000000 0.596857 1.005473
0.000000 0.631839 0.000000
0.000000 0.631450 0.043357
0.000000 0.631060 0.081009
0.000000 0.630671 0.116833
0.000000 0.630281 0.151552
0.000000 0.629891 0.185494
0.000000 0.629502 0.218847
0.000000 0.629112 0.251733
0.000000 0.628722 0.284237
0.000000 0.628333 0.316420
0.000000 0.627943 0.348331
0.000000 0.627553 0.380006
0.000000 0.627164 0.411475
0.000000 0.626774 0.442765
0.000000 0.626384 0.473895
0.000000 0.625995 0.504884
0.000000 0.625605 0.535746
0.000000 0.625523 0.565938
0.000000 0.625523 0.595813
0.000000 0.625523 0.625523
0.000000 0.625523 0.655076
0.000000 0.625523 0.684483
0.000000 0.625523 0.713749
0.000000 0.625523 0.742882
0.000000 0.625523 0.771890
0.000000 0.625523 0.800776
0.000000 0.625523 0.829547
0.000000 0.625553 0.858338
0.000000 0.625904 0.888451
0.000000 0.626255 0.918561
0.000000 0.626606 0.948673
0.000000 0.626956 0.978789
0.000000 0.627307 1.008912
0.000000 0.660890 0.000000
0.000000 0.660482 0.043465
0.000000 0.660074 0.081211
0.000000 0.659666 0.117124
0.000000 0.659258 0.151928
0.000000 0.658850 0.185954
0.000000 0.658442 0.219389
0.000000 0.658034 0.252356
0.000000 0.657626 0.284939
0.000000 0.657218 0.317201
0.000000 0.656810 0.349189
0.000000 0.656402 0.380941
0.000000 0.655994 0.412487
0.000000 0.655586 0.443852
0.000000 0.655177 0.475058
0.000000 0.655076 0.505647
0.000000 0.655076 0.535887
0.000000 0.655076 0.565938
0.000000 0.655076 0.595813
0.000000 0.655076 0.625523
0.000000 0.655076 0.655076
0.000000 0.655076 0.684483
0.000000 0.655076 0.713749
0.000000 0.655076 0.742882
0.000000 0.655076 0.771890
0.000000 0.655095 0.800846
0.000000 0.655462 0.831073
0.000000 0.655829 0.861290
0.000000 0.656197 0.891501
0.000000 0.656564 0.921709
0.000000 0.656931 0.951918
0.000000 0.657298 0.982132
0.000000 0.657666 1.012352
0.000000 0.689720 0.000000
0.000000 0.689294 0.043573
0.000000 0.688868 0.081413
0.000000 0.688441 0.117414
0.000000 0.688015 0.152305
0.000000 0.687588 0.186414
0.000000 0.687162 0.219932
0.000000 0.686736 0.252979
0.000000 0.686309 0.285642
0.000000 0.685883 0.317982
0.000000 0.685457 0.350048
0.000000 0.685030 0.381877
0.000000 0.684604 0.413499
0.000000 0.684483 0.444543
0.000000 0.684483 0.475204
0.000000 0.684483 0.505647
0.000000 0.684483 0.535887
0.000000 0.684483 0.565938
0.000000 0.684483 0.595813
0.000000 0.684483 0.625523
0.000000 0.684483 0.655076
0.000000 0.684483 0.684483
0.000000 0.684483 0.713749
0.000000 0.684488 0.742900
0.000000 0.684871 0.773260
0.000000 0.685255 0.803601
0.000000 0.685639 0.833926
0.000000 0.686023 0.864242
0.000000 0.686406 0.894551
0.000000 0.686790 0.924857
0.000000 0.687174 0.955164
0.000000 0.687558 0.985474
0.000000 0.687941 1.015791
0.000000 0.718338 0.000000
0.000000 0.717893 0.043681
0.000000 0.717448 0.081614
0.000000 0.717004 0.117705
0.000000 0.716559 0.152681
0.000000 0.716115 0.186874
0.000000 0.715670 0.220474
0.000000 0.715225 0.253602
0.000000 0.714781 0.286344
0.000000 0.714336 0.318763
0.000000 0.713892 0.350906
0.000000 0.713749 0.382489
0.000000 0.713749 0.413645
0.000000 0.713749 0.444543
0.000000 0.713749 0.475204
0.000000 0.713749 0.505647
0.000000 0.713749 0.535887
0.000000 0.713749 0.565938
0.000000 0.713749 0.595813
0.000000 0.713749 0.625523
0.000000 0.713749 0.655076
0.000000 0.713749 0.684483
0.000000 0.714140 0.714970
0.000000 0.714540 0.745455
0.000000 0.714940 0.775915
0.000000 0.715340 0.806355
0.000000 0.715740 0.836780
0.000000 0.716140 0.867194
0.000000 0.716541 0.897601
0.000000 0.716941 0.928005
0.000000 0.717341 0.958409
0.000000 0.717741 0.988817
0.000000 0.718141 1.019230
0.000000 0.746750 0.000000
0.000000 0.746287 0.043789
0.000000 0.745825 0.081816
0.000000 0.745362 0.117996
0.000000 0.744899 0.153058
0.000000 0.744436 0.187334
0.000000 0.743974 0.221016
0.000000 0.743511 0.254225
0.000000 0.743048 0.287047
0.000000 0.742882 0.319289
0.000000 0.742882 0.351047
0.000000 0.742882 0.382489
0.000000 0.742882 0.413645
0.000000 0.742882 0.444543
0.000000 0.742882 0.475204
0.000000 0.742882 0.505647
0.000000 0.742882 0.535887
0.000000 0.742882 0.565938
0.000000 0.742882 0.595813
0.000000 0.742882 0.625523
0.000000 0.743274 0.656155
0.000000 0.743690 0.686809
0.000000 0.744107 0.717425
0.000000 0.744523 0.748010
0.000000 0.744940 0.778570
0.000000 0.745356 0.809109
0.000000 0.745773 0.839633
0.000000 0.746189 0.870146
0.000000 0.746606 0.900651
0.000000 0.747022 0.931153
0.000000 0.747439 0.961655
0.000000 0.747855 0.992159
0.000000 0.748272 1.022670
0.000000 0.774964 0.000000
0.000000 0.774483 0.043897
0.000000 0.774003 0.082018
0.000000 0.773522 0.118286
0.000000 0.773041 0.153434
0.000000 0.772560 0.187794
0.000000 0.772079 0.221558
0.000000 0.771890 0.254656
0.000000 0.771890 0.287175
0.000000 0.771890 0.319289
0.000000 0.771890 0.351047
0.000000 0.771890 0.382489
0.000000 0.771890 0.413645
0.000000 0.771890 0.444543
0.000000 0.771890 0.475204
0.000000 0.771890 0.505647
0.000000 0.771890 0.535887
0.000000 0.771890 0.565938
0.000000 0.772280 0.596756
0.000000 0.772713 0.627608
0.000000 0.773146 0.658408
0.000000 0.773578 0.689163
0.000000 0.774011 0.719880
0.000000 0.774444 0.750565
0.000000 0.774877 0.781225
0.000000 0.775309 0.811863
0.000000 0.775742 0.842486
0.000000 0.776175 0.873097
0.000000 0.776608 0.903701
0.000000 0.777040 0.934301
0.000000 0.777473 0.964900
0.000000 0.777906 0.995502
0.000000 0.778339 1.026109
0.000000 0.802986 0.000000
0.000000 0.802488 0.044005
0.000000 0.801989 0.082219
0.000000 0.801490 0.118577
0.000000 0.800991 0.153810
0.000000 0.800776 0.188121
0.000000 0.800776 0.221667
0.000000 0.800776 0.254656
0.000000 0.800776 0.287175
0.000000 0.800776 0.319289
0.000000 0.800776 0.351047
0.000000 0.800776 0.382489
0.000000 0.800776 0.413645
0.000000 0.800776 0.444543
0.000000 0.800776 0.475204
0.000000 0.800776 0.505647
0.000000 0.801165 0.536700
0.000000 0.801614 0.567789
0.000000 0.802063 0.598805
0.000000 0.802512 0.629760
0.000000 0.802961 0.660661
0.000000 0.803410 0.691517
0.000000 0.803858 0.722335
0.000000 0.804307 0.753120
0.000000 0.804756 0.783879
0.000000 0.805205 0.814617
0.000000 0.805654 0.845339
0.000000 0.806103 0.876049
0.000000 0.806552 0.906751
0.000000 0.807001 0.937448
0.000000 0.807450 0.968145
0.000000 0.807899 0.998844
0.000000 0.808348 1.029549
0.000000 0.830822 0.000000
0.000000 0.830306 0.044113
0.000000 0.829789 0.082421
0.000000 0.829547 0.118788
0.000000 0.829547 0.153893
0.000000 0.829547 0.188121
0.000000 0.829547 0.221667
0.000000 0.829547 0.254656
0.000000 0.829547 0.287175
0.000000 0.829547 0.319289
0.000000 0.829547 0.351047
0.000000 0.829547 0.382489
0.000000 0.829547 0.413645
0.000000 0.829547 0.444543
0.000000 0.829933 0.475895
0.000000 0.830398 0.507267
0.000000 0.830863 0.538543
0.000000 0.831328 0.569735
0.000000 0.831793 0.600855
0.000000 0.832258 0.631911
0.000000 0.832723 0.662914
0.000000 0.833188 0.693871
0.000000 0.833653 0.724790
0.000000 0.834118 0.755675
0.000000 0.834583 0.786534
0.000000 0.835049 0.817372
0.000000 0.835514 0.848192
0.000000 0.835979 0.879001
0.000000 0.836444 0.909801
