app/src/main/assets/luts/02_Cinematic_Dark.cube
TITLE "Cinematic Dark Style"
LUT_3D_SIZE 9
0.000000 0.000000 0.000000
0.000000 0.000000 0.107725
0.000000 0.000000 0.201022
0.000000 0.000000 0.289552
0.000000 0.000000 0.375121
0.000000 0.000000 0.458554
0.000000 0.000000 0.743510
0.000000 0.000000 0.858578
0.000000 0.000000 0.973200
0.000000 0.130809 0.000000
0.000000 0.130809 0.107725
0.000000 0.130809 0.201022
0.000000 0.130809 0.289552
0.000000 0.156736 0.516086
0.000000 0.156353 0.634136
0.000000 0.155969 0.751061
0.000000 0.155586 0.867254
0.000000 0.155202 0.982983
0.000000 0.244098 0.000000
0.000000 0.244098 0.107725
0.000000 0.292506 0.276511
0.000000 0.291791 0.400347
0.000000 0.291075 0.521328
0.000000 0.290360 0.640545
0.000000 0.289644 0.758613
0.000000 0.288929 0.875929
0.000000 0.288213 0.992767
0.000000 0.421363 0.000000
0.000000 0.420333 0.148917
0.000000 0.419302 0.279320
0.000000 0.418271 0.404393
0.000000 0.417241 0.526571
0.000000 0.416210 0.646954
0.000000 0.415179 0.766165
0.000000 0.414149 0.884605
0.000000 0.413645 1.000000
0.000000 0.543264 0.000000
0.000000 0.541929 0.150423
0.000000 0.540594 0.282130
0.000000 0.539258 0.408440
0.000000 0.537923 0.531814
0.000000 0.536588 0.653362
0.000000 0.535887 0.771890
0.000000 0.535887 0.886762
0.000000 0.535887 1.000000
0.000000 0.660890 0.000000
0.000000 0.659258 0.151928
0.000000 0.657626 0.284939
0.000000 0.655994 0.412487
0.000000 0.655076 0.535887
0.000000 0.655076 0.655076
0.000000 0.655076 0.771890
0.000000 0.656197 0.891501
0.000000 0.657666 1.012352
0.000000 0.774964 0.000000
0.000000 0.773041 0.153434
0.000000 0.771890 0.287175
0.000000 0.771890 0.413645
0.000000 0.771890 0.535887
0.000000 0.773146 0.658408
0.000000 0.774877 0.781225
0.000000 0.776608 0.903701
0.000000 0.778339 1.026109
0.000000 0.886762 0.000000
0.000000 0.886762 0.153893
0.000000 0.886762 0.287175
0.000000 0.888132 0.415642
0.000000 0.890121 0.542229
0.000000 0.892110 0.667421
0.000000 0.894098 0.791844
0.000000 0.896087 0.915901
0.000000 0.898075 1.039867
0.000000 1.000000 0.000000
0.000000 1.001462 0.154596
0.000000 1.003705 0.290500
0.000000 1.005947 0.421333
0.000000 1.008190 0.549602
0.000000 1.010433 0.676433
0.000000 1.012675 0.802464
0.000000 1.014917 0.928101
0.000000 1.017160 1.053625
0.169282 0.000000 0.000000
0.169282 0.000000 0.107725
0.169282 0.000000 0.201022
0.169282 0.000000 0.289552
0.169282 0.000000 0.375121
0.160026 0.000000 0.628972
0.159259 0.000000 0.744976
0.158492 0.000000 0.860263
0.157725 0.000000 0.975100
0.169282 0.130809 0.000000
0.169282 0.130809 0.107725
0.169282 0.130809 0.201022
0.169282 0.130809 0.289552
0.159287 0.156590 0.517104
0.158520 0.156207 0.635381
0.157753 0.155823 0.752528
0.156986 0.155440 0.868938
0.156219 0.155056 0.984883
0.169282 0.244098 0.000000
0.169282 0.244098 0.107725
0.159315 0.292234 0.277056
0.158548 0.291518 0.401133
0.157781 0.290803 0.522347
0.157015 0.290087 0.641789
0.156248 0.289371 0.760080
0.155481 0.288656 0.877614
0.154714 0.287940 0.994667
0.159343 0.420970 0.000000
0.158577 0.419940 0.149210
0.157810 0.418909 0.279866
0.157043 0.417878 0.405179
0.156276 0.416848 0.527589
0.155509 0.415817 0.648198
0.154742 0.414786 0.767631
0.153975 0.413756 0.886289
0.153893 0.413645 1.000000
0.157838 0.542755 0.000000
0.157071 0.541420 0.150715
0.156304 0.540085 0.282676
0.155537 0.538749 0.409226
0.154770 0.537414 0.532832
0.154003 0.536079 0.654607
0.153893 0.535887 0.771890
0.153893 0.535887 0.886762
0.153659 0.536104 1.001266
0.156332 0.660268 0.000000
0.155565 0.658636 0.152221
0.154798 0.657004 0.285485
0.154032 0.655371 0.413273
0.153893 0.655076 0.535887
0.153893 0.655076 0.655076
0.153707 0.655288 0.772667
0.152413 0.656757 0.893870
0.151119 0.658226 1.015023
0.154827 0.774231 0.000000
0.154060 0.772308 0.153726
0.153893 0.771890 0.287175
0.153893 0.771890 0.413645
0.153755 0.772075 0.536289
0.152460 0.773806 0.660158
0.151166 0.775537 0.783287
0.149872 0.777268 0.906070
0.148578 0.778999 1.028781
0.153893 0.886762 0.000000
0.153893 0.886762 0.153893
0.153802 0.886902 0.287316
0.152508 0.888891 0.416748
0.151214 0.890879 0.543661
0.149920 0.892868 0.669171
0.148626 0.894856 0.793906
0.147331 0.896845 0.918270
0.146037 0.898833 1.042539
0.153850 1.000075 0.000000
0.152556 1.002317 0.155008
0.151261 1.004560 0.291267
0.149967 1.006803 0.422439
0.148673 1.009045 0.551034
0.147379 1.011287 0.678183
0.146085 1.013530 0.804526
0.144791 1.015772 0.930470
0.143497 1.018015 1.056297
0.315892 0.000000 0.000000
0.315892 0.000000 0.107725
0.315892 0.000000 0.201022
0.315892 0.000000 0.289552
0.315892 0.000000 0.375121
0.298073 0.000000 0.630216
0.296642 0.000000 0.746443
0.295211 0.000000 0.861948
0.293780 0.000000 0.977000
0.315892 0.130809 0.000000
0.315892 0.130809 0.107725
0.315892 0.130809 0.201022
0.298126 0.156827 0.397872
0.296694 0.156444 0.518122
0.295263 0.156060 0.636625
0.293832 0.155677 0.753995
0.292401 0.155293 0.870623
0.290970 0.154910 0.986783
0.315892 0.244098 0.000000
0.298178 0.292676 0.147996
0.296747 0.291961 0.277602
0.295316 0.291245 0.401918
0.293885 0.290530 0.523365
0.292454 0.289814 0.643034
0.291023 0.289099 0.761546
0.289592 0.288383 0.879299
0.288161 0.287668 0.996567
0.296800 0.420577 0.000000
0.295369 0.419547 0.149502
0.293938 0.418516 0.280412
0.292506 0.417485 0.405965
0.291075 0.416455 0.528608
0.289644 0.415424 0.649443
0.288213 0.414393 0.769098
0.287175 0.413645 0.886762
0.287175 0.413645 1.000000
0.293990 0.542246 0.000000
0.292559 0.540911 0.151008
0.291128 0.539575 0.283221
0.289697 0.538240 0.410012
0.288266 0.536905 0.533850
0.287175 0.535887 0.655076
0.287175 0.535887 0.771890
0.287175 0.535887 0.886762
0.285818 0.536562 1.003937
0.291181 0.659646 0.000000
0.289750 0.658013 0.152513
0.288319 0.656381 0.286031
0.287175 0.655076 0.413645
0.287175 0.655076 0.535887
0.287175 0.655076 0.655076
0.285907 0.655848 0.774730
0.283492 0.657317 0.896240
0.281077 0.658786 1.017695
0.288371 0.773498 0.000000
0.287175 0.771890 0.153893
0.287175 0.771890 0.287175
0.287175 0.771890 0.413645
0.285995 0.772735 0.537720
0.283580 0.774466 0.661909
0.281165 0.776197 0.785349
0.278751 0.777928 0.908440
0.276336 0.779659 1.031453
0.287175 0.886762 0.000000
0.287175 0.886762 0.153893
0.286084 0.887660 0.288083
0.283669 0.889649 0.417853
0.281254 0.891637 0.545093
0.278839 0.893626 0.670921
0.276424 0.895614 0.795969
0.274009 0.897603 0.920639
0.271594 0.899592 1.045211
0.286173 1.000930 0.000000
0.283758 1.003173 0.155419
0.281343 1.005415 0.292034
0.278928 1.007658 0.423544
0.276513 1.009900 0.552466
0.274098 1.012142 0.679934
0.271683 1.014385 0.806588
0.269268 1.016628 0.932839
0.266853 1.018870 1.058969
0.455010 0.000000 0.000000
0.455010 0.000000 0.107725
0.455010 0.000000 0.201022
0.455010 0.000000 0.289552
0.455010 0.000000 0.375121
0.428557 0.000000 0.631461
0.426496 0.000000 0.747909
0.424435 0.000000 0.863633
0.422373 0.000000 0.978900
0.455010 0.130809 0.000000
0.455010 0.130809 0.107725
0.455010 0.130809 0.201022
0.428633 0.156681 0.398658
0.426572 0.156298 0.519140
0.424510 0.155914 0.637870
0.422449 0.155531 0.755461
0.420388 0.155147 0.872308
0.418326 0.154764 0.988683
0.455010 0.244098 0.000000
0.428709 0.292404 0.148289
0.426648 0.291688 0.278148
0.424586 0.290972 0.402704
0.422525 0.290257 0.524383
0.420464 0.289541 0.644279
0.418402 0.288826 0.763013
0.416341 0.288110 0.880984
0.414280 0.287395 0.998467
0.426723 0.420184 0.000000
0.424662 0.419154 0.149794
0.422601 0.418123 0.280957
0.420539 0.417092 0.406751
0.418478 0.416062 0.529626
0.416417 0.415031 0.650687
0.414355 0.414000 0.770564
0.413645 0.413645 0.886762
0.413645 0.413645 1.000000
0.422677 0.541737 0.000000
0.420615 0.540402 0.151300
0.418554 0.539066 0.283767
0.416493 0.537731 0.410798
0.414431 0.536396 0.534869
0.413645 0.535887 0.655076
0.413645 0.535887 0.771890
0.413645 0.535887 0.886762
0.410365 0.537020 1.006609
0.418630 0.659023 0.000000
0.416568 0.657391 0.152806
0.414507 0.655759 0.286576
0.413645 0.655076 0.413645
0.413645 0.655076 0.535887
0.413645 0.655076 0.655076
0.410493 0.656408 0.776792
0.407014 0.657877 0.898609
0.403536 0.659346 1.020367
0.414583 0.772764 0.000000
0.413645 0.771890 0.153893
0.413645 0.771890 0.287175
0.413645 0.771890 0.413645
0.410621 0.773395 0.539152
0.407142 0.775126 0.663659
0.403664 0.776857 0.787412
0.400185 0.778588 0.910809
0.396707 0.780319 1.034125
0.413645 0.886762 0.000000
0.413645 0.886762 0.153893
0.410749 0.888418 0.288851
0.407270 0.890407 0.418958
0.403792 0.892396 0.546525
0.400313 0.894384 0.672671
0.396835 0.896373 0.798031
0.393356 0.898361 0.923009
0.389878 0.900350 1.047883
0.410877 1.001785 0.000000
0.407398 1.004028 0.155830
0.403920 1.006270 0.292801
0.400441 1.008512 0.424649
0.396963 1.010755 0.553898
0.393484 1.012997 0.681684
0.390006 1.015240 0.808651
0.386527 1.017483 0.935209
0.383049 1.019725 1.061641
0.589475 0.000000 0.000000
0.589475 0.000000 0.107725
0.589475 0.000000 0.201022
0.589475 0.000000 0.289552
0.556858 0.000000 0.514916
0.554187 0.000000 0.632706
0.551517 0.000000 0.749376
0.548846 0.000000 0.865317
0.546176 0.000000 0.980800
0.589475 0.130809 0.000000
0.589475 0.130809 0.107725
0.556956 0.156918 0.275884
0.554286 0.156535 0.399444
0.551615 0.156151 0.520158
0.548945 0.155768 0.639114
0.546274 0.155385 0.756928
0.543604 0.155001 0.873993
0.540933 0.154618 0.990583
0.557054 0.292846 0.000000
0.554384 0.292131 0.148581
0.551713 0.291415 0.278693
0.549043 0.290700 0.403490
0.546372 0.289984 0.525401
0.543702 0.289269 0.645523
0.541031 0.288553 0.764479
0.538361 0.287837 0.882668
0.535887 0.287175 1.000000
0.551811 0.419791 0.000000
0.549141 0.418761 0.150087
0.546470 0.417730 0.281503
0.543800 0.416699 0.407537
0.541129 0.415669 0.530644
0.538459 0.414638 0.651932
0.535887 0.413645 0.771890
0.535887 0.413645 0.886762
0.535887 0.413645 1.000000
0.546569 0.541228 0.000000
0.543898 0.539892 0.151592
0.541228 0.538557 0.284312
0.538557 0.537222 0.411584
0.535887 0.535887 0.535887
0.535887 0.535887 0.655076
0.535887 0.535887 0.771890
0.534425 0.536277 0.888778
0.529918 0.537478 1.009281
0.541326 0.658401 0.000000
0.538655 0.656769 0.153098
0.535985 0.655137 0.287122
0.535887 0.655076 0.413645
0.535887 0.655076 0.535887
0.534591 0.655499 0.656397
0.530084 0.656968 0.778855
0.525578 0.658437 0.900978
0.521071 0.659906 1.023039
0.536083 0.772031 0.000000
0.535887 0.771890 0.153893
0.535887 0.771890 0.287175
0.534756 0.772324 0.414372
0.530250 0.774055 0.540584
0.525743 0.775786 0.665409
0.521237 0.777517 0.789474
0.516730 0.779248 0.913178
0.512224 0.780979 1.036797
0.535887 0.886762 0.000000
0.534922 0.887188 0.154124
0.530416 0.889177 0.289618
0.525909 0.891165 0.420063
0.521403 0.893154 0.547957
0.516896 0.895142 0.674422
0.512390 0.897131 0.800094
0.507883 0.899119 0.925378
0.503377 0.901108 1.050555
0.530581 1.002640 0.000000
0.526075 1.004882 0.156241
0.521569 1.007125 0.293569
0.517062 1.009367 0.425754
0.512556 1.011610 0.555329
0.508049 1.013853 0.683434
0.503543 1.016095 0.810713
0.499036 1.018337 0.937578
0.494530 1.020580 1.064312
0.720584 0.000000 0.000000
0.720584 0.000000 0.107725
0.720584 0.000000 0.201022
0.720584 0.000000 0.289552
0.679467 0.000000 0.515934
0.676203 0.000000 0.633950
0.672938 0.000000 0.750843
0.669674 0.000000 0.867002
0.666409 0.000000 0.982700
0.720584 0.130809 0.000000
0.720584 0.130809 0.107725
0.679587 0.156772 0.276429
0.676323 0.156389 0.400229
0.673058 0.156005 0.521177
0.669794 0.155622 0.640359
0.666529 0.155238 0.758394
0.663265 0.154855 0.875678
0.660000 0.154471 0.992483
0.679707 0.292573 0.000000
0.676443 0.291858 0.148874
0.673178 0.291142 0.279239
0.669914 0.290427 0.404276
0.666650 0.289711 0.526419
0.663385 0.288996 0.646768
0.660121 0.288280 0.765946
0.656856 0.287565 0.884353
0.655076 0.287175 1.000000
0.673299 0.419398 0.000000
0.670034 0.418368 0.150379
0.666770 0.417337 0.282049
0.663505 0.416306 0.408323
0.660241 0.415276 0.531662
0.656976 0.414245 0.653177
0.655076 0.413645 0.771890
0.655076 0.413645 0.886762
0.655076 0.413645 1.000000
0.666890 0.540719 0.000000
0.663625 0.539383 0.151885
0.660361 0.538048 0.284858
0.657096 0.536713 0.412370
0.655076 0.535887 0.535887
0.655076 0.535887 0.655076
0.655076 0.535887 0.771890
0.651189 0.536735 0.891148
0.645680 0.537936 1.011953
0.660481 0.657779 0.000000
0.657216 0.656146 0.153390
0.655076 0.655076 0.287175
0.655076 0.655076 0.413645
0.655076 0.655076 0.535887
0.651392 0.656059 0.658147
0.645883 0.657528 0.780917
0.640374 0.658997 0.903348
0.634865 0.660466 1.025711
0.655076 0.771890 0.000000
0.655076 0.771890 0.153893
0.655076 0.771890 0.287175
0.651594 0.772984 0.415478
0.646086 0.774715 0.542016
0.640577 0.776446 0.667160
0.635068 0.778177 0.791537
0.629559 0.779908 0.915547
0.624050 0.781638 1.039469
0.655076 0.886762 0.000000
0.651797 0.887946 0.154535
0.646288 0.889935 0.290385
0.640779 0.891923 0.421169
0.635271 0.893912 0.549389
0.629762 0.895900 0.676172
0.624253 0.897889 0.802156
0.618744 0.899878 0.927747
0.613236 0.901866 1.053227
0.646491 1.003495 0.000000
0.640982 1.005737 0.156652
0.635473 1.007980 0.294336
0.629965 1.010223 0.426859
0.624456 1.012465 0.556761
0.618947 1.014708 0.685184
0.613438 1.016950 0.812776
0.607929 1.019192 0.939947
0.602421 1.021435 1.066984
0.849078 0.000000 0.000000
0.849078 0.000000 0.107725
0.849078 0.000000 0.201022
0.849078 0.000000 0.289552
0.799163 0.000000 0.516952
0.795316 0.000000 0.635195
0.791470 0.000000 0.752309
0.787623 0.000000 0.868687
0.783777 0.000000 0.984600
0.849078 0.130809 0.000000
0.849078 0.130809 0.107725
0.799304 0.156626 0.276975
0.795458 0.156242 0.401015
0.791611 0.155859 0.522195
0.787765 0.155476 0.641604
0.783918 0.155092 0.759861
0.780072 0.154709 0.877363
0.776225 0.154325 0.994383
0.799446 0.292301 0.000000
0.795599 0.291585 0.149166
0.791753 0.290870 0.279785
0.787906 0.290154 0.405062
0.784060 0.289438 0.527438
0.780213 0.288723 0.648013
0.776366 0.288007 0.767413
0.772520 0.287292 0.886038
0.771890 0.287175 1.000000
0.791894 0.419005 0.000000
0.788048 0.417975 0.150672
0.784201 0.416944 0.282594
0.780355 0.415913 0.409109
0.776508 0.414883 0.532680
0.772661 0.413852 0.654421
0.771890 0.413645 0.771890
0.771890 0.413645 0.886762
0.771086 0.413760 1.000867
0.784343 0.540210 0.000000
0.780496 0.538874 0.152177
0.776649 0.537539 0.285404
0.772803 0.536204 0.413156
0.771890 0.535887 0.535887
0.771890 0.535887 0.655076
0.771325 0.535991 0.772360
0.764834 0.537193 0.893517
0.758343 0.538395 1.014625
0.776791 0.657156 0.000000
0.772944 0.655524 0.153683
0.771890 0.655076 0.287175
0.771890 0.655076 0.413645
0.771564 0.655150 0.536075
0.765073 0.656619 0.659897
0.758582 0.658088 0.782979
0.752091 0.659557 0.905717
0.745599 0.661026 1.028383
0.771890 0.771890 0.000000
0.771890 0.771890 0.153893
0.771803 0.771913 0.287202
0.765312 0.773644 0.416583
0.758820 0.775375 0.543448
0.752329 0.777106 0.668910
0.745838 0.778837 0.793599
0.739347 0.780567 0.917917
0.732856 0.782298 1.042141
0.771890 0.886762 0.000000
0.765550 0.888704 0.154946
0.759059 0.890693 0.291152
0.752568 0.892681 0.422274
0.746077 0.894670 0.550820
0.739586 0.896659 0.677922
0.733095 0.898647 0.804218
0.726604 0.900636 0.930117
0.720113 0.902624 1.055898
0.759298 1.004350 0.000000
0.752807 1.006593 0.157063
0.746316 1.008835 0.295103
0.739825 1.011078 0.427965
0.733334 1.013320 0.558193
0.726843 1.015562 0.686935
0.720351 1.017805 0.814838
0.713860 1.020047 0.942317
0.707369 1.022290 1.069656
0.975439 0.000000 0.000000
0.975439 0.000000 0.107725
0.975439 0.000000 0.201022
0.920829 0.000000 0.397754
0.916410 0.000000 0.517970
0.911991 0.000000 0.636440
0.907572 0.000000 0.753776
0.903153 0.000000 0.870372
0.898734 0.000000 0.986500
0.975439 0.130809 0.000000
0.920991 0.156863 0.147953
0.916572 0.156480 0.277521
0.912153 0.156096 0.401801
0.907734 0.155713 0.523213
0.903315 0.155329 0.642848
0.898896 0.154946 0.761327
0.894477 0.154562 0.879048
0.890058 0.154179 0.996283
0.916735 0.292028 0.000000
0.912316 0.291312 0.149458
0.907897 0.290597 0.280330
0.903478 0.289881 0.405848
0.899059 0.289166 0.528456
0.894640 0.288450 0.649257
0.890221 0.287735 0.768879
0.886762 0.287175 0.886762
0.886762 0.287175 1.000000
0.908059 0.418613 0.000000
0.903640 0.417582 0.150964
0.899221 0.416551 0.283140
0.894802 0.415521 0.409895
0.890383 0.414490 0.533699
0.886762 0.413645 0.655076
0.886762 0.413645 0.771890
0.886762 0.413645 0.886762
0.882996 0.414114 1.003539
0.899384 0.539700 0.000000
0.894965 0.538365 0.152470
0.890546 0.537030 0.285949
0.886762 0.535887 0.413645
0.886762 0.535887 0.535887
0.886762 0.535887 0.655076
0.883271 0.536449 0.774422
0.875814 0.537651 0.895886
0.868356 0.538853 1.017297
0.890708 0.656534 0.000000
0.886762 0.655076 0.153893
0.886762 0.655076 0.287175
0.886762 0.655076 0.413645
0.883545 0.655710 0.537507
0.876088 0.657179 0.661648
0.868631 0.658648 0.785042
0.861174 0.660117 0.908086
0.853717 0.661586 1.031055
0.886762 0.771890 0.000000
0.886762 0.771890 0.153893
0.883819 0.772573 0.287969
0.876362 0.774304 0.417688
0.868905 0.776035 0.544880
0.861448 0.777766 0.670660
0.853991 0.779496 0.795661
0.846534 0.781227 0.920286
0.839077 0.782958 1.044812
0.884094 0.887474 0.000000
0.876637 0.889463 0.155357
0.869180 0.891451 0.291920
0.861722 0.893440 0.423379
0.854265 0.895428 0.552252
0.846808 0.897417 0.679673
0.839351 0.899405 0.806281
0.831894 0.901394 0.932486
0.824437 0.903382 1.058570
0.869454 1.005205 0.000000
0.861997 1.007448 0.157475
0.854540 1.009690 0.295871
0.847083 1.011932 0.429070
0.839625 1.014175 0.559625
0.832168 1.016417 0.688685
0.824711 1.018660 0.816900
0.817254 1.020903 0.944686
0.809797 1.023145 1.072328
1.100000 0.000000 0.000000
1.100000 0.000000 0.107725
1.100000 0.000000 0.201022
1.036517 0.000000 0.398540
1.031533 0.000000 0.518988
1.026550 0.000000 0.637684
1.021567 0.000000 0.755242
1.016583 0.000000 0.872057
1.011600 0.000000 0.988400
1.100000 0.130809 0.000000
1.036700 0.156717 0.148245
1.031717 0.156334 0.278066
1.026733 0.155950 0.402587
1.021750 0.155567 0.524231
1.016767 0.155183 0.644093
1.011783 0.154800 0.762794
1.006800 0.154416 0.880732
1.001817 0.154033 0.998183
1.031900 0.291755 0.000000
1.026917 0.291039 0.149751
1.021933 0.290324 0.280876
1.016950 0.289608 0.406634
1.011967 0.288893 0.529474
1.006983 0.288177 0.650502
1.002000 0.287462 0.770346
1.000000 0.287175 0.886762
1.000000 0.287175 1.000000
1.022117 0.418220 0.000000
1.017133 0.417189 0.151256
1.012150 0.416158 0.283685
1.007167 0.415128 0.410681
1.002183 0.414097 0.534717
1.000000 0.413645 0.655076
1.000000 0.413645 0.771890
1.000000 0.413645 0.886762
0.992547 0.414467 1.006211
1.012333 0.539191 0.000000
1.007350 0.537856 0.152762
1.002367 0.536521 0.286495
1.000000 0.535887 0.413645
1.000000 0.535887 0.535887
1.000000 0.535887 0.655076
0.992856 0.536908 0.776485
0.984447 0.538109 0.898256
0.976038 0.539311 1.019969
1.002550 0.655912 0.000000
1.000000 0.655076 0.153893
1.000000 0.655076 0.287175
1.000000 0.655076 0.413645
0.993166 0.656270 0.538939
0.984756 0.657739 0.663398
0.976347 0.659208 0.787104
0.967938 0.660677 0.910456
0.959528 0.662146 1.033727
1.000000 0.771890 0.000000
1.000000 0.771890 0.153893
0.993475 0.773233 0.288736
0.985066 0.774964 0.418793
0.976656 0.776695 0.546311
0.968247 0.778425 0.672410
0.959838 0.780156 0.797724
0.951428 0.781887 0.922655
0.943019 0.783618 1.047484
0.993784 0.888232 0.000000
0.985375 0.890221 0.155769
0.976966 0.892209 0.292687
0.968556 0.894198 0.424484
0.960147 0.896186 0.553684
0.951738 0.898175 0.681423
0.943328 0.900164 0.808343
0.934919 0.902152 0.934855
0.926509 0.904141 1.061242
0.977275 1.006060 0.000000
0.968866 1.008303 0.157886
0.960456 1.010545 0.296638
0.952047 1.012787 0.430175
0.943638 1.015030 0.561057
0.935228 1.017273 0.690435
0.926819 1.019515 0.818963
0.918409 1.021758 0.947055
0.910000 1.024000 1.075000
