app/src/main/assets/luts/02_Cinematic_Dark.cube
TITLE "Cinematic Dark Style"
LUT_3D_SIZE 5
0.000000 0.000000 0.000000
0.000000 0.000000 0.201022
0.000000 0.000000 0.375121
0.000000 0.000000 0.743510
0.000000 0.000000 0.973200
0.000000 0.244098 0.000000
0.000000 0.292506 0.276511
0.000000 0.291075 0.521328
0.000000 0.289644 0.758613
0.000000 0.288213 0.992767
0.000000 0.543264 0.000000
0.000000 0.540594 0.282130
0.000000 0.537923 0.531814
0.000000 0.535887 0.771890
0.000000 0.535887 1.000000
0.000000 0.774964 0.000000
0.000000 0.771890 0.287175
0.000000 0.771890 0.535887
0.000000 0.774877 0.781225
0.000000 0.778339 1.026109
0.000000 1.000000 0.000000
0.000000 1.003705 0.290500
0.000000 1.008190 0.549602
0.000000 1.012675 0.802464
0.000000 1.017160 1.053625
0.315892 0.000000 0.000000
0.315892 0.000000 0.201022
0.315892 0.000000 0.375121
0.296642 0.000000 0.746443
0.293780 0.000000 0.977000
0.315892 0.244098 0.000000
0.296747 0.291961 0.277602
0.293885 0.290530 0.523365
0.291023 0.289099 0.761546
0.288161 0.287668 0.996567
0.293990 0.542246 0.000000
0.291128 0.539575 0.283221
0.288266 0.536905 0.533850
0.287175 0.535887 0.771890
0.285818 0.536562 1.003937
0.288371 0.773498 0.000000
0.287175 0.771890 0.287175
0.285995 0.772735 0.537720
0.281165 0.776197 0.785349
0.276336 0.779659 1.031453
0.286173 1.000930 0.000000
0.281343 1.005415 0.292034
0.276513 1.009900 0.552466
0.271683 1.014385 0.806588
0.266853 1.018870 1.058969
0.589475 0.000000 0.000000
0.589475 0.000000 0.201022
0.556858 0.000000 0.514916
0.551517 0.000000 0.749376
0.546176 0.000000 0.980800
0.557054 0.292846 0.000000
0.551713 0.291415 0.278693
0.546372 0.289984 0.525401
0.541031 0.288553 0.764479
0.535887 0.287175 1.000000
0.546569 0.541228 0.000000
0.541228 0.538557 0.284312
0.535887 0.535887 0.535887
0.535887 0.535887 0.771890
0.529918 0.537478 1.009281
0.536083 0.772031 0.000000
0.535887 0.771890 0.287175
0.530250 0.774055 0.540584
0.521237 0.777517 0.789474
0.512224 0.780979 1.036797
0.530581 1.002640 0.000000
0.521569 1.007125 0.293569
0.512556 1.011610 0.555329
0.503543 1.016095 0.810713
0.494530 1.020580 1.064312
0.849078 0.000000 0.000000
0.849078 0.000000 0.201022
0.799163 0.000000 0.516952
0.791470 0.000000 0.752309
0.783777 0.000000 0.984600
0.799446 0.292301 0.000000
0.791753 0.290870 0.279785
0.784060 0.289438 0.527438
0.776366 0.288007 0.767413
0.771890 0.287175 1.000000
0.784343 0.540210 0.000000
0.776649 0.537539 0.285404
0.771890 0.535887 0.535887
0.771325 0.535991 0.772360
0.758343 0.538395 1.014625
0.771890 0.771890 0.000000
0.771803 0.771913 0.287202
0.758820 0.775375 0.543448
0.745838 0.778837 0.793599
0.732856 0.782298 1.042141
0.759298 1.004350 0.000000
0.746316 1.008835 0.295103
0.733334 1.013320 0.558193
0.720351 1.017805 0.814838
0.707369 1.022290 1.069656
1.100000 0.000000 0.000000
1.100000 0.000000 0.201022
1.031533 0.000000 0.518988
1.021567 0.000000 0.755242
1.011600 0.000000 0.988400
1.031900 0.291755 0.000000
1.021933 0.290324 0.280876
1.011967 0.288893 0.529474
1.002000 0.287462 0.770346
1.000000 0.287175 1.000000
1.012333 0.539191 0.000000
1.002367 0.536521 0.286495
1.000000 0.535887 0.535887
0.992856 0.536908 0.776485
0.976038 0.539311 1.019969
1.000000 0.771890 0.000000
0.993475 0.773233 0.288736
0.976656 0.776695 0.546311
0.959838 0.780156 0.797724
0.943019 0.783618 1.047484
0.977275 1.006060 0.000000
0.960456 1.010545 0.296638
0.943638 1.015030 0.561057
0.926819 1.019515 0.818963
0.910000 1.024000 1.075000
