app/src/main/assets/luts/03_Soft_Film.cube
TITLE "Soft Film Style"
LUT_3D_SIZE 5
0.090542 0.094436 0.090542
0.090542 0.094436 0.327874
0.090542 0.094436 0.555504
0.090542 0.094436 0.778178
0.090542 0.094436 0.997500
0.090542 0.341975 0.090542
0.090542 0.341975 0.327874
0.090542 0.341975 0.555504
0.090542 0.341975 0.778178
0.086230 0.335269 1.050000
0.090542 0.579395 0.090542
0.090542 0.579395 0.327874
0.086230 0.568034 0.584741
0.086230 0.568034 0.819135
0.086230 0.568034 1.050000
0.086230 0.795731 0.095307
0.086230 0.795731 0.345130
0.086230 0.795731 0.584741
0.079332 0.835518 0.884666
0.079332 0.835518 1.134000
0.086230 1.020000 0.095307
0.079332 1.071000 0.372741
0.079332 1.071000 0.631520
0.079332 1.071000 0.884666
0.079332 1.071000 1.134000
0.327874 0.094436 0.090542
0.327874 0.094436 0.327874
0.327874 0.094436 0.555504
0.327874 0.094436 0.778178
0.327874 0.094436 0.997500
0.327874 0.341975 0.090542
0.327874 0.341975 0.327874
0.327874 0.341975 0.555504
0.327874 0.341975 0.778178
0.312261 0.335269 1.050000
0.327874 0.579395 0.090542
0.327874 0.579395 0.327874
0.312261 0.568034 0.584741
0.312261 0.568034 0.819135
0.287280 0.596436 1.134000
0.312261 0.795731 0.095307
0.312261 0.795731 0.345130
0.287280 0.835518 0.631520
0.287280 0.835518 0.884666
0.287280 0.835518 1.134000
0.287280 1.071000 0.102932
0.287280 1.071000 0.372741
0.287280 1.071000 0.631520
0.287280 1.071000 0.884666
0.287280 1.071000 1.134000
0.555504 0.094436 0.090542
0.555504 0.094436 0.327874
0.555504 0.094436 0.555504
0.555504 0.094436 0.778178
0.555504 0.094436 0.997500
0.555504 0.341975 0.090542
0.555504 0.341975 0.327874
0.555504 0.341975 0.555504
0.529051 0.335269 0.819135
0.529051 0.335269 1.050000
0.555504 0.579395 0.090542
0.529051 0.568034 0.345130
0.529051 0.568034 0.584741
0.529051 0.568034 0.819135
0.486727 0.596436 1.134000
0.529051 0.795731 0.095307
0.529051 0.795731 0.345130
0.486727 0.835518 0.631520
0.486727 0.835518 0.884666
0.486727 0.835518 1.134000
0.486727 1.071000 0.102932
0.486727 1.071000 0.372741
0.486727 1.071000 0.631520
0.486727 1.071000 0.884666
0.486727 1.071000 1.134000
0.778178 0.094436 0.090542
0.778178 0.094436 0.327874
0.778178 0.094436 0.555504
0.778178 0.094436 0.778178
0.778178 0.094436 0.997500
0.778178 0.341975 0.090542
0.778178 0.341975 0.327874
0.778178 0.341975 0.555504
0.741122 0.335269 0.819135
0.741122 0.335269 1.050000
0.778178 0.579395 0.090542
0.741122 0.568034 0.345130
0.741122 0.568034 0.584741
0.681832 0.596436 0.884666
0.681832 0.596436 1.134000
0.741122 0.795731 0.095307
0.681832 0.835518 0.372741
0.681832 0.835518 0.631520
0.681832 0.835518 0.884666
0.681832 0.835518 1.134000
0.681832 1.071000 0.102932
0.681832 1.071000 0.372741
0.681832 1.071000 0.631520
0.681832 1.071000 0.884666
0.681832 1.071000 1.134000
0.997500 0.094436 0.090542
0.997500 0.094436 0.327874
0.997500 0.094436 0.555504
0.997500 0.094436 0.778178
0.950000 0.092584 1.050000
0.997500 0.341975 0.090542
0.997500 0.341975 0.327874
0.950000 0.335269 0.584741
0.950000 0.335269 0.819135
0.950000 0.335269 1.050000
0.950000 0.568034 0.095307
0.950000 0.568034 0.345130
0.950000 0.568034 0.584741
0.874000 0.596436 0.884666
0.874000 0.596436 1.134000
0.950000 0.795731 0.095307
0.874000 0.835518 0.372741
0.874000 0.835518 0.631520
0.874000 0.835518 0.884666
0.874000 0.835518 1.134000
0.874000 1.071000 0.102932
0.874000 1.071000 0.372741
0.874000 1.071000 0.631520
0.874000 1.071000 0.884666
0.874000 1.071000 1.134000
