app/src/main/assets/luts/03_Soft_Film.cube
TITLE "Soft Film Style"
LUT_3D_SIZE 33
0.090542 0.094436 0.090542
0.090542 0.094436 0.121205
0.090542 0.094436 0.151461
0.090542 0.094436 0.181400
0.090542 0.094436 0.211079
0.090542 0.094436 0.240540
0.090542 0.094436 0.269812
0.090542 0.094436 0.298917
0.090542 0.094436 0.327874
0.090542 0.094436 0.356696
0.090542 0.094436 0.385396
0.090542 0.094436 0.413984
0.090542 0.094436 0.442469
0.090542 0.094436 0.470857
0.090542 0.094436 0.499155
0.090542 0.094436 0.527369
0.090542 0.094436 0.555504
0.090542 0.094436 0.583564
0.090542 0.094436 0.611553
0.090542 0.094436 0.639475
0.090542 0.094436 0.667332
0.090542 0.094436 0.695129
0.090542 0.094436 0.722867
0.090542 0.094436 0.750550
0.090542 0.094436 0.778178
0.090542 0.094436 0.805755
0.090542 0.094436 0.833283
0.090542 0.094436 0.860763
0.090542 0.094436 0.888196
0.090542 0.094436 0.915586
0.090542 0.094436 0.942932
0.090542 0.094436 0.970236
0.090542 0.094436 0.997500
0.090542 0.126418 0.090542
0.090542 0.126418 0.121205
0.090542 0.126418 0.151461
0.090542 0.126418 0.181400
0.090542 0.126418 0.211079
0.090542 0.126418 0.240540
0.090542 0.126418 0.269812
0.090542 0.126418 0.298917
0.090542 0.126418 0.327874
0.090542 0.126418 0.356696
0.090542 0.126418 0.385396
0.090542 0.126418 0.413984
0.090542 0.126418 0.442469
0.090542 0.126418 0.470857
0.090542 0.126418 0.499155
0.090542 0.126418 0.527369
0.090542 0.126418 0.555504
0.090542 0.126418 0.583564
0.090542 0.126418 0.611553
0.090542 0.126418 0.639475
0.090542 0.126418 0.667332
0.090542 0.126418 0.695129
0.090542 0.126418 0.722867
0.090542 0.126418 0.750550
0.090542 0.126418 0.778178
0.090542 0.126418 0.805755
0.090542 0.126418 0.833283
0.090542 0.126418 0.860763
0.090542 0.126418 0.888196
0.090542 0.126418 0.915586
0.090542 0.126418 0.942932
0.090542 0.126418 0.970236
0.090542 0.126418 0.997500
0.090542 0.157975 0.090542
0.090542 0.157975 0.121205
0.090542 0.157975 0.151461
0.090542 0.157975 0.181400
0.090542 0.157975 0.211079
0.090542 0.157975 0.240540
0.090542 0.157975 0.269812
0.090542 0.157975 0.298917
0.090542 0.157975 0.327874
0.090542 0.157975 0.356696
0.090542 0.157975 0.385396
0.090542 0.157975 0.413984
0.090542 0.157975 0.442469
0.090542 0.157975 0.470857
0.090542 0.157975 0.499155
0.090542 0.157975 0.527369
0.090542 0.157975 0.555504
0.090542 0.157975 0.583564
0.090542 0.157975 0.611553
0.090542 0.157975 0.639475
0.090542 0.157975 0.667332
0.090542 0.157975 0.695129
0.090542 0.157975 0.722867
0.090542 0.157975 0.750550
0.090542 0.157975 0.778178
0.090542 0.157975 0.805755
0.090542 0.157975 0.833283
0.090542 0.157975 0.860763
0.090542 0.157975 0.888196
0.090542 0.157975 0.915586
0.090542 0.157975 0.942932
0.090542 0.157975 0.970236
0.090542 0.157975 0.997500
0.090542 0.189201 0.090542
0.090542 0.189201 0.121205
0.090542 0.189201 0.151461
0.090542 0.189201 0.181400
0.090542 0.189201 0.211079
0.090542 0.189201 0.240540
0.090542 0.189201 0.269812
0.090542 0.189201 0.298917
0.090542 0.189201 0.327874
0.090542 0.189201 0.356696
0.090542 0.189201 0.385396
0.090542 0.189201 0.413984
0.090542 0.189201 0.442469
0.090542 0.189201 0.470857
0.090542 0.189201 0.499155
0.090542 0.189201 0.527369
0.090542 0.189201 0.555504
0.090542 0.189201 0.583564
0.090542 0.189201 0.611553
0.090542 0.189201 0.639475
0.090542 0.189201 0.667332
0.090542 0.189201 0.695129
0.090542 0.189201 0.722867
0.090542 0.189201 0.750550
0.090542 0.189201 0.778178
0.090542 0.189201 0.805755
0.090542 0.189201 0.833283
0.090542 0.189201 0.860763
0.090542 0.189201 0.888196
0.090542 0.189201 0.915586
0.090542 0.189201 0.942932
0.090542 0.189201 0.970236
0.090542 0.189201 0.997500
0.090542 0.220157 0.090542
0.090542 0.220157 0.121205
0.090542 0.220157 0.151461
0.090542 0.220157 0.181400
0.090542 0.220157 0.211079
0.090542 0.220157 0.240540
0.090542 0.220157 0.269812
0.090542 0.220157 0.298917
0.090542 0.220157 0.327874
0.090542 0.220157 0.356696
0.090542 0.220157 0.385396
0.090542 0.220157 0.413984
0.090542 0.220157 0.442469
0.090542 0.220157 0.470857
0.090542 0.220157 0.499155
0.090542 0.220157 0.527369
0.090542 0.220157 0.555504
0.090542 0.220157 0.583564
0.090542 0.220157 0.611553
0.090542 0.220157 0.639475
0.090542 0.220157 0.667332
0.090542 0.220157 0.695129
0.090542 0.220157 0.722867
0.090542 0.220157 0.750550
0.090542 0.220157 0.778178
0.090542 0.220157 0.805755
0.090542 0.220157 0.833283
0.090542 0.220157 0.860763
0.090542 0.220157 0.888196
0.090542 0.220157 0.915586
0.090542 0.220157 0.942932
0.090542 0.220157 0.970236
0.090542 0.220157 0.997500
0.090542 0.250885 0.090542
0.090542 0.250885 0.121205
0.090542 0.250885 0.151461
0.090542 0.250885 0.181400
0.090542 0.250885 0.211079
0.090542 0.250885 0.240540
0.090542 0.250885 0.269812
0.090542 0.250885 0.298917
0.090542 0.250885 0.327874
0.090542 0.250885 0.356696
0.090542 0.250885 0.385396
0.090542 0.250885 0.413984
0.090542 0.250885 0.442469
0.090542 0.250885 0.470857
0.090542 0.250885 0.499155
0.090542 0.250885 0.527369
0.090542 0.250885 0.555504
0.090542 0.250885 0.583564
0.090542 0.250885 0.611553
0.090542 0.250885 0.639475
0.090542 0.250885 0.667332
0.090542 0.250885 0.695129
0.090542 0.250885 0.722867
0.090542 0.250885 0.750550
0.090542 0.250885 0.778178
0.090542 0.250885 0.805755
0.090542 0.250885 0.833283
0.090542 0.250885 0.860763
0.090542 0.250885 0.888196
0.090542 0.250885 0.915586
0.090542 0.250885 0.942932
0.090542 0.250885 0.970236
0.090542 0.250885 0.997500
0.090542 0.281416 0.090542
0.090542 0.281416 0.121205
0.090542 0.281416 0.151461
0.090542 0.281416 0.181400
0.090542 0.281416 0.211079
0.090542 0.281416 0.240540
0.090542 0.281416 0.269812
0.090542 0.281416 0.298917
0.090542 0.281416 0.327874
0.090542 0.281416 0.356696
0.090542 0.281416 0.385396
0.090542 0.281416 0.413984
0.090542 0.281416 0.442469
0.090542 0.281416 0.470857
0.090542 0.281416 0.499155
0.090542 0.281416 0.527369
0.090542 0.281416 0.555504
0.090542 0.281416 0.583564
0.090542 0.281416 0.611553
0.090542 0.281416 0.639475
0.090542 0.281416 0.667332
0.090542 0.281416 0.695129
0.090542 0.281416 0.722867
0.090542 0.281416 0.750550
0.090542 0.281416 0.778178
0.090542 0.281416 0.805755
0.090542 0.281416 0.833283
0.090542 0.281416 0.860763
0.090542 0.281416 0.888196
0.090542 0.281416 0.915586
0.090542 0.281416 0.942932
0.090542 0.281416 0.970236
0.086230 0.275898 1.050000
0.090542 0.311773 0.090542
0.090542 0.311773 0.121205
0.090542 0.311773 0.151461
0.090542 0.311773 0.181400
0.090542 0.311773 0.211079
0.090542 0.311773 0.240540
0.090542 0.311773 0.269812
0.090542 0.311773 0.298917
0.090542 0.311773 0.327874
0.090542 0.311773 0.356696
0.090542 0.311773 0.385396
0.090542 0.311773 0.413984
0.090542 0.311773 0.442469
0.090542 0.311773 0.470857
0.090542 0.311773 0.499155
0.090542 0.311773 0.527369
0.090542 0.311773 0.555504
0.090542 0.311773 0.583564
0.090542 0.311773 0.611553
0.090542 0.311773 0.639475
0.090542 0.311773 0.667332
0.090542 0.311773 0.695129
0.090542 0.311773 0.722867
0.090542 0.311773 0.750550
0.090542 0.311773 0.778178
0.090542 0.311773 0.805755
0.090542 0.311773 0.833283
0.090542 0.311773 0.860763
0.090542 0.311773 0.888196
0.090542 0.311773 0.915586
0.086230 0.305660 0.992560
0.086230 0.305660 1.021301
0.086230 0.305660 1.050000
0.090542 0.341975 0.090542
0.090542 0.341975 0.121205
0.090542 0.341975 0.151461
0.090542 0.341975 0.181400
0.090542 0.341975 0.211079
0.090542 0.341975 0.240540
0.090542 0.341975 0.269812
0.090542 0.341975 0.298917
0.090542 0.341975 0.327874
0.090542 0.341975 0.356696
0.090542 0.341975 0.385396
0.090542 0.341975 0.413984
0.090542 0.341975 0.442469
0.090542 0.341975 0.470857
0.090542 0.341975 0.499155
0.090542 0.341975 0.527369
0.090542 0.341975 0.555504
0.090542 0.341975 0.583564
0.090542 0.341975 0.611553
0.090542 0.341975 0.639475
0.090542 0.341975 0.667332
0.090542 0.341975 0.695129
0.090542 0.341975 0.722867
0.090542 0.341975 0.750550
0.090542 0.341975 0.778178
0.090542 0.341975 0.805755
0.090542 0.341975 0.833283
0.090542 0.341975 0.860763
0.086230 0.335269 0.934944
0.086230 0.335269 0.963774
0.086230 0.335269 0.992560
0.086230 0.335269 1.021301
0.086230 0.335269 1.050000
0.090542 0.372037 0.090542
0.090542 0.372037 0.121205
0.090542 0.372037 0.151461
0.090542 0.372037 0.181400
0.090542 0.372037 0.211079
0.090542 0.372037 0.240540
0.090542 0.372037 0.269812
0.090542 0.372037 0.298917
0.090542 0.372037 0.327874
0.090542 0.372037 0.356696
0.090542 0.372037 0.385396
0.090542 0.372037 0.413984
0.090542 0.372037 0.442469
0.090542 0.372037 0.470857
0.090542 0.372037 0.499155
0.090542 0.372037 0.527369
0.090542 0.372037 0.555504
0.090542 0.372037 0.583564
0.090542 0.372037 0.611553
0.090542 0.372037 0.639475
0.090542 0.372037 0.667332
0.090542 0.372037 0.695129
0.090542 0.372037 0.722867
0.090542 0.372037 0.750550
0.090542 0.372037 0.778178
0.090542 0.372037 0.805755
0.086230 0.364742 0.877140
0.086230 0.364742 0.906066
0.086230 0.364742 0.934944
0.086230 0.364742 0.963774
0.086230 0.364742 0.992560
0.086230 0.364742 1.021301
0.086230 0.364742 1.050000
0.090542 0.401971 0.090542
0.090542 0.401971 0.121205
0.090542 0.401971 0.151461
0.090542 0.401971 0.181400
0.090542 0.401971 0.211079
0.090542 0.401971 0.240540
0.090542 0.401971 0.269812
0.090542 0.401971 0.298917
0.090542 0.401971 0.327874
0.090542 0.401971 0.356696
0.090542 0.401971 0.385396
0.090542 0.401971 0.413984
0.090542 0.401971 0.442469
0.090542 0.401971 0.470857
0.090542 0.401971 0.499155
0.090542 0.401971 0.527369
0.090542 0.401971 0.555504
0.090542 0.401971 0.583564
0.090542 0.401971 0.611553
0.090542 0.401971 0.639475
0.090542 0.401971 0.667332
0.090542 0.401971 0.695129
0.090542 0.401971 0.722867
0.090542 0.401971 0.750550
0.086230 0.394089 0.819135
0.086230 0.394089 0.848164
0.086230 0.394089 0.877140
0.086230 0.394089 0.906066
0.086230 0.394089 0.934944
0.086230 0.394089 0.963774
0.086230 0.394089 0.992560
0.086230 0.394089 1.021301
0.086230 0.394089 1.050000
0.090542 0.431789 0.090542
0.090542 0.431789 0.121205
0.090542 0.431789 0.151461
0.090542 0.431789 0.181400
0.090542 0.431789 0.211079
0.090542 0.431789 0.240540
0.090542 0.431789 0.269812
0.090542 0.431789 0.298917
0.090542 0.431789 0.327874
0.090542 0.431789 0.356696
0.090542 0.431789 0.385396
0.090542 0.431789 0.413984
0.090542 0.431789 0.442469
0.090542 0.431789 0.470857
0.090542 0.431789 0.499155
0.090542 0.431789 0.527369
0.090542 0.431789 0.555504
0.090542 0.431789 0.583564
0.090542 0.431789 0.611553
0.090542 0.431789 0.639475
0.090542 0.431789 0.667332
0.090542 0.431789 0.695129
0.086230 0.423322 0.760913
0.086230 0.423322 0.790052
0.086230 0.423322 0.819135
0.086230 0.423322 0.848164
0.086230 0.423322 0.877140
0.086230 0.423322 0.906066
0.086230 0.423322 0.934944
0.086230 0.423322 0.963774
0.086230 0.423322 0.992560
0.086230 0.423322 1.021301
0.086230 0.423322 1.050000
0.090542 0.461498 0.090542
0.090542 0.461498 0.121205
0.090542 0.461498 0.151461
0.090542 0.461498 0.181400
0.090542 0.461498 0.211079
0.090542 0.461498 0.240540
0.090542 0.461498 0.269812
0.090542 0.461498 0.298917
0.090542 0.461498 0.327874
0.090542 0.461498 0.356696
0.090542 0.461498 0.385396
0.090542 0.461498 0.413984
0.090542 0.461498 0.442469
0.090542 0.461498 0.470857
0.090542 0.461498 0.499155
0.090542 0.461498 0.527369
0.090542 0.461498 0.555504
0.090542 0.461498 0.583564
0.090542 0.461498 0.611553
0.090542 0.461498 0.639475
0.086230 0.452449 0.702455
0.086230 0.452449 0.731715
0.086230 0.452449 0.760913
0.086230 0.452449 0.790052
0.086230 0.452449 0.819135
0.086230 0.452449 0.848164
0.086230 0.452449 0.877140
0.086230 0.452449 0.906066
0.086230 0.452449 0.934944
0.086230 0.452449 0.963774
0.086230 0.452449 0.992560
0.086230 0.452449 1.021301
0.086230 0.452449 1.050000
0.090542 0.491107 0.090542
0.090542 0.491107 0.121205
0.090542 0.491107 0.151461
0.090542 0.491107 0.181400
0.090542 0.491107 0.211079
0.090542 0.491107 0.240540
0.090542 0.491107 0.269812
0.090542 0.491107 0.298917
0.090542 0.491107 0.327874
0.090542 0.491107 0.356696
0.090542 0.491107 0.385396
0.090542 0.491107 0.413984
0.090542 0.491107 0.442469
0.090542 0.491107 0.470857
0.090542 0.491107 0.499155
0.090542 0.491107 0.527369
0.090542 0.491107 0.555504
0.090542 0.491107 0.583564
0.086230 0.481477 0.643740
0.086230 0.481477 0.673131
0.086230 0.481477 0.702455
0.086230 0.481477 0.731715
0.086230 0.481477 0.760913
0.086230 0.481477 0.790052
0.086230 0.481477 0.819135
0.086230 0.481477 0.848164
0.086230 0.481477 0.877140
0.086230 0.481477 0.906066
0.086230 0.481477 0.934944
0.086230 0.481477 0.963774
0.086230 0.481477 0.992560
0.086230 0.481477 1.021301
0.086230 0.481477 1.050000
0.090542 0.520622 0.090542
0.090542 0.520622 0.121205
0.090542 0.520622 0.151461
0.090542 0.520622 0.181400
0.090542 0.520622 0.211079
0.090542 0.520622 0.240540
0.090542 0.520622 0.269812
0.090542 0.520622 0.298917
0.090542 0.520622 0.327874
0.090542 0.520622 0.356696
0.090542 0.520622 0.385396
0.090542 0.520622 0.413984
0.090542 0.520622 0.442469
0.090542 0.520622 0.470857
0.090542 0.520622 0.499155
0.090542 0.520622 0.527369
0.086230 0.510414 0.584741
0.086230 0.510414 0.614278
0.086230 0.510414 0.643740
0.086230 0.510414 0.673131
0.086230 0.510414 0.702455
0.086230 0.510414 0.731715
0.086230 0.510414 0.760913
0.086230 0.510414 0.790052
0.086230 0.510414 0.819135
0.086230 0.510414 0.848164
0.086230 0.510414 0.877140
0.086230 0.510414 0.906066
0.086230 0.510414 0.934944
0.086230 0.510414 0.963774
0.086230 0.510414 0.992560
0.086230 0.510414 1.021301
0.086230 0.510414 1.050000
0.090542 0.550050 0.090542
0.090542 0.550050 0.121205
0.090542 0.550050 0.151461
0.090542 0.550050 0.181400
0.090542 0.550050 0.211079
0.090542 0.550050 0.240540
0.090542 0.550050 0.269812
0.090542 0.550050 0.298917
0.090542 0.550050 0.327874
0.090542 0.550050 0.356696
0.090542 0.550050 0.385396
0.090542 0.550050 0.413984
0.090542 0.550050 0.442469
0.090542 0.550050 0.470857
0.086230 0.539264 0.525426
0.086230 0.539264 0.555125
0.086230 0.539264 0.584741
0.086230 0.539264 0.614278
0.086230 0.539264 0.643740
0.086230 0.539264 0.673131
0.086230 0.539264 0.702455
0.086230 0.539264 0.731715
0.086230 0.539264 0.760913
0.086230 0.539264 0.790052
0.086230 0.539264 0.819135
0.086230 0.539264 0.848164
0.086230 0.539264 0.877140
0.086230 0.539264 0.906066
0.086230 0.539264 0.934944
0.086230 0.539264 0.963774
0.086230 0.539264 0.992560
0.086230 0.539264 1.021301
0.086230 0.539264 1.050000
0.090542 0.579395 0.090542
0.090542 0.579395 0.121205
0.090542 0.579395 0.151461
0.090542 0.579395 0.181400
0.090542 0.579395 0.211079
0.090542 0.579395 0.240540
0.090542 0.579395 0.269812
0.090542 0.579395 0.298917
0.090542 0.579395 0.327874
0.090542 0.579395 0.356696
0.090542 0.579395 0.385396
0.090542 0.579395 0.413984
0.086230 0.568034 0.465756
0.086230 0.568034 0.495639
0.086230 0.568034 0.525426
0.086230 0.568034 0.555125
0.086230 0.568034 0.584741
0.086230 0.568034 0.614278
0.086230 0.568034 0.643740
0.086230 0.568034 0.673131
0.086230 0.568034 0.702455
0.086230 0.568034 0.731715
0.086230 0.568034 0.760913
0.086230 0.568034 0.790052
0.086230 0.568034 0.819135
0.086230 0.568034 0.848164
0.086230 0.568034 0.877140
0.086230 0.568034 0.906066
0.086230 0.568034 0.934944
0.086230 0.568034 0.963774
0.086230 0.568034 0.992560
0.086230 0.568034 1.021301
0.086230 0.568034 1.050000
0.090542 0.608661 0.090542
0.090542 0.608661 0.121205
0.090542 0.608661 0.151461
0.090542 0.608661 0.181400
0.090542 0.608661 0.211079
0.090542 0.608661 0.240540
0.090542 0.608661 0.269812
0.090542 0.608661 0.298917
0.090542 0.608661 0.327874
0.090542 0.608661 0.356696
0.086230 0.596727 0.405680
0.086230 0.596727 0.435773
0.086230 0.596727 0.465756
0.086230 0.596727 0.495639
0.086230 0.596727 0.525426
0.086230 0.596727 0.555125
0.086230 0.596727 0.584741
0.086230 0.596727 0.614278
0.086230 0.596727 0.643740
0.086230 0.596727 0.673131
0.086230 0.596727 0.702455
0.086230 0.596727 0.731715
0.086230 0.596727 0.760913
0.086230 0.596727 0.790052
0.086230 0.596727 0.819135
0.086230 0.596727 0.848164
0.086230 0.596727 0.877140
0.086230 0.596727 0.906066
0.086230 0.596727 0.934944
0.086230 0.596727 0.963774
0.086230 0.596727 0.992560
0.079332 0.626563 1.103005
0.079332 0.626563 1.134000
0.090542 0.637854 0.090542
0.090542 0.637854 0.121205
0.090542 0.637854 0.151461
0.090542 0.637854 0.181400
0.090542 0.637854 0.211079
0.090542 0.637854 0.240540
0.090542 0.637854 0.269812
0.090542 0.637854 0.298917
0.086230 0.625347 0.345130
0.086230 0.625347 0.375469
0.086230 0.625347 0.405680
0.086230 0.625347 0.435773
0.086230 0.625347 0.465756
0.086230 0.625347 0.495639
0.086230 0.625347 0.525426
0.086230 0.625347 0.555125
0.086230 0.625347 0.584741
0.086230 0.625347 0.614278
0.086230 0.625347 0.643740
0.086230 0.625347 0.673131
0.086230 0.625347 0.702455
0.086230 0.625347 0.731715
0.086230 0.625347 0.760913
0.086230 0.625347 0.790052
0.086230 0.625347 0.819135
0.086230 0.625347 0.848164
0.086230 0.625347 0.877140
0.086230 0.625347 0.906066
0.086230 0.625347 0.934944
0.079332 0.656615 1.040876
0.079332 0.656615 1.071964
0.079332 0.656615 1.103005
0.079332 0.656615 1.134000
0.090542 0.666977 0.090542
0.090542 0.666977 0.121205
0.090542 0.666977 0.151461
0.090542 0.666977 0.181400
0.090542 0.666977 0.211079
0.090542 0.666977 0.240540
0.086230 0.653899 0.284013
0.086230 0.653899 0.314650
0.086230 0.653899 0.345130
0.086230 0.653899 0.375469
0.086230 0.653899 0.405680
0.086230 0.653899 0.435773
0.086230 0.653899 0.465756
0.086230 0.653899 0.495639
0.086230 0.653899 0.525426
0.086230 0.653899 0.555125
0.086230 0.653899 0.584741
0.086230 0.653899 0.614278
0.086230 0.653899 0.643740
0.086230 0.653899 0.673131
0.086230 0.653899 0.702455
0.086230 0.653899 0.731715
0.086230 0.653899 0.760913
0.086230 0.653899 0.790052
0.086230 0.653899 0.819135
0.086230 0.653899 0.848164
0.086230 0.653899 0.877140
0.079332 0.686594 0.978551
0.079332 0.686594 1.009739
0.079332 0.686594 1.040876
0.079332 0.686594 1.071964
0.079332 0.686594 1.103005
0.079332 0.686594 1.134000
0.090542 0.696033 0.090542
0.090542 0.696033 0.121205
0.090542 0.696033 0.151461
0.090542 0.696033 0.181400
0.086230 0.682385 0.222189
0.086230 0.682385 0.253200
0.086230 0.682385 0.284013
0.086230 0.682385 0.314650
0.086230 0.682385 0.345130
0.086230 0.682385 0.375469
0.086230 0.682385 0.405680
0.086230 0.682385 0.435773
0.086230 0.682385 0.465756
0.086230 0.682385 0.495639
0.086230 0.682385 0.525426
0.086230 0.682385 0.555125
0.086230 0.682385 0.584741
0.086230 0.682385 0.614278
0.086230 0.682385 0.643740
0.086230 0.682385 0.673131
0.086230 0.682385 0.702455
0.086230 0.682385 0.731715
0.086230 0.682385 0.760913
0.086230 0.682385 0.790052
0.086230 0.682385 0.819135
0.079332 0.716504 0.916017
0.079332 0.716504 0.947311
0.079332 0.716504 0.978551
0.079332 0.716504 1.009739
0.079332 0.716504 1.040876
0.079332 0.716504 1.071964
0.079332 0.716504 1.103005
0.079332 0.716504 1.134000
0.090542 0.725025 0.090542
0.090542 0.725025 0.121205
0.086230 0.710809 0.159433
0.086230 0.710809 0.190947
0.086230 0.710809 0.222189
0.086230 0.710809 0.253200
0.086230 0.710809 0.284013
0.086230 0.710809 0.314650
0.086230 0.710809 0.345130
0.086230 0.710809 0.375469
0.086230 0.710809 0.405680
0.086230 0.710809 0.435773
0.086230 0.710809 0.465756
0.086230 0.710809 0.495639
0.086230 0.710809 0.525426
0.086230 0.710809 0.555125
0.086230 0.710809 0.584741
0.086230 0.710809 0.614278
0.086230 0.710809 0.643740
0.086230 0.710809 0.673131
0.086230 0.710809 0.702455
0.086230 0.710809 0.731715
0.086230 0.710809 0.760913
0.079332 0.746349 0.853256
0.079332 0.746349 0.884666
0.079332 0.746349 0.916017
0.079332 0.746349 0.947311
0.079332 0.746349 0.978551
0.079332 0.746349 1.009739
0.079332 0.746349 1.040876
0.079332 0.746349 1.071964
0.079332 0.746349 1.103005
0.079332 0.746349 1.134000
0.086230 0.739172 0.095307
0.086230 0.739172 0.127584
0.086230 0.739172 0.159433
0.086230 0.739172 0.190947
0.086230 0.739172 0.222189
0.086230 0.739172 0.253200
0.086230 0.739172 0.284013
0.086230 0.739172 0.314650
0.086230 0.739172 0.345130
0.086230 0.739172 0.375469
0.086230 0.739172 0.405680
0.086230 0.739172 0.435773
0.086230 0.739172 0.465756
0.086230 0.739172 0.495639
0.086230 0.739172 0.525426
0.086230 0.739172 0.555125
0.086230 0.739172 0.584741
0.086230 0.739172 0.614278
0.086230 0.739172 0.643740
0.086230 0.739172 0.673131
0.086230 0.739172 0.702455
0.086230 0.739172 0.731715
0.079332 0.776131 0.821786
0.079332 0.776131 0.853256
0.079332 0.776131 0.884666
0.079332 0.776131 0.916017
0.079332 0.776131 0.947311
0.079332 0.776131 0.978551
0.079332 0.776131 1.009739
0.079332 0.776131 1.040876
0.079332 0.776131 1.071964
0.079332 0.776131 1.103005
0.079332 0.776131 1.134000
0.086230 0.767479 0.095307
0.086230 0.767479 0.127584
0.086230 0.767479 0.159433
0.086230 0.767479 0.190947
0.086230 0.767479 0.222189
0.086230 0.767479 0.253200
0.086230 0.767479 0.284013
0.086230 0.767479 0.314650
0.086230 0.767479 0.345130
0.086230 0.767479 0.375469
0.086230 0.767479 0.405680
0.086230 0.767479 0.435773
0.086230 0.767479 0.465756
0.086230 0.767479 0.495639
0.086230 0.767479 0.525426
0.086230 0.767479 0.555125
0.086230 0.767479 0.584741
0.086230 0.767479 0.614278
0.086230 0.767479 0.643740
0.086230 0.767479 0.673131
0.079332 0.805853 0.758651
0.079332 0.805853 0.790252
0.079332 0.805853 0.821786
0.079332 0.805853 0.853256
0.079332 0.805853 0.884666
0.079332 0.805853 0.916017
0.079332 0.805853 0.947311
0.079332 0.805853 0.978551
0.079332 0.805853 1.009739
0.079332 0.805853 1.040876
0.079332 0.805853 1.071964
0.079332 0.805853 1.103005
0.079332 0.805853 1.134000
0.086230 0.795731 0.095307
0.086230 0.795731 0.127584
0.086230 0.795731 0.159433
0.086230 0.795731 0.190947
0.086230 0.795731 0.222189
0.086230 0.795731 0.253200
0.086230 0.795731 0.284013
0.086230 0.795731 0.314650
0.086230 0.795731 0.345130
0.086230 0.795731 0.375469
0.086230 0.795731 0.405680
0.086230 0.795731 0.435773
0.086230 0.795731 0.465756
0.086230 0.795731 0.495639
0.086230 0.795731 0.525426
0.086230 0.795731 0.555125
0.086230 0.795731 0.584741
0.086230 0.795731 0.614278
0.079332 0.835518 0.695239
0.079332 0.835518 0.726982
0.079332 0.835518 0.758651
0.079332 0.835518 0.790252
0.079332 0.835518 0.821786
0.079332 0.835518 0.853256
0.079332 0.835518 0.884666
0.079332 0.835518 0.916017
0.079332 0.835518 0.947311
0.079332 0.835518 0.978551
0.079332 0.835518 1.009739
0.079332 0.835518 1.040876
0.079332 0.835518 1.071964
0.079332 0.835518 1.103005
0.079332 0.835518 1.134000
0.086230 0.823930 0.095307
0.086230 0.823930 0.127584
0.086230 0.823930 0.159433
0.086230 0.823930 0.190947
0.086230 0.823930 0.222189
0.086230 0.823930 0.253200
0.086230 0.823930 0.284013
0.086230 0.823930 0.314650
0.086230 0.823930 0.345130
0.086230 0.823930 0.375469
0.086230 0.823930 0.405680
0.086230 0.823930 0.435773
0.086230 0.823930 0.465756
0.086230 0.823930 0.495639
0.086230 0.823930 0.525426
0.086230 0.823930 0.555125
0.079332 0.865127 0.631520
0.079332 0.865127 0.663420
0.079332 0.865127 0.695239
0.079332 0.865127 0.726982
0.079332 0.865127 0.758651
0.079332 0.865127 0.790252
0.079332 0.865127 0.821786
0.079332 0.865127 0.853256
0.079332 0.865127 0.884666
0.079332 0.865127 0.916017
0.079332 0.865127 0.947311
0.079332 0.865127 0.978551
0.079332 0.865127 1.009739
0.079332 0.865127 1.040876
0.079332 0.865127 1.071964
0.079332 0.865127 1.103005
0.079332 0.865127 1.134000
0.086230 0.852079 0.095307
0.086230 0.852079 0.127584
0.086230 0.852079 0.159433
0.086230 0.852079 0.190947
0.086230 0.852079 0.222189
0.086230 0.852079 0.253200
0.086230 0.852079 0.284013
0.086230 0.852079 0.314650
0.086230 0.852079 0.345130
0.086230 0.852079 0.375469
0.086230 0.852079 0.405680
0.086230 0.852079 0.435773
0.086230 0.852079 0.465756
0.086230 0.852079 0.495639
0.079332 0.894683 0.567460
0.079332 0.894683 0.599535
0.079332 0.894683 0.631520
0.079332 0.894683 0.663420
0.079332 0.894683 0.695239
0.079332 0.894683 0.726982
0.079332 0.894683 0.758651
0.079332 0.894683 0.790252
0.079332 0.894683 0.821786
0.079332 0.894683 0.853256
0.079332 0.894683 0.884666
0.079332 0.894683 0.916017
0.079332 0.894683 0.947311
0.079332 0.894683 0.978551
0.079332 0.894683 1.009739
