app/src/main/assets/luts/03_Soft_Film.cube
TITLE "Soft Film Style"
LUT_3D_SIZE 9
0.090542 0.094436 0.090542
0.090542 0.094436 0.211079
0.090542 0.094436 0.327874
0.090542 0.094436 0.442469
0.090542 0.094436 0.555504
0.090542 0.094436 0.667332
0.090542 0.094436 0.778178
0.090542 0.094436 0.888196
0.090542 0.094436 0.997500
0.090542 0.220157 0.090542
0.090542 0.220157 0.211079
0.090542 0.220157 0.327874
0.090542 0.220157 0.442469
0.090542 0.220157 0.555504
0.090542 0.220157 0.667332
0.090542 0.220157 0.778178
0.090542 0.220157 0.888196
0.090542 0.220157 0.997500
0.090542 0.341975 0.090542
0.090542 0.341975 0.211079
0.090542 0.341975 0.327874
0.090542 0.341975 0.442469
0.090542 0.341975 0.555504
0.090542 0.341975 0.667332
0.090542 0.341975 0.778178
0.086230 0.335269 0.934944
0.086230 0.335269 1.050000
0.090542 0.461498 0.090542
0.090542 0.461498 0.211079
0.090542 0.461498 0.327874
0.090542 0.461498 0.442469
0.090542 0.461498 0.555504
0.086230 0.452449 0.702455
0.086230 0.452449 0.819135
0.086230 0.452449 0.934944
0.086230 0.452449 1.050000
0.090542 0.579395 0.090542
0.090542 0.579395 0.211079
0.090542 0.579395 0.327874
0.086230 0.568034 0.465756
0.086230 0.568034 0.584741
0.086230 0.568034 0.702455
0.086230 0.568034 0.819135
0.086230 0.568034 0.934944
0.086230 0.568034 1.050000
0.090542 0.696033 0.090542
0.086230 0.682385 0.222189
0.086230 0.682385 0.345130
0.086230 0.682385 0.465756
0.086230 0.682385 0.584741
0.086230 0.682385 0.702455
0.086230 0.682385 0.819135
0.079332 0.716504 1.009739
0.079332 0.716504 1.134000
0.086230 0.795731 0.095307
0.086230 0.795731 0.222189
0.086230 0.795731 0.345130
0.086230 0.795731 0.465756
0.086230 0.795731 0.584741
0.079332 0.835518 0.758651
0.079332 0.835518 0.884666
0.079332 0.835518 1.009739
0.079332 0.835518 1.134000
0.086230 0.908231 0.095307
0.086230 0.908231 0.222189
0.086230 0.908231 0.345130
0.079332 0.953642 0.503017
0.079332 0.953642 0.631520
0.079332 0.953642 0.758651
0.079332 0.953642 0.884666
0.079332 0.953642 1.009739
0.079332 0.953642 1.134000
0.086230 1.020000 0.095307
0.079332 1.071000 0.239964
0.079332 1.071000 0.372741
0.079332 1.071000 0.503017
0.079332 1.071000 0.631520
0.079332 1.071000 0.758651
0.079332 1.071000 0.884666
0.079332 1.071000 1.009739
0.079332 1.071000 1.134000
0.211079 0.094436 0.090542
0.211079 0.094436 0.211079
0.211079 0.094436 0.327874
0.211079 0.094436 0.442469
0.211079 0.094436 0.555504
0.211079 0.094436 0.667332
0.211079 0.094436 0.778178
0.211079 0.094436 0.888196
0.211079 0.094436 0.997500
0.211079 0.220157 0.090542
0.211079 0.220157 0.211079
0.211079 0.220157 0.327874
0.211079 0.220157 0.442469
0.211079 0.220157 0.555504
0.211079 0.220157 0.667332
0.211079 0.220157 0.778178
0.211079 0.220157 0.888196
0.211079 0.220157 0.997500
0.211079 0.341975 0.090542
0.211079 0.341975 0.211079
0.211079 0.341975 0.327874
0.211079 0.341975 0.442469
0.211079 0.341975 0.555504
0.211079 0.341975 0.667332
0.211079 0.341975 0.778178
0.201028 0.335269 0.934944
0.201028 0.335269 1.050000
0.211079 0.461498 0.090542
0.211079 0.461498 0.211079
0.211079 0.461498 0.327874
0.211079 0.461498 0.442469
0.211079 0.461498 0.555504
0.201028 0.452449 0.702455
0.201028 0.452449 0.819135
0.201028 0.452449 0.934944
0.201028 0.452449 1.050000
0.211079 0.579395 0.090542
0.211079 0.579395 0.211079
0.211079 0.579395 0.327874
0.201028 0.568034 0.465756
0.201028 0.568034 0.584741
0.201028 0.568034 0.702455
0.201028 0.568034 0.819135
0.201028 0.568034 0.934944
0.184946 0.596436 1.134000
0.211079 0.696033 0.090542
0.201028 0.682385 0.222189
0.201028 0.682385 0.345130
0.201028 0.682385 0.465756
0.201028 0.682385 0.584741
0.201028 0.682385 0.702455
0.184946 0.716504 0.884666
0.184946 0.716504 1.009739
0.184946 0.716504 1.134000
0.201028 0.795731 0.095307
0.201028 0.795731 0.222189
0.201028 0.795731 0.345130
0.201028 0.795731 0.465756
0.184946 0.835518 0.631520
0.184946 0.835518 0.758651
0.184946 0.835518 0.884666
0.184946 0.835518 1.009739
0.184946 0.835518 1.134000
0.201028 0.908231 0.095307
0.201028 0.908231 0.222189
0.184946 0.953642 0.372741
0.184946 0.953642 0.503017
0.184946 0.953642 0.631520
0.184946 0.953642 0.758651
0.184946 0.953642 0.884666
0.184946 0.953642 1.009739
0.184946 0.953642 1.134000
0.184946 1.071000 0.102932
0.184946 1.071000 0.239964
0.184946 1.071000 0.372741
0.184946 1.071000 0.503017
0.184946 1.071000 0.631520
0.184946 1.071000 0.758651
0.184946 1.071000 0.884666
0.184946 1.071000 1.009739
0.184946 1.071000 1.134000
0.327874 0.094436 0.090542
0.327874 0.094436 0.211079
0.327874 0.094436 0.327874
0.327874 0.094436 0.442469
0.327874 0.094436 0.555504
0.327874 0.094436 0.667332
0.327874 0.094436 0.778178
0.327874 0.094436 0.888196
0.327874 0.094436 0.997500
0.327874 0.220157 0.090542
0.327874 0.220157 0.211079
0.327874 0.220157 0.327874
0.327874 0.220157 0.442469
0.327874 0.220157 0.555504
0.327874 0.220157 0.667332
0.327874 0.220157 0.778178
0.327874 0.220157 0.888196
0.312261 0.215841 1.050000
0.327874 0.341975 0.090542
0.327874 0.341975 0.211079
0.327874 0.341975 0.327874
0.327874 0.341975 0.442469
0.327874 0.341975 0.555504
0.327874 0.341975 0.667332
0.327874 0.341975 0.778178
0.312261 0.335269 0.934944
0.312261 0.335269 1.050000
0.327874 0.461498 0.090542
0.327874 0.461498 0.211079
0.327874 0.461498 0.327874
0.327874 0.461498 0.442469
0.327874 0.461498 0.555504
0.312261 0.452449 0.702455
0.312261 0.452449 0.819135
0.312261 0.452449 0.934944
0.312261 0.452449 1.050000
0.327874 0.579395 0.090542
0.327874 0.579395 0.211079
0.327874 0.579395 0.327874
0.312261 0.568034 0.465756
0.312261 0.568034 0.584741
0.312261 0.568034 0.702455
0.312261 0.568034 0.819135
0.312261 0.568034 0.934944
0.287280 0.596436 1.134000
0.327874 0.696033 0.090542
0.312261 0.682385 0.222189
0.312261 0.682385 0.345130
0.312261 0.682385 0.465756
0.312261 0.682385 0.584741
0.312261 0.682385 0.702455
0.287280 0.716504 0.884666
0.287280 0.716504 1.009739
0.287280 0.716504 1.134000
0.312261 0.795731 0.095307
0.312261 0.795731 0.222189
0.312261 0.795731 0.345130
0.312261 0.795731 0.465756
0.287280 0.835518 0.631520
0.287280 0.835518 0.758651
0.287280 0.835518 0.884666
0.287280 0.835518 1.009739
0.287280 0.835518 1.134000
0.312261 0.908231 0.095307
0.312261 0.908231 0.222189
0.287280 0.953642 0.372741
0.287280 0.953642 0.503017
0.287280 0.953642 0.631520
0.287280 0.953642 0.758651
0.287280 0.953642 0.884666
0.287280 0.953642 1.009739
0.287280 0.953642 1.134000
0.287280 1.071000 0.102932
0.287280 1.071000 0.239964
0.287280 1.071000 0.372741
0.287280 1.071000 0.503017
0.287280 1.071000 0.631520
0.287280 1.071000 0.758651
0.287280 1.071000 0.884666
0.287280 1.071000 1.009739
0.287280 1.071000 1.134000
0.442469 0.094436 0.090542
0.442469 0.094436 0.211079
0.442469 0.094436 0.327874
0.442469 0.094436 0.442469
0.442469 0.094436 0.555504
0.442469 0.094436 0.667332
0.442469 0.094436 0.778178
0.442469 0.094436 0.888196
0.442469 0.094436 0.997500
0.442469 0.220157 0.090542
0.442469 0.220157 0.211079
0.442469 0.220157 0.327874
0.442469 0.220157 0.442469
0.442469 0.220157 0.555504
0.442469 0.220157 0.667332
0.442469 0.220157 0.778178
0.442469 0.220157 0.888196
0.421399 0.215841 1.050000
0.442469 0.341975 0.090542
0.442469 0.341975 0.211079
0.442469 0.341975 0.327874
0.442469 0.341975 0.442469
0.442469 0.341975 0.555504
0.442469 0.341975 0.667332
0.421399 0.335269 0.819135
0.421399 0.335269 0.934944
0.421399 0.335269 1.050000
0.442469 0.461498 0.090542
0.442469 0.461498 0.211079
0.442469 0.461498 0.327874
0.442469 0.461498 0.442469
0.421399 0.452449 0.584741
0.421399 0.452449 0.702455
0.421399 0.452449 0.819135
0.421399 0.452449 0.934944
0.421399 0.452449 1.050000
0.442469 0.579395 0.090542
0.442469 0.579395 0.211079
0.421399 0.568034 0.345130
0.421399 0.568034 0.465756
0.421399 0.568034 0.584741
0.421399 0.568034 0.702455
0.421399 0.568034 0.819135
0.421399 0.568034 0.934944
0.387687 0.596436 1.134000
0.421399 0.682385 0.095307
0.421399 0.682385 0.222189
0.421399 0.682385 0.345130
0.421399 0.682385 0.465756
0.421399 0.682385 0.584741
0.421399 0.682385 0.702455
0.387687 0.716504 0.884666
0.387687 0.716504 1.009739
0.387687 0.716504 1.134000
0.421399 0.795731 0.095307
0.421399 0.795731 0.222189
0.421399 0.795731 0.345130
0.421399 0.795731 0.465756
0.387687 0.835518 0.631520
0.387687 0.835518 0.758651
0.387687 0.835518 0.884666
0.387687 0.835518 1.009739
0.387687 0.835518 1.134000
0.421399 0.908231 0.095307
0.421399 0.908231 0.222189
0.387687 0.953642 0.372741
0.387687 0.953642 0.503017
0.387687 0.953642 0.631520
0.387687 0.953642 0.758651
0.387687 0.953642 0.884666
0.387687 0.953642 1.009739
0.387687 0.953642 1.134000
0.387687 1.071000 0.102932
0.387687 1.071000 0.239964
0.387687 1.071000 0.372741
0.387687 1.071000 0.503017
0.387687 1.071000 0.631520
0.387687 1.071000 0.758651
0.387687 1.071000 0.884666
0.387687 1.071000 1.009739
0.387687 1.071000 1.134000
0.555504 0.094436 0.090542
0.555504 0.094436 0.211079
0.555504 0.094436 0.327874
0.555504 0.094436 0.442469
0.555504 0.094436 0.555504
0.555504 0.094436 0.667332
0.555504 0.094436 0.778178
0.555504 0.094436 0.888196
0.555504 0.094436 0.997500
0.555504 0.220157 0.090542
0.555504 0.220157 0.211079
0.555504 0.220157 0.327874
0.555504 0.220157 0.442469
0.555504 0.220157 0.555504
0.555504 0.220157 0.667332
0.555504 0.220157 0.778178
0.555504 0.220157 0.888196
0.529051 0.215841 1.050000
0.555504 0.341975 0.090542
0.555504 0.341975 0.211079
0.555504 0.341975 0.327874
0.555504 0.341975 0.442469
0.555504 0.341975 0.555504
0.555504 0.341975 0.667332
0.529051 0.335269 0.819135
0.529051 0.335269 0.934944
0.529051 0.335269 1.050000
0.555504 0.461498 0.090542
0.555504 0.461498 0.211079
0.555504 0.461498 0.327874
0.555504 0.461498 0.442469
0.529051 0.452449 0.584741
0.529051 0.452449 0.702455
0.529051 0.452449 0.819135
0.529051 0.452449 0.934944
0.529051 0.452449 1.050000
0.555504 0.579395 0.090542
0.555504 0.579395 0.211079
0.529051 0.568034 0.345130
0.529051 0.568034 0.465756
0.529051 0.568034 0.584741
0.529051 0.568034 0.702455
0.529051 0.568034 0.819135
0.486727 0.596436 1.009739
0.486727 0.596436 1.134000
0.529051 0.682385 0.095307
0.529051 0.682385 0.222189
0.529051 0.682385 0.345130
0.529051 0.682385 0.465756
0.529051 0.682385 0.584741
0.486727 0.716504 0.758651
0.486727 0.716504 0.884666
0.486727 0.716504 1.009739
0.486727 0.716504 1.134000
0.529051 0.795731 0.095307
0.529051 0.795731 0.222189
0.529051 0.795731 0.345130
0.486727 0.835518 0.503017
0.486727 0.835518 0.631520
0.486727 0.835518 0.758651
0.486727 0.835518 0.884666
0.486727 0.835518 1.009739
0.486727 0.835518 1.134000
0.529051 0.908231 0.095307
0.486727 0.953642 0.239964
0.486727 0.953642 0.372741
0.486727 0.953642 0.503017
0.486727 0.953642 0.631520
0.486727 0.953642 0.758651
0.486727 0.953642 0.884666
0.486727 0.953642 1.009739
0.486727 0.953642 1.134000
0.486727 1.071000 0.102932
0.486727 1.071000 0.239964
0.486727 1.071000 0.372741
0.486727 1.071000 0.503017
0.486727 1.071000 0.631520
0.486727 1.071000 0.758651
0.486727 1.071000 0.884666
0.486727 1.071000 1.009739
0.486727 1.071000 1.134000
0.667332 0.094436 0.090542
0.667332 0.094436 0.211079
0.667332 0.094436 0.327874
0.667332 0.094436 0.442469
0.667332 0.094436 0.555504
0.667332 0.094436 0.667332
0.667332 0.094436 0.778178
0.667332 0.094436 0.888196
0.667332 0.094436 0.997500
0.667332 0.220157 0.090542
0.667332 0.220157 0.211079
0.667332 0.220157 0.327874
0.667332 0.220157 0.442469
0.667332 0.220157 0.555504
0.667332 0.220157 0.667332
0.667332 0.220157 0.778178
0.635555 0.215841 0.934944
0.635555 0.215841 1.050000
0.667332 0.341975 0.090542
0.667332 0.341975 0.211079
0.667332 0.341975 0.327874
0.667332 0.341975 0.442469
0.667332 0.341975 0.555504
0.635555 0.335269 0.702455
0.635555 0.335269 0.819135
0.635555 0.335269 0.934944
0.635555 0.335269 1.050000
0.667332 0.461498 0.090542
0.667332 0.461498 0.211079
0.667332 0.461498 0.327874
0.635555 0.452449 0.465756
0.635555 0.452449 0.584741
0.635555 0.452449 0.702455
0.635555 0.452449 0.819135
0.635555 0.452449 0.934944
0.635555 0.452449 1.050000
0.667332 0.579395 0.090542
0.635555 0.568034 0.222189
0.635555 0.568034 0.345130
0.635555 0.568034 0.465756
0.635555 0.568034 0.584741
0.635555 0.568034 0.702455
0.635555 0.568034 0.819135
0.584710 0.596436 1.009739
0.584710 0.596436 1.134000
0.635555 0.682385 0.095307
0.635555 0.682385 0.222189
0.635555 0.682385 0.345130
0.635555 0.682385 0.465756
0.635555 0.682385 0.584741
0.584710 0.716504 0.758651
0.584710 0.716504 0.884666
0.584710 0.716504 1.009739
0.584710 0.716504 1.134000
0.635555 0.795731 0.095307
0.635555 0.795731 0.222189
0.635555 0.795731 0.345130
0.584710 0.835518 0.503017
0.584710 0.835518 0.631520
0.584710 0.835518 0.758651
0.584710 0.835518 0.884666
0.584710 0.835518 1.009739
0.584710 0.835518 1.134000
0.635555 0.908231 0.095307
0.584710 0.953642 0.239964
0.584710 0.953642 0.372741
0.584710 0.953642 0.503017
0.584710 0.953642 0.631520
0.584710 0.953642 0.758651
0.584710 0.953642 0.884666
0.584710 0.953642 1.009739
0.584710 0.953642 1.134000
0.584710 1.071000 0.102932
0.584710 1.071000 0.239964
0.584710 1.071000 0.372741
0.584710 1.071000 0.503017
0.584710 1.071000 0.631520
0.584710 1.071000 0.758651
0.584710 1.071000 0.884666
0.584710 1.071000 1.009739
0.584710 1.071000 1.134000
0.778178 0.094436 0.090542
0.778178 0.094436 0.211079
0.778178 0.094436 0.327874
0.778178 0.094436 0.442469
0.778178 0.094436 0.555504
0.778178 0.094436 0.667332
0.778178 0.094436 0.778178
0.778178 0.094436 0.888196
0.778178 0.094436 0.997500
0.778178 0.220157 0.090542
0.778178 0.220157 0.211079
0.778178 0.220157 0.327874
0.778178 0.220157 0.442469
0.778178 0.220157 0.555504
0.778178 0.220157 0.667332
0.778178 0.220157 0.778178
0.741122 0.215841 0.934944
0.741122 0.215841 1.050000
0.778178 0.341975 0.090542
0.778178 0.341975 0.211079
0.778178 0.341975 0.327874
0.778178 0.341975 0.442469
0.778178 0.341975 0.555504
0.741122 0.335269 0.702455
0.741122 0.335269 0.819135
0.741122 0.335269 0.934944
0.741122 0.335269 1.050000
0.778178 0.461498 0.090542
0.778178 0.461498 0.211079
0.778178 0.461498 0.327874
0.741122 0.452449 0.465756
0.741122 0.452449 0.584741
0.741122 0.452449 0.702455
0.741122 0.452449 0.819135
0.741122 0.452449 0.934944
0.681832 0.475071 1.134000
0.778178 0.579395 0.090542
0.741122 0.568034 0.222189
0.741122 0.568034 0.345130
0.741122 0.568034 0.465756
0.741122 0.568034 0.584741
0.741122 0.568034 0.702455
0.681832 0.596436 0.884666
0.681832 0.596436 1.009739
0.681832 0.596436 1.134000
0.741122 0.682385 0.095307
0.741122 0.682385 0.222189
0.741122 0.682385 0.345130
0.741122 0.682385 0.465756
0.681832 0.716504 0.631520
0.681832 0.716504 0.758651
0.681832 0.716504 0.884666
0.681832 0.716504 1.009739
0.681832 0.716504 1.134000
0.741122 0.795731 0.095307
0.741122 0.795731 0.222189
0.681832 0.835518 0.372741
0.681832 0.835518 0.503017
0.681832 0.835518 0.631520
0.681832 0.835518 0.758651
0.681832 0.835518 0.884666
0.681832 0.835518 1.009739
0.681832 0.835518 1.134000
0.741122 0.908231 0.095307
0.681832 0.953642 0.239964
0.681832 0.953642 0.372741
0.681832 0.953642 0.503017
0.681832 0.953642 0.631520
0.681832 0.953642 0.758651
0.681832 0.953642 0.884666
0.681832 0.953642 1.009739
0.681832 0.953642 1.134000
0.681832 1.071000 0.102932
0.681832 1.071000 0.239964
0.681832 1.071000 0.372741
0.681832 1.071000 0.503017
0.681832 1.071000 0.631520
0.681832 1.071000 0.758651
0.681832 1.071000 0.884666
0.681832 1.071000 1.009739
0.681832 1.071000 1.134000
0.888196 0.094436 0.090542
0.888196 0.094436 0.211079
0.888196 0.094436 0.327874
0.888196 0.094436 0.442469
0.888196 0.094436 0.555504
0.888196 0.094436 0.667332
0.888196 0.094436 0.778178
0.888196 0.094436 0.888196
0.888196 0.094436 0.997500
0.888196 0.220157 0.090542
0.888196 0.220157 0.211079
0.888196 0.220157 0.327874
0.888196 0.220157 0.442469
0.888196 0.220157 0.555504
0.888196 0.220157 0.667332
0.888196 0.220157 0.778178
0.845901 0.215841 0.934944
0.845901 0.215841 1.050000
0.888196 0.341975 0.090542
0.888196 0.341975 0.211079
0.888196 0.341975 0.327874
0.888196 0.341975 0.442469
0.888196 0.341975 0.555504
0.845901 0.335269 0.702455
0.845901 0.335269 0.819135
0.845901 0.335269 0.934944
0.845901 0.335269 1.050000
0.888196 0.461498 0.090542
0.888196 0.461498 0.211079
0.888196 0.461498 0.327874
0.845901 0.452449 0.465756
0.845901 0.452449 0.584741
0.845901 0.452449 0.702455
0.845901 0.452449 0.819135
0.845901 0.452449 0.934944
0.778229 0.475071 1.134000
0.888196 0.579395 0.090542
0.845901 0.568034 0.222189
0.845901 0.568034 0.345130
0.845901 0.568034 0.465756
0.845901 0.568034 0.584741
0.845901 0.568034 0.702455
0.778229 0.596436 0.884666
0.778229 0.596436 1.009739
0.778229 0.596436 1.134000
0.845901 0.682385 0.095307
0.845901 0.682385 0.222189
0.845901 0.682385 0.345130
0.845901 0.682385 0.465756
0.778229 0.716504 0.631520
0.778229 0.716504 0.758651
0.778229 0.716504 0.884666
0.778229 0.716504 1.009739
0.778229 0.716504 1.134000
0.845901 0.795731 0.095307
0.845901 0.795731 0.222189
0.778229 0.835518 0.372741
0.778229 0.835518 0.503017
0.778229 0.835518 0.631520
0.778229 0.835518 0.758651
0.778229 0.835518 0.884666
0.778229 0.835518 1.009739
0.778229 0.835518 1.134000
0.778229 0.953642 0.102932
0.778229 0.953642 0.239964
0.778229 0.953642 0.372741
0.778229 0.953642 0.503017
0.778229 0.953642 0.631520
0.778229 0.953642 0.758651
0.778229 0.953642 0.884666
0.778229 0.953642 1.009739
0.778229 0.953642 1.134000
0.778229 1.071000 0.102932
0.778229 1.071000 0.239964
0.778229 1.071000 0.372741
0.778229 1.071000 0.503017
0.778229 1.071000 0.631520
0.778229 1.071000 0.758651
0.778229 1.071000 0.884666
0.778229 1.071000 1.009739
0.778229 1.071000 1.134000
0.997500 0.094436 0.090542
0.997500 0.094436 0.211079
0.997500 0.094436 0.327874
0.997500 0.094436 0.442469
0.997500 0.094436 0.555504
0.997500 0.094436 0.667332
0.997500 0.094436 0.778178
0.997500 0.094436 0.888196
0.950000 0.092584 1.050000
0.997500 0.220157 0.090542
0.997500 0.220157 0.211079
0.997500 0.220157 0.327874
0.997500 0.220157 0.442469
0.997500 0.220157 0.555504
0.997500 0.220157 0.667332
0.950000 0.215841 0.819135
0.950000 0.215841 0.934944
0.950000 0.215841 1.050000
0.997500 0.341975 0.090542
0.997500 0.341975 0.211079
0.997500 0.341975 0.327874
0.997500 0.341975 0.442469
0.950000 0.335269 0.584741
0.950000 0.335269 0.702455
0.950000 0.335269 0.819135
0.950000 0.335269 0.934944
0.950000 0.335269 1.050000
0.997500 0.461498 0.090542
0.997500 0.461498 0.211079
0.950000 0.452449 0.345130
0.950000 0.452449 0.465756
0.950000 0.452449 0.584741
0.950000 0.452449 0.702455
0.950000 0.452449 0.819135
0.950000 0.452449 0.934944
0.874000 0.475071 1.134000
0.950000 0.568034 0.095307
0.950000 0.568034 0.222189
0.950000 0.568034 0.345130
0.950000 0.568034 0.465756
0.950000 0.568034 0.584741
0.950000 0.568034 0.702455
0.874000 0.596436 0.884666
0.874000 0.596436 1.009739
0.874000 0.596436 1.134000
0.950000 0.682385 0.095307
0.950000 0.682385 0.222189
0.950000 0.682385 0.345130
0.950000 0.682385 0.465756
0.874000 0.716504 0.631520
0.874000 0.716504 0.758651
0.874000 0.716504 0.884666
0.874000 0.716504 1.009739
0.874000 0.716504 1.134000
0.950000 0.795731 0.095307
0.950000 0.795731 0.222189
0.874000 0.835518 0.372741
0.874000 0.835518 0.503017
0.874000 0.835518 0.631520
0.874000 0.835518 0.758651
0.874000 0.835518 0.884666
0.874000 0.835518 1.009739
0.874000 0.835518 1.134000
0.874000 0.953642 0.102932
0.874000 0.953642 0.239964
0.874000 0.953642 0.372741
0.874000 0.953642 0.503017
0.874000 0.953642 0.631520
0.874000 0.953642 0.758651
0.874000 0.953642 0.884666
0.874000 0.953642 1.009739
0.874000 0.953642 1.134000
0.874000 1.071000 0.102932
0.874000 1.071000 0.239964
0.874000 1.071000 0.372741
0.874000 1.071000 0.503017
0.874000 1.071000 0.631520
0.874000 1.071000 0.758651
0.874000 1.071000 0.884666
0.874000 1.071000 1.009739
0.874000 1.071000 1.134000
