app/src/main/assets/luts/04_Japanese_Fresh.cube
TITLE "Japanese Fresh Style"
LUT_3D_SIZE 5
0.167809 0.144079 0.116958
0.167809 0.144079 0.318516
0.167809 0.144079 0.498125
0.167809 0.144079 0.666710
0.167809 0.144079 0.828000
0.167809 0.392375 0.116958
0.167809 0.392375 0.318516
0.167809 0.392375 0.498125
0.167809 0.392375 0.666710
0.152554 0.384681 0.920000
0.167809 0.613633 0.116958
0.167809 0.613633 0.318516
0.152554 0.601601 0.553473
0.152554 0.601601 0.740789
0.152554 0.601601 0.920000
0.152554 0.805205 0.129953
0.152554 0.805205 0.353907
0.152554 0.805205 0.553473
0.160182 0.821309 0.703749
0.160182 0.821309 0.874000
0.152554 1.000000 0.129953
0.160182 1.020000 0.336211
0.160182 1.020000 0.525799
0.160182 1.020000 0.703749
0.160182 1.020000 0.874000
0.457001 0.144079 0.116958
0.457001 0.144079 0.318516
0.457001 0.144079 0.498125
0.457001 0.144079 0.666710
0.457001 0.144079 0.828000
0.457001 0.392375 0.116958
0.457001 0.392375 0.318516
0.457001 0.392375 0.498125
0.457001 0.392375 0.666710
0.415456 0.384681 0.920000
0.457001 0.613633 0.116958
0.457001 0.613633 0.318516
0.415456 0.601601 0.553473
0.415456 0.601601 0.740789
0.436228 0.613633 0.874000
0.415456 0.805205 0.129953
0.415456 0.805205 0.353907
0.436228 0.821309 0.525799
0.436228 0.821309 0.703749
0.436228 0.821309 0.874000
0.436228 1.020000 0.123456
0.436228 1.020000 0.336211
0.436228 1.020000 0.525799
0.436228 1.020000 0.703749
0.436228 1.020000 0.874000
0.714702 0.144079 0.116958
0.714702 0.144079 0.318516
0.714702 0.144079 0.498125
0.714702 0.144079 0.666710
0.714702 0.144079 0.828000
0.714702 0.392375 0.116958
0.714702 0.392375 0.318516
0.714702 0.392375 0.498125
0.649729 0.384681 0.740789
0.649729 0.384681 0.920000
0.714702 0.613633 0.116958
0.649729 0.601601 0.353907
0.649729 0.601601 0.553473
0.649729 0.601601 0.740789
0.682215 0.613633 0.874000
0.649729 0.805205 0.129953
0.649729 0.805205 0.353907
0.682215 0.821309 0.525799
0.682215 0.821309 0.703749
0.682215 0.821309 0.874000
0.682215 1.020000 0.123456
0.682215 1.020000 0.336211
0.682215 1.020000 0.525799
0.682215 1.020000 0.703749
0.682215 1.020000 0.874000
0.956584 0.144079 0.116958
0.956584 0.144079 0.318516
0.956584 0.144079 0.498125
0.956584 0.144079 0.666710
0.956584 0.144079 0.828000
0.956584 0.392375 0.116958
0.956584 0.392375 0.318516
0.956584 0.392375 0.498125
0.869621 0.384681 0.740789
0.869621 0.384681 0.920000
0.956584 0.613633 0.116958
0.869621 0.601601 0.353907
0.869621 0.601601 0.553473
0.913102 0.613633 0.703749
0.913102 0.613633 0.874000
0.869621 0.805205 0.129953
0.913102 0.821309 0.336211
0.913102 0.821309 0.525799
0.913102 0.821309 0.703749
0.913102 0.821309 0.874000
0.913102 1.020000 0.123456
0.913102 1.020000 0.336211
0.913102 1.020000 0.525799
0.913102 1.020000 0.703749
0.913102 1.020000 0.874000
1.188000 0.144079 0.116958
1.188000 0.144079 0.318516
1.188000 0.144079 0.498125
1.188000 0.144079 0.666710
1.080000 0.141254 0.920000
1.188000 0.392375 0.116958
1.188000 0.392375 0.318516
1.080000 0.384681 0.553473
1.080000 0.384681 0.740789
1.080000 0.384681 0.920000
1.080000 0.601601 0.129953
1.080000 0.601601 0.353907
1.080000 0.601601 0.553473
1.134000 0.613633 0.703749
1.134000 0.613633 0.874000
1.080000 0.805205 0.129953
1.134000 0.821309 0.336211
1.134000 0.821309 0.525799
1.134000 0.821309 0.703749
1.134000 0.821309 0.874000
1.134000 1.020000 0.123456
1.134000 1.020000 0.336211
1.134000 1.020000 0.525799
1.134000 1.020000 0.703749
1.134000 1.020000 0.874000
