app/src/main/assets/luts/04_Japanese_Fresh.cube
TITLE "Japanese Fresh Style"
LUT_3D_SIZE 33
0.167809 0.144079 0.116958
0.167809 0.144079 0.144384
0.167809 0.144079 0.170914
0.167809 0.144079 0.196733
0.167809 0.144079 0.221965
0.167809 0.144079 0.246700
0.167809 0.144079 0.271005
0.167809 0.144079 0.294929
0.167809 0.144079 0.318516
0.167809 0.144079 0.341798
0.167809 0.144079 0.364803
0.167809 0.144079 0.387555
0.167809 0.144079 0.410073
0.167809 0.144079 0.432376
0.167809 0.144079 0.454476
0.167809 0.144079 0.476389
0.167809 0.144079 0.498125
0.167809 0.144079 0.519695
0.167809 0.144079 0.541108
0.167809 0.144079 0.562373
0.167809 0.144079 0.583497
0.167809 0.144079 0.604486
0.167809 0.144079 0.625348
0.167809 0.144079 0.646087
0.167809 0.144079 0.666710
0.167809 0.144079 0.687220
0.167809 0.144079 0.707623
0.167809 0.144079 0.727923
0.167809 0.144079 0.748124
0.167809 0.144079 0.768228
0.167809 0.144079 0.788241
0.167809 0.144079 0.808163
0.167809 0.144079 0.828000
0.167809 0.177864 0.116958
0.167809 0.177864 0.144384
0.167809 0.177864 0.170914
0.167809 0.177864 0.196733
0.167809 0.177864 0.221965
0.167809 0.177864 0.246700
0.167809 0.177864 0.271005
0.167809 0.177864 0.294929
0.167809 0.177864 0.318516
0.167809 0.177864 0.341798
0.167809 0.177864 0.364803
0.167809 0.177864 0.387555
0.167809 0.177864 0.410073
0.167809 0.177864 0.432376
0.167809 0.177864 0.454476
0.167809 0.177864 0.476389
0.167809 0.177864 0.498125
0.167809 0.177864 0.519695
0.167809 0.177864 0.541108
0.167809 0.177864 0.562373
0.167809 0.177864 0.583497
0.167809 0.177864 0.604486
0.167809 0.177864 0.625348
0.167809 0.177864 0.646087
0.167809 0.177864 0.666710
0.167809 0.177864 0.687220
0.167809 0.177864 0.707623
0.167809 0.177864 0.727923
0.167809 0.177864 0.748124
0.167809 0.177864 0.768228
0.167809 0.177864 0.788241
0.167809 0.177864 0.808163
0.167809 0.177864 0.828000
0.167809 0.210546 0.116958
0.167809 0.210546 0.144384
0.167809 0.210546 0.170914
0.167809 0.210546 0.196733
0.167809 0.210546 0.221965
0.167809 0.210546 0.246700
0.167809 0.210546 0.271005
0.167809 0.210546 0.294929
0.167809 0.210546 0.318516
0.167809 0.210546 0.341798
0.167809 0.210546 0.364803
0.167809 0.210546 0.387555
0.167809 0.210546 0.410073
0.167809 0.210546 0.432376
0.167809 0.210546 0.454476
0.167809 0.210546 0.476389
0.167809 0.210546 0.498125
0.167809 0.210546 0.519695
0.167809 0.210546 0.541108
0.167809 0.210546 0.562373
0.167809 0.210546 0.583497
0.167809 0.210546 0.604486
0.167809 0.210546 0.625348
0.167809 0.210546 0.646087
0.167809 0.210546 0.666710
0.167809 0.210546 0.687220
0.167809 0.210546 0.707623
0.167809 0.210546 0.727923
0.167809 0.210546 0.748124
0.167809 0.210546 0.768228
0.167809 0.210546 0.788241
0.167809 0.210546 0.808163
0.167809 0.210546 0.828000
0.167809 0.242352 0.116958
0.167809 0.242352 0.144384
0.167809 0.242352 0.170914
0.167809 0.242352 0.196733
0.167809 0.242352 0.221965
0.167809 0.242352 0.246700
0.167809 0.242352 0.271005
0.167809 0.242352 0.294929
0.167809 0.242352 0.318516
0.167809 0.242352 0.341798
0.167809 0.242352 0.364803
0.167809 0.242352 0.387555
0.167809 0.242352 0.410073
0.167809 0.242352 0.432376
0.167809 0.242352 0.454476
0.167809 0.242352 0.476389
0.167809 0.242352 0.498125
0.167809 0.242352 0.519695
0.167809 0.242352 0.541108
0.167809 0.242352 0.562373
0.167809 0.242352 0.583497
0.167809 0.242352 0.604486
0.167809 0.242352 0.625348
0.167809 0.242352 0.646087
0.167809 0.242352 0.666710
0.167809 0.242352 0.687220
0.167809 0.242352 0.707623
0.167809 0.242352 0.727923
0.167809 0.242352 0.748124
0.167809 0.242352 0.768228
0.167809 0.242352 0.788241
0.167809 0.242352 0.808163
0.167809 0.242352 0.828000
0.167809 0.273436 0.116958
0.167809 0.273436 0.144384
0.167809 0.273436 0.170914
0.167809 0.273436 0.196733
0.167809 0.273436 0.221965
0.167809 0.273436 0.246700
0.167809 0.273436 0.271005
0.167809 0.273436 0.294929
0.167809 0.273436 0.318516
0.167809 0.273436 0.341798
0.167809 0.273436 0.364803
0.167809 0.273436 0.387555
0.167809 0.273436 0.410073
0.167809 0.273436 0.432376
0.167809 0.273436 0.454476
0.167809 0.273436 0.476389
0.167809 0.273436 0.498125
0.167809 0.273436 0.519695
0.167809 0.273436 0.541108
0.167809 0.273436 0.562373
0.167809 0.273436 0.583497
0.167809 0.273436 0.604486
0.167809 0.273436 0.625348
0.167809 0.273436 0.646087
0.167809 0.273436 0.666710
0.167809 0.273436 0.687220
0.167809 0.273436 0.707623
0.167809 0.273436 0.727923
0.167809 0.273436 0.748124
0.167809 0.273436 0.768228
0.167809 0.273436 0.788241
0.167809 0.273436 0.808163
0.167809 0.273436 0.828000
0.167809 0.303906 0.116958
0.167809 0.303906 0.144384
0.167809 0.303906 0.170914
0.167809 0.303906 0.196733
0.167809 0.303906 0.221965
0.167809 0.303906 0.246700
0.167809 0.303906 0.271005
0.167809 0.303906 0.294929
0.167809 0.303906 0.318516
0.167809 0.303906 0.341798
0.167809 0.303906 0.364803
0.167809 0.303906 0.387555
0.167809 0.303906 0.410073
0.167809 0.303906 0.432376
0.167809 0.303906 0.454476
0.167809 0.303906 0.476389
0.167809 0.303906 0.498125
0.167809 0.303906 0.519695
0.167809 0.303906 0.541108
0.167809 0.303906 0.562373
0.167809 0.303906 0.583497
0.167809 0.303906 0.604486
0.167809 0.303906 0.625348
0.167809 0.303906 0.646087
0.167809 0.303906 0.666710
0.167809 0.303906 0.687220
0.167809 0.303906 0.707623
0.167809 0.303906 0.727923
0.167809 0.303906 0.748124
0.167809 0.303906 0.768228
0.167809 0.303906 0.788241
0.167809 0.303906 0.808163
0.167809 0.303906 0.828000
0.167809 0.333846 0.116958
0.167809 0.333846 0.144384
0.167809 0.333846 0.170914
0.167809 0.333846 0.196733
0.167809 0.333846 0.221965
0.167809 0.333846 0.246700
0.167809 0.333846 0.271005
0.167809 0.333846 0.294929
0.167809 0.333846 0.318516
0.167809 0.333846 0.341798
0.167809 0.333846 0.364803
0.167809 0.333846 0.387555
0.167809 0.333846 0.410073
0.167809 0.333846 0.432376
0.167809 0.333846 0.454476
0.167809 0.333846 0.476389
0.167809 0.333846 0.498125
0.167809 0.333846 0.519695
0.167809 0.333846 0.541108
0.167809 0.333846 0.562373
0.167809 0.333846 0.583497
0.167809 0.333846 0.604486
0.167809 0.333846 0.625348
0.167809 0.333846 0.646087
0.167809 0.333846 0.666710
0.167809 0.333846 0.687220
0.167809 0.333846 0.707623
0.167809 0.333846 0.727923
0.167809 0.333846 0.748124
0.167809 0.333846 0.768228
0.167809 0.333846 0.788241
0.167809 0.333846 0.808163
0.152554 0.327300 0.920000
0.167809 0.363319 0.116958
0.167809 0.363319 0.144384
0.167809 0.363319 0.170914
0.167809 0.363319 0.196733
0.167809 0.363319 0.221965
0.167809 0.363319 0.246700
0.167809 0.363319 0.271005
0.167809 0.363319 0.294929
0.167809 0.363319 0.318516
0.167809 0.363319 0.341798
0.167809 0.363319 0.364803
0.167809 0.363319 0.387555
0.167809 0.363319 0.410073
0.167809 0.363319 0.432376
0.167809 0.363319 0.454476
0.167809 0.363319 0.476389
0.167809 0.363319 0.498125
0.167809 0.363319 0.519695
0.167809 0.363319 0.541108
0.167809 0.363319 0.562373
0.167809 0.363319 0.583497
0.167809 0.363319 0.604486
0.167809 0.363319 0.625348
0.167809 0.363319 0.646087
0.167809 0.363319 0.666710
0.167809 0.363319 0.687220
0.167809 0.363319 0.707623
0.167809 0.363319 0.727923
0.167809 0.363319 0.748124
0.167809 0.363319 0.768228
0.152554 0.356195 0.875823
0.152554 0.356195 0.897959
0.152554 0.356195 0.920000
0.167809 0.392375 0.116958
0.167809 0.392375 0.144384
0.167809 0.392375 0.170914
0.167809 0.392375 0.196733
0.167809 0.392375 0.221965
0.167809 0.392375 0.246700
0.167809 0.392375 0.271005
0.167809 0.392375 0.294929
0.167809 0.392375 0.318516
0.167809 0.392375 0.341798
0.167809 0.392375 0.364803
0.167809 0.392375 0.387555
0.167809 0.392375 0.410073
0.167809 0.392375 0.432376
0.167809 0.392375 0.454476
0.167809 0.392375 0.476389
0.167809 0.392375 0.498125
0.167809 0.392375 0.519695
0.167809 0.392375 0.541108
0.167809 0.392375 0.562373
0.167809 0.392375 0.583497
0.167809 0.392375 0.604486
0.167809 0.392375 0.625348
0.167809 0.392375 0.646087
0.167809 0.392375 0.666710
0.167809 0.392375 0.687220
0.167809 0.392375 0.707623
0.167809 0.392375 0.727923
0.152554 0.384681 0.831249
0.152554 0.384681 0.853587
0.152554 0.384681 0.875823
0.152554 0.384681 0.897959
0.152554 0.384681 0.920000
0.167809 0.421056 0.116958
0.167809 0.421056 0.144384
0.167809 0.421056 0.170914
0.167809 0.421056 0.196733
0.167809 0.421056 0.221965
0.167809 0.421056 0.246700
0.167809 0.421056 0.271005
0.167809 0.421056 0.294929
0.167809 0.421056 0.318516
0.167809 0.421056 0.341798
0.167809 0.421056 0.364803
0.167809 0.421056 0.387555
0.167809 0.421056 0.410073
0.167809 0.421056 0.432376
0.167809 0.421056 0.454476
0.167809 0.421056 0.476389
0.167809 0.421056 0.498125
0.167809 0.421056 0.519695
0.167809 0.421056 0.541108
0.167809 0.421056 0.562373
0.167809 0.421056 0.583497
0.167809 0.421056 0.604486
0.167809 0.421056 0.625348
0.167809 0.421056 0.646087
0.167809 0.421056 0.666710
0.167809 0.421056 0.687220
0.152554 0.412800 0.786248
0.152554 0.412800 0.808804
0.152554 0.412800 0.831249
0.152554 0.412800 0.853587
0.152554 0.412800 0.875823
0.152554 0.412800 0.897959
0.152554 0.412800 0.920000
0.167809 0.449395 0.116958
0.167809 0.449395 0.144384
0.167809 0.449395 0.170914
0.167809 0.449395 0.196733
0.167809 0.449395 0.221965
0.167809 0.449395 0.246700
0.167809 0.449395 0.271005
0.167809 0.449395 0.294929
0.167809 0.449395 0.318516
0.167809 0.449395 0.341798
0.167809 0.449395 0.364803
0.167809 0.449395 0.387555
0.167809 0.449395 0.410073
0.167809 0.449395 0.432376
0.167809 0.449395 0.454476
0.167809 0.449395 0.476389
0.167809 0.449395 0.498125
0.167809 0.449395 0.519695
0.167809 0.449395 0.541108
0.167809 0.449395 0.562373
0.167809 0.449395 0.583497
0.167809 0.449395 0.604486
0.167809 0.449395 0.625348
0.167809 0.449395 0.646087
0.152554 0.440584 0.740789
0.152554 0.440584 0.763578
0.152554 0.440584 0.786248
0.152554 0.440584 0.808804
0.152554 0.440584 0.831249
0.152554 0.440584 0.853587
0.152554 0.440584 0.875823
0.152554 0.440584 0.897959
0.152554 0.440584 0.920000
0.167809 0.477423 0.116958
0.167809 0.477423 0.144384
0.167809 0.477423 0.170914
0.167809 0.477423 0.196733
0.167809 0.477423 0.221965
0.167809 0.477423 0.246700
0.167809 0.477423 0.271005
0.167809 0.477423 0.294929
0.167809 0.477423 0.318516
0.167809 0.477423 0.341798
0.167809 0.477423 0.364803
0.167809 0.477423 0.387555
0.167809 0.477423 0.410073
0.167809 0.477423 0.432376
0.167809 0.477423 0.454476
0.167809 0.477423 0.476389
0.167809 0.477423 0.498125
0.167809 0.477423 0.519695
0.167809 0.477423 0.541108
0.167809 0.477423 0.562373
0.167809 0.477423 0.583497
0.167809 0.477423 0.604486
0.152554 0.468062 0.694831
0.152554 0.468062 0.717875
0.152554 0.468062 0.740789
0.152554 0.468062 0.763578
0.152554 0.468062 0.786248
0.152554 0.468062 0.808804
0.152554 0.468062 0.831249
0.152554 0.468062 0.853587
0.152554 0.468062 0.875823
0.152554 0.468062 0.897959
0.152554 0.468062 0.920000
0.167809 0.505163 0.116958
0.167809 0.505163 0.144384
0.167809 0.505163 0.170914
0.167809 0.505163 0.196733
0.167809 0.505163 0.221965
0.167809 0.505163 0.246700
0.167809 0.505163 0.271005
0.167809 0.505163 0.294929
0.167809 0.505163 0.318516
0.167809 0.505163 0.341798
0.167809 0.505163 0.364803
0.167809 0.505163 0.387555
0.167809 0.505163 0.410073
0.167809 0.505163 0.432376
0.167809 0.505163 0.454476
0.167809 0.505163 0.476389
0.167809 0.505163 0.498125
0.167809 0.505163 0.519695
0.167809 0.505163 0.541108
0.167809 0.505163 0.562373
0.152554 0.495258 0.648330
0.152554 0.495258 0.671651
0.152554 0.495258 0.694831
0.152554 0.495258 0.717875
0.152554 0.495258 0.740789
0.152554 0.495258 0.763578
0.152554 0.495258 0.786248
0.152554 0.495258 0.808804
0.152554 0.495258 0.831249
0.152554 0.495258 0.853587
0.152554 0.495258 0.875823
0.152554 0.495258 0.897959
0.152554 0.495258 0.920000
0.167809 0.532637 0.116958
0.167809 0.532637 0.144384
0.167809 0.532637 0.170914
0.167809 0.532637 0.196733
0.167809 0.532637 0.221965
0.167809 0.532637 0.246700
0.167809 0.532637 0.271005
0.167809 0.532637 0.294929
0.167809 0.532637 0.318516
0.167809 0.532637 0.341798
0.167809 0.532637 0.364803
0.167809 0.532637 0.387555
0.167809 0.532637 0.410073
0.167809 0.532637 0.432376
0.167809 0.532637 0.454476
0.167809 0.532637 0.476389
0.167809 0.532637 0.498125
0.167809 0.532637 0.519695
0.152554 0.522193 0.601232
0.152554 0.522193 0.624859
0.152554 0.522193 0.648330
0.152554 0.522193 0.671651
0.152554 0.522193 0.694831
0.152554 0.522193 0.717875
0.152554 0.522193 0.740789
0.152554 0.522193 0.763578
0.152554 0.522193 0.786248
0.152554 0.522193 0.808804
0.152554 0.522193 0.831249
0.152554 0.522193 0.853587
0.152554 0.522193 0.875823
0.152554 0.522193 0.897959
0.152554 0.522193 0.920000
0.167809 0.559862 0.116958
0.167809 0.559862 0.144384
0.167809 0.559862 0.170914
0.167809 0.559862 0.196733
0.167809 0.559862 0.221965
0.167809 0.559862 0.246700
0.167809 0.559862 0.271005
0.167809 0.559862 0.294929
0.167809 0.559862 0.318516
0.167809 0.559862 0.341798
0.167809 0.559862 0.364803
0.167809 0.559862 0.387555
0.167809 0.559862 0.410073
0.167809 0.559862 0.432376
0.167809 0.559862 0.454476
0.167809 0.559862 0.476389
0.152554 0.548885 0.553473
0.152554 0.548885 0.577439
0.152554 0.548885 0.601232
0.152554 0.548885 0.624859
0.152554 0.548885 0.648330
0.152554 0.548885 0.671651
0.152554 0.548885 0.694831
0.152554 0.548885 0.717875
0.152554 0.548885 0.740789
0.152554 0.548885 0.763578
0.152554 0.548885 0.786248
0.152554 0.548885 0.808804
0.152554 0.548885 0.831249
0.152554 0.548885 0.853587
0.152554 0.548885 0.875823
0.152554 0.548885 0.897959
0.152554 0.548885 0.920000
0.167809 0.586856 0.116958
0.167809 0.586856 0.144384
0.167809 0.586856 0.170914
0.167809 0.586856 0.196733
0.167809 0.586856 0.221965
0.167809 0.586856 0.246700
0.167809 0.586856 0.271005
0.167809 0.586856 0.294929
0.167809 0.586856 0.318516
0.167809 0.586856 0.341798
0.167809 0.586856 0.364803
0.167809 0.586856 0.387555
0.167809 0.586856 0.410073
0.167809 0.586856 0.432376
0.152554 0.575349 0.504974
0.152554 0.575349 0.529321
0.152554 0.575349 0.553473
0.152554 0.575349 0.577439
0.152554 0.575349 0.601232
0.152554 0.575349 0.624859
0.152554 0.575349 0.648330
0.152554 0.575349 0.671651
0.152554 0.575349 0.694831
0.152554 0.575349 0.717875
0.152554 0.575349 0.740789
0.152554 0.575349 0.763578
0.152554 0.575349 0.786248
0.152554 0.575349 0.808804
0.152554 0.575349 0.831249
0.152554 0.575349 0.853587
0.152554 0.575349 0.875823
0.152554 0.575349 0.897959
0.152554 0.575349 0.920000
0.167809 0.613633 0.116958
0.167809 0.613633 0.144384
0.167809 0.613633 0.170914
0.167809 0.613633 0.196733
0.167809 0.613633 0.221965
0.167809 0.613633 0.246700
0.167809 0.613633 0.271005
0.167809 0.613633 0.294929
0.167809 0.613633 0.318516
0.167809 0.613633 0.341798
0.167809 0.613633 0.364803
0.167809 0.613633 0.387555
0.152554 0.601601 0.455637
0.152554 0.601601 0.480417
0.152554 0.601601 0.504974
0.152554 0.601601 0.529321
0.152554 0.601601 0.553473
0.152554 0.601601 0.577439
0.152554 0.601601 0.601232
0.152554 0.601601 0.624859
0.152554 0.601601 0.648330
0.152554 0.601601 0.671651
0.152554 0.601601 0.694831
0.152554 0.601601 0.717875
0.152554 0.601601 0.740789
0.152554 0.601601 0.763578
0.152554 0.601601 0.786248
0.152554 0.601601 0.808804
0.152554 0.601601 0.831249
0.152554 0.601601 0.853587
0.152554 0.601601 0.875823
0.152554 0.601601 0.897959
0.152554 0.601601 0.920000
0.167809 0.640204 0.116958
0.167809 0.640204 0.144384
0.167809 0.640204 0.170914
0.167809 0.640204 0.196733
0.167809 0.640204 0.221965
0.167809 0.640204 0.246700
0.167809 0.640204 0.271005
0.167809 0.640204 0.294929
0.167809 0.640204 0.318516
0.167809 0.640204 0.341798
0.152554 0.627651 0.405337
0.152554 0.627651 0.430617
0.152554 0.627651 0.455637
0.152554 0.627651 0.480417
0.152554 0.627651 0.504974
0.152554 0.627651 0.529321
0.152554 0.627651 0.553473
0.152554 0.627651 0.577439
0.152554 0.627651 0.601232
0.152554 0.627651 0.624859
0.152554 0.627651 0.648330
0.152554 0.627651 0.671651
0.152554 0.627651 0.694831
0.152554 0.627651 0.717875
0.152554 0.627651 0.740789
0.152554 0.627651 0.763578
0.152554 0.627651 0.786248
0.152554 0.627651 0.808804
0.152554 0.627651 0.831249
0.152554 0.627651 0.853587
0.152554 0.627651 0.875823
0.160182 0.640204 0.853061
0.160182 0.640204 0.874000
0.167809 0.666583 0.116958
0.167809 0.666583 0.144384
0.167809 0.666583 0.170914
0.167809 0.666583 0.196733
0.167809 0.666583 0.221965
0.167809 0.666583 0.246700
0.167809 0.666583 0.271005
0.167809 0.666583 0.294929
0.152554 0.653513 0.353907
0.152554 0.653513 0.379776
0.152554 0.653513 0.405337
0.152554 0.653513 0.430617
0.152554 0.653513 0.455637
0.152554 0.653513 0.480417
0.152554 0.653513 0.504974
0.152554 0.653513 0.529321
0.152554 0.653513 0.553473
0.152554 0.653513 0.577439
0.152554 0.653513 0.601232
0.152554 0.653513 0.624859
0.152554 0.653513 0.648330
0.152554 0.653513 0.671651
0.152554 0.653513 0.694831
0.152554 0.653513 0.717875
0.152554 0.653513 0.740789
0.152554 0.653513 0.763578
0.152554 0.653513 0.786248
0.152554 0.653513 0.808804
0.152554 0.653513 0.831249
0.160182 0.666583 0.810908
0.160182 0.666583 0.832032
0.160182 0.666583 0.853061
0.160182 0.666583 0.874000
0.167809 0.692778 0.116958
0.167809 0.692778 0.144384
0.167809 0.692778 0.170914
0.167809 0.692778 0.196733
0.167809 0.692778 0.221965
0.167809 0.692778 0.246700
0.152554 0.679194 0.301116
0.152554 0.679194 0.327699
0.152554 0.679194 0.353907
0.152554 0.679194 0.379776
0.152554 0.679194 0.405337
0.152554 0.679194 0.430617
0.152554 0.679194 0.455637
0.152554 0.679194 0.480417
0.152554 0.679194 0.504974
0.152554 0.679194 0.529321
0.152554 0.679194 0.553473
0.152554 0.679194 0.577439
0.152554 0.679194 0.601232
0.152554 0.679194 0.624859
0.152554 0.679194 0.648330
0.152554 0.679194 0.671651
0.152554 0.679194 0.694831
0.152554 0.679194 0.717875
0.152554 0.679194 0.740789
0.152554 0.679194 0.763578
0.152554 0.679194 0.786248
0.160182 0.692778 0.768364
0.160182 0.692778 0.789686
0.160182 0.692778 0.810908
0.160182 0.692778 0.832032
0.160182 0.692778 0.853061
0.160182 0.692778 0.874000
0.167809 0.718800 0.116958
0.167809 0.718800 0.144384
0.167809 0.718800 0.170914
0.167809 0.718800 0.196733
0.152554 0.704706 0.246628
0.152554 0.704706 0.274112
0.152554 0.704706 0.301116
0.152554 0.704706 0.327699
0.152554 0.704706 0.353907
0.152554 0.704706 0.379776
0.152554 0.704706 0.405337
0.152554 0.704706 0.430617
0.152554 0.704706 0.455637
0.152554 0.704706 0.480417
0.152554 0.704706 0.504974
0.152554 0.704706 0.529321
0.152554 0.704706 0.553473
0.152554 0.704706 0.577439
0.152554 0.704706 0.601232
0.152554 0.704706 0.624859
0.152554 0.704706 0.648330
0.152554 0.704706 0.671651
0.152554 0.704706 0.694831
0.152554 0.704706 0.717875
0.152554 0.704706 0.740789
0.160182 0.718800 0.725399
0.160182 0.718800 0.746936
0.160182 0.718800 0.768364
0.160182 0.718800 0.789686
0.160182 0.718800 0.810908
0.160182 0.718800 0.832032
0.160182 0.718800 0.853061
0.160182 0.718800 0.874000
0.167809 0.744657 0.116958
0.167809 0.744657 0.144384
0.152554 0.730056 0.189904
0.152554 0.730056 0.218592
0.152554 0.730056 0.246628
0.152554 0.730056 0.274112
0.152554 0.730056 0.301116
0.152554 0.730056 0.327699
0.152554 0.730056 0.353907
0.152554 0.730056 0.379776
0.152554 0.730056 0.405337
0.152554 0.730056 0.430617
0.152554 0.730056 0.455637
0.152554 0.730056 0.480417
0.152554 0.730056 0.504974
0.152554 0.730056 0.529321
0.152554 0.730056 0.553473
0.152554 0.730056 0.577439
0.152554 0.730056 0.601232
0.152554 0.730056 0.624859
0.152554 0.730056 0.648330
0.152554 0.730056 0.671651
0.152554 0.730056 0.694831
0.160182 0.744657 0.681981
0.160182 0.744657 0.703749
0.160182 0.744657 0.725399
0.160182 0.744657 0.746936
0.160182 0.744657 0.768364
0.160182 0.744657 0.789686
0.160182 0.744657 0.810908
0.160182 0.744657 0.832032
0.160182 0.744657 0.853061
0.160182 0.744657 0.874000
0.152554 0.755251 0.129953
0.152554 0.755251 0.160427
0.152554 0.755251 0.189904
0.152554 0.755251 0.218592
0.152554 0.755251 0.246628
0.152554 0.755251 0.274112
0.152554 0.755251 0.301116
0.152554 0.755251 0.327699
0.152554 0.755251 0.353907
0.152554 0.755251 0.379776
0.152554 0.755251 0.405337
0.152554 0.755251 0.430617
0.152554 0.755251 0.455637
0.152554 0.755251 0.480417
0.152554 0.755251 0.504974
0.152554 0.755251 0.529321
0.152554 0.755251 0.553473
0.152554 0.755251 0.577439
0.152554 0.755251 0.601232
0.152554 0.755251 0.624859
0.152554 0.755251 0.648330
0.152554 0.755251 0.671651
0.160182 0.770356 0.660089
0.160182 0.770356 0.681981
0.160182 0.770356 0.703749
0.160182 0.770356 0.725399
0.160182 0.770356 0.746936
0.160182 0.770356 0.768364
0.160182 0.770356 0.789686
0.160182 0.770356 0.810908
0.160182 0.770356 0.832032
0.160182 0.770356 0.853061
0.160182 0.770356 0.874000
0.152554 0.780298 0.129953
0.152554 0.780298 0.160427
0.152554 0.780298 0.189904
0.152554 0.780298 0.218592
0.152554 0.780298 0.246628
0.152554 0.780298 0.274112
0.152554 0.780298 0.301116
0.152554 0.780298 0.327699
0.152554 0.780298 0.353907
0.152554 0.780298 0.379776
0.152554 0.780298 0.405337
0.152554 0.780298 0.430617
0.152554 0.780298 0.455637
0.152554 0.780298 0.480417
0.152554 0.780298 0.504974
0.152554 0.780298 0.529321
0.152554 0.780298 0.553473
0.152554 0.780298 0.577439
0.152554 0.780298 0.601232
0.152554 0.780298 0.624859
0.160182 0.795904 0.615913
0.160182 0.795904 0.638069
0.160182 0.795904 0.660089
0.160182 0.795904 0.681981
0.160182 0.795904 0.703749
0.160182 0.795904 0.725399
0.160182 0.795904 0.746936
0.160182 0.795904 0.768364
0.160182 0.795904 0.789686
0.160182 0.795904 0.810908
0.160182 0.795904 0.832032
0.160182 0.795904 0.853061
0.160182 0.795904 0.874000
0.152554 0.805205 0.129953
0.152554 0.805205 0.160427
0.152554 0.805205 0.189904
0.152554 0.805205 0.218592
0.152554 0.805205 0.246628
0.152554 0.805205 0.274112
0.152554 0.805205 0.301116
0.152554 0.805205 0.327699
0.152554 0.805205 0.353907
0.152554 0.805205 0.379776
0.152554 0.805205 0.405337
0.152554 0.805205 0.430617
0.152554 0.805205 0.455637
0.152554 0.805205 0.480417
0.152554 0.805205 0.504974
0.152554 0.805205 0.529321
0.152554 0.805205 0.553473
0.152554 0.805205 0.577439
0.160182 0.821309 0.571170
0.160182 0.821309 0.593616
0.160182 0.821309 0.615913
0.160182 0.821309 0.638069
0.160182 0.821309 0.660089
0.160182 0.821309 0.681981
0.160182 0.821309 0.703749
0.160182 0.821309 0.725399
0.160182 0.821309 0.746936
0.160182 0.821309 0.768364
0.160182 0.821309 0.789686
0.160182 0.821309 0.810908
0.160182 0.821309 0.832032
0.160182 0.821309 0.853061
0.160182 0.821309 0.874000
0.152554 0.829976 0.129953
0.152554 0.829976 0.160427
0.152554 0.829976 0.189904
0.152554 0.829976 0.218592
0.152554 0.829976 0.246628
0.152554 0.829976 0.274112
0.152554 0.829976 0.301116
0.152554 0.829976 0.327699
0.152554 0.829976 0.353907
0.152554 0.829976 0.379776
0.152554 0.829976 0.405337
0.152554 0.829976 0.430617
0.152554 0.829976 0.455637
0.152554 0.829976 0.480417
0.152554 0.829976 0.504974
0.152554 0.829976 0.529321
0.160182 0.846576 0.525799
0.160182 0.846576 0.548567
0.160182 0.846576 0.571170
0.160182 0.846576 0.593616
0.160182 0.846576 0.615913
0.160182 0.846576 0.638069
0.160182 0.846576 0.660089
0.160182 0.846576 0.681981
0.160182 0.846576 0.703749
0.160182 0.846576 0.725399
0.160182 0.846576 0.746936
0.160182 0.846576 0.768364
0.160182 0.846576 0.789686
0.160182 0.846576 0.810908
0.160182 0.846576 0.832032
0.160182 0.846576 0.853061
0.160182 0.846576 0.874000
0.152554 0.854618 0.129953
0.152554 0.854618 0.160427
0.152554 0.854618 0.189904
0.152554 0.854618 0.218592
0.152554 0.854618 0.246628
0.152554 0.854618 0.274112
0.152554 0.854618 0.301116
0.152554 0.854618 0.327699
0.152554 0.854618 0.353907
0.152554 0.854618 0.379776
0.152554 0.854618 0.405337
0.152554 0.854618 0.430617
0.152554 0.854618 0.455637
0.152554 0.854618 0.480417
0.160182 0.871710 0.479725
0.160182 0.871710 0.502855
0.160182 0.871710 0.525799
0.160182 0.871710 0.548567
0.160182 0.871710 0.571170
0.160182 0.871710 0.593616
0.160182 0.871710 0.615913
0.160182 0.871710 0.638069
0.160182 0.871710 0.660089
0.160182 0.871710 0.681981
0.160182 0.871710 0.703749
0.160182 0.871710 0.725399
0.160182 0.871710 0.746936
0.160182 0.871710 0.768364
0.160182 0.871710 0.789686
