app/src/main/assets/luts/04_Japanese_Fresh.cube
TITLE "Japanese Fresh Style"
LUT_3D_SIZE 9
0.167809 0.144079 0.116958
0.167809 0.144079 0.221965
0.167809 0.144079 0.318516
0.167809 0.144079 0.410073
0.167809 0.144079 0.498125
0.167809 0.144079 0.583497
0.167809 0.144079 0.666710
0.167809 0.144079 0.748124
0.167809 0.144079 0.828000
0.167809 0.273436 0.116958
0.167809 0.273436 0.221965
0.167809 0.273436 0.318516
0.167809 0.273436 0.410073
0.167809 0.273436 0.498125
0.167809 0.273436 0.583497
0.167809 0.273436 0.666710
0.167809 0.273436 0.748124
0.167809 0.273436 0.828000
0.167809 0.392375 0.116958
0.167809 0.392375 0.221965
0.167809 0.392375 0.318516
0.167809 0.392375 0.410073
0.167809 0.392375 0.498125
0.167809 0.392375 0.583497
0.167809 0.392375 0.666710
0.152554 0.384681 0.831249
0.152554 0.384681 0.920000
0.167809 0.505163 0.116958
0.167809 0.505163 0.221965
0.167809 0.505163 0.318516
0.167809 0.505163 0.410073
0.167809 0.505163 0.498125
0.152554 0.495258 0.648330
0.152554 0.495258 0.740789
0.152554 0.495258 0.831249
0.152554 0.495258 0.920000
0.167809 0.613633 0.116958
0.167809 0.613633 0.221965
0.167809 0.613633 0.318516
0.152554 0.601601 0.455637
0.152554 0.601601 0.553473
0.152554 0.601601 0.648330
0.152554 0.601601 0.740789
0.152554 0.601601 0.831249
0.152554 0.601601 0.920000
0.167809 0.718800 0.116958
0.152554 0.704706 0.246628
0.152554 0.704706 0.353907
0.152554 0.704706 0.455637
0.152554 0.704706 0.553473
0.152554 0.704706 0.648330
0.152554 0.704706 0.740789
0.160182 0.718800 0.789686
0.160182 0.718800 0.874000
0.152554 0.805205 0.129953
0.152554 0.805205 0.246628
0.152554 0.805205 0.353907
0.152554 0.805205 0.455637
0.152554 0.805205 0.553473
0.160182 0.821309 0.615913
0.160182 0.821309 0.703749
0.160182 0.821309 0.789686
0.160182 0.821309 0.874000
0.152554 0.903531 0.129953
0.152554 0.903531 0.246628
0.152554 0.903531 0.353907
0.160182 0.921602 0.432855
0.160182 0.921602 0.525799
0.160182 0.921602 0.615913
0.160182 0.921602 0.703749
0.160182 0.921602 0.789686
0.160182 0.921602 0.874000
0.152554 1.000000 0.129953
0.160182 1.020000 0.234297
0.160182 1.020000 0.336211
0.160182 1.020000 0.432855
0.160182 1.020000 0.525799
0.160182 1.020000 0.615913
0.160182 1.020000 0.703749
0.160182 1.020000 0.789686
0.160182 1.020000 0.874000
0.318472 0.144079 0.116958
0.318472 0.144079 0.221965
0.318472 0.144079 0.318516
0.318472 0.144079 0.410073
0.318472 0.144079 0.498125
0.318472 0.144079 0.583497
0.318472 0.144079 0.666710
0.318472 0.144079 0.748124
0.318472 0.144079 0.828000
0.318472 0.273436 0.116958
0.318472 0.273436 0.221965
0.318472 0.273436 0.318516
0.318472 0.273436 0.410073
0.318472 0.273436 0.498125
0.318472 0.273436 0.583497
0.318472 0.273436 0.666710
0.318472 0.273436 0.748124
0.318472 0.273436 0.828000
0.318472 0.392375 0.116958
0.318472 0.392375 0.221965
0.318472 0.392375 0.318516
0.318472 0.392375 0.410073
0.318472 0.392375 0.498125
0.318472 0.392375 0.583497
0.318472 0.392375 0.666710
0.289520 0.384681 0.831249
0.289520 0.384681 0.920000
0.318472 0.505163 0.116958
0.318472 0.505163 0.221965
0.318472 0.505163 0.318516
0.318472 0.505163 0.410073
0.318472 0.505163 0.498125
0.289520 0.495258 0.648330
0.289520 0.495258 0.740789
0.289520 0.495258 0.831249
0.289520 0.495258 0.920000
0.318472 0.613633 0.116958
0.318472 0.613633 0.221965
0.318472 0.613633 0.318516
0.289520 0.601601 0.455637
0.289520 0.601601 0.553473
0.289520 0.601601 0.648330
0.289520 0.601601 0.740789
0.289520 0.601601 0.831249
0.303996 0.613633 0.874000
0.318472 0.718800 0.116958
0.289520 0.704706 0.246628
0.289520 0.704706 0.353907
0.289520 0.704706 0.455637
0.289520 0.704706 0.553473
0.289520 0.704706 0.648330
0.303996 0.718800 0.703749
0.303996 0.718800 0.789686
0.303996 0.718800 0.874000
0.289520 0.805205 0.129953
0.289520 0.805205 0.246628
0.289520 0.805205 0.353907
0.289520 0.805205 0.455637
0.303996 0.821309 0.525799
0.303996 0.821309 0.615913
0.303996 0.821309 0.703749
0.303996 0.821309 0.789686
0.303996 0.821309 0.874000
0.289520 0.903531 0.129953
0.289520 0.903531 0.246628
0.303996 0.921602 0.336211
0.303996 0.921602 0.432855
0.303996 0.921602 0.525799
0.303996 0.921602 0.615913
0.303996 0.921602 0.703749
0.303996 0.921602 0.789686
0.303996 0.921602 0.874000
0.303996 1.020000 0.123456
0.303996 1.020000 0.234297
0.303996 1.020000 0.336211
0.303996 1.020000 0.432855
0.303996 1.020000 0.525799
0.303996 1.020000 0.615913
0.303996 1.020000 0.703749
0.303996 1.020000 0.789686
0.303996 1.020000 0.874000
0.457001 0.144079 0.116958
0.457001 0.144079 0.221965
0.457001 0.144079 0.318516
0.457001 0.144079 0.410073
0.457001 0.144079 0.498125
0.457001 0.144079 0.583497
0.457001 0.144079 0.666710
0.457001 0.144079 0.748124
0.457001 0.144079 0.828000
0.457001 0.273436 0.116958
0.457001 0.273436 0.221965
0.457001 0.273436 0.318516
0.457001 0.273436 0.410073
0.457001 0.273436 0.498125
0.457001 0.273436 0.583497
0.457001 0.273436 0.666710
0.457001 0.273436 0.748124
0.415456 0.268074 0.920000
0.457001 0.392375 0.116958
0.457001 0.392375 0.221965
0.457001 0.392375 0.318516
0.457001 0.392375 0.410073
0.457001 0.392375 0.498125
0.457001 0.392375 0.583497
0.457001 0.392375 0.666710
0.415456 0.384681 0.831249
0.415456 0.384681 0.920000
0.457001 0.505163 0.116958
0.457001 0.505163 0.221965
0.457001 0.505163 0.318516
0.457001 0.505163 0.410073
0.457001 0.505163 0.498125
0.415456 0.495258 0.648330
0.415456 0.495258 0.740789
0.415456 0.495258 0.831249
0.415456 0.495258 0.920000
0.457001 0.613633 0.116958
0.457001 0.613633 0.221965
0.457001 0.613633 0.318516
0.415456 0.601601 0.455637
0.415456 0.601601 0.553473
0.415456 0.601601 0.648330
0.415456 0.601601 0.740789
0.415456 0.601601 0.831249
0.436228 0.613633 0.874000
0.457001 0.718800 0.116958
0.415456 0.704706 0.246628
0.415456 0.704706 0.353907
0.415456 0.704706 0.455637
0.415456 0.704706 0.553473
0.415456 0.704706 0.648330
0.436228 0.718800 0.703749
0.436228 0.718800 0.789686
0.436228 0.718800 0.874000
0.415456 0.805205 0.129953
0.415456 0.805205 0.246628
0.415456 0.805205 0.353907
0.415456 0.805205 0.455637
0.436228 0.821309 0.525799
0.436228 0.821309 0.615913
0.436228 0.821309 0.703749
0.436228 0.821309 0.789686
0.436228 0.821309 0.874000
0.415456 0.903531 0.129953
0.415456 0.903531 0.246628
0.436228 0.921602 0.336211
0.436228 0.921602 0.432855
0.436228 0.921602 0.525799
0.436228 0.921602 0.615913
0.436228 0.921602 0.703749
0.436228 0.921602 0.789686
0.436228 0.921602 0.874000
0.436228 1.020000 0.123456
0.436228 1.020000 0.234297
0.436228 1.020000 0.336211
0.436228 1.020000 0.432855
0.436228 1.020000 0.525799
0.436228 1.020000 0.615913
0.436228 1.020000 0.703749
0.436228 1.020000 0.789686
0.436228 1.020000 0.874000
0.588366 0.144079 0.116958
0.588366 0.144079 0.221965
0.588366 0.144079 0.318516
0.588366 0.144079 0.410073
0.588366 0.144079 0.498125
0.588366 0.144079 0.583497
0.588366 0.144079 0.666710
0.588366 0.144079 0.748124
0.588366 0.144079 0.828000
0.588366 0.273436 0.116958
0.588366 0.273436 0.221965
0.588366 0.273436 0.318516
0.588366 0.273436 0.410073
0.588366 0.273436 0.498125
0.588366 0.273436 0.583497
0.588366 0.273436 0.666710
0.588366 0.273436 0.748124
0.534878 0.268074 0.920000
0.588366 0.392375 0.116958
0.588366 0.392375 0.221965
0.588366 0.392375 0.318516
0.588366 0.392375 0.410073
0.588366 0.392375 0.498125
0.588366 0.392375 0.583497
0.534878 0.384681 0.740789
0.534878 0.384681 0.831249
0.534878 0.384681 0.920000
0.588366 0.505163 0.116958
0.588366 0.505163 0.221965
0.588366 0.505163 0.318516
0.588366 0.505163 0.410073
0.534878 0.495258 0.553473
0.534878 0.495258 0.648330
0.534878 0.495258 0.740789
0.534878 0.495258 0.831249
0.534878 0.495258 0.920000
0.588366 0.613633 0.116958
0.588366 0.613633 0.221965
0.534878 0.601601 0.353907
0.534878 0.601601 0.455637
0.534878 0.601601 0.553473
0.534878 0.601601 0.648330
0.534878 0.601601 0.740789
0.534878 0.601601 0.831249
0.561622 0.613633 0.874000
0.534878 0.704706 0.129953
0.534878 0.704706 0.246628
0.534878 0.704706 0.353907
0.534878 0.704706 0.455637
0.534878 0.704706 0.553473
0.534878 0.704706 0.648330
0.561622 0.718800 0.703749
0.561622 0.718800 0.789686
0.561622 0.718800 0.874000
0.534878 0.805205 0.129953
0.534878 0.805205 0.246628
0.534878 0.805205 0.353907
0.534878 0.805205 0.455637
0.561622 0.821309 0.525799
0.561622 0.821309 0.615913
0.561622 0.821309 0.703749
0.561622 0.821309 0.789686
0.561622 0.821309 0.874000
0.534878 0.903531 0.129953
0.534878 0.903531 0.246628
0.561622 0.921602 0.336211
0.561622 0.921602 0.432855
0.561622 0.921602 0.525799
0.561622 0.921602 0.615913
0.561622 0.921602 0.703749
0.561622 0.921602 0.789686
0.561622 0.921602 0.874000
0.561622 1.020000 0.123456
0.561622 1.020000 0.234297
0.561622 1.020000 0.336211
0.561622 1.020000 0.432855
0.561622 1.020000 0.525799
0.561622 1.020000 0.615913
0.561622 1.020000 0.703749
0.561622 1.020000 0.789686
0.561622 1.020000 0.874000
0.714702 0.144079 0.116958
0.714702 0.144079 0.221965
0.714702 0.144079 0.318516
0.714702 0.144079 0.410073
0.714702 0.144079 0.498125
0.714702 0.144079 0.583497
0.714702 0.144079 0.666710
0.714702 0.144079 0.748124
0.714702 0.144079 0.828000
0.714702 0.273436 0.116958
0.714702 0.273436 0.221965
0.714702 0.273436 0.318516
0.714702 0.273436 0.410073
0.714702 0.273436 0.498125
0.714702 0.273436 0.583497
0.714702 0.273436 0.666710
0.714702 0.273436 0.748124
0.649729 0.268074 0.920000
0.714702 0.392375 0.116958
0.714702 0.392375 0.221965
0.714702 0.392375 0.318516
0.714702 0.392375 0.410073
0.714702 0.392375 0.498125
0.714702 0.392375 0.583497
0.649729 0.384681 0.740789
0.649729 0.384681 0.831249
0.649729 0.384681 0.920000
0.714702 0.505163 0.116958
0.714702 0.505163 0.221965
0.714702 0.505163 0.318516
0.714702 0.505163 0.410073
0.649729 0.495258 0.553473
0.649729 0.495258 0.648330
0.649729 0.495258 0.740789
0.649729 0.495258 0.831249
0.649729 0.495258 0.920000
0.714702 0.613633 0.116958
0.714702 0.613633 0.221965
0.649729 0.601601 0.353907
0.649729 0.601601 0.455637
0.649729 0.601601 0.553473
0.649729 0.601601 0.648330
0.649729 0.601601 0.740789
0.682215 0.613633 0.789686
0.682215 0.613633 0.874000
0.649729 0.704706 0.129953
0.649729 0.704706 0.246628
0.649729 0.704706 0.353907
0.649729 0.704706 0.455637
0.649729 0.704706 0.553473
0.682215 0.718800 0.615913
0.682215 0.718800 0.703749
0.682215 0.718800 0.789686
0.682215 0.718800 0.874000
0.649729 0.805205 0.129953
0.649729 0.805205 0.246628
0.649729 0.805205 0.353907
0.682215 0.821309 0.432855
0.682215 0.821309 0.525799
0.682215 0.821309 0.615913
0.682215 0.821309 0.703749
0.682215 0.821309 0.789686
0.682215 0.821309 0.874000
0.649729 0.903531 0.129953
0.682215 0.921602 0.234297
0.682215 0.921602 0.336211
0.682215 0.921602 0.432855
0.682215 0.921602 0.525799
0.682215 0.921602 0.615913
0.682215 0.921602 0.703749
0.682215 0.921602 0.789686
0.682215 0.921602 0.874000
0.682215 1.020000 0.123456
0.682215 1.020000 0.234297
0.682215 1.020000 0.336211
0.682215 1.020000 0.432855
0.682215 1.020000 0.525799
0.682215 1.020000 0.615913
0.682215 1.020000 0.703749
0.682215 1.020000 0.789686
0.682215 1.020000 0.874000
0.837191 0.144079 0.116958
0.837191 0.144079 0.221965
0.837191 0.144079 0.318516
0.837191 0.144079 0.410073
0.837191 0.144079 0.498125
0.837191 0.144079 0.583497
0.837191 0.144079 0.666710
0.837191 0.144079 0.748124
0.837191 0.144079 0.828000
0.837191 0.273436 0.116958
0.837191 0.273436 0.221965
0.837191 0.273436 0.318516
0.837191 0.273436 0.410073
0.837191 0.273436 0.498125
0.837191 0.273436 0.583497
0.837191 0.273436 0.666710
0.761083 0.268074 0.831249
0.761083 0.268074 0.920000
0.837191 0.392375 0.116958
0.837191 0.392375 0.221965
0.837191 0.392375 0.318516
0.837191 0.392375 0.410073
0.837191 0.392375 0.498125
0.761083 0.384681 0.648330
0.761083 0.384681 0.740789
0.761083 0.384681 0.831249
0.761083 0.384681 0.920000
0.837191 0.505163 0.116958
0.837191 0.505163 0.221965
0.837191 0.505163 0.318516
0.761083 0.495258 0.455637
0.761083 0.495258 0.553473
0.761083 0.495258 0.648330
0.761083 0.495258 0.740789
0.761083 0.495258 0.831249
0.761083 0.495258 0.920000
0.837191 0.613633 0.116958
0.761083 0.601601 0.246628
0.761083 0.601601 0.353907
0.761083 0.601601 0.455637
0.761083 0.601601 0.553473
0.761083 0.601601 0.648330
0.761083 0.601601 0.740789
0.799137 0.613633 0.789686
0.799137 0.613633 0.874000
0.761083 0.704706 0.129953
0.761083 0.704706 0.246628
0.761083 0.704706 0.353907
0.761083 0.704706 0.455637
0.761083 0.704706 0.553473
0.799137 0.718800 0.615913
0.799137 0.718800 0.703749
0.799137 0.718800 0.789686
0.799137 0.718800 0.874000
0.761083 0.805205 0.129953
0.761083 0.805205 0.246628
0.761083 0.805205 0.353907
0.799137 0.821309 0.432855
0.799137 0.821309 0.525799
0.799137 0.821309 0.615913
0.799137 0.821309 0.703749
0.799137 0.821309 0.789686
0.799137 0.821309 0.874000
0.761083 0.903531 0.129953
0.799137 0.921602 0.234297
0.799137 0.921602 0.336211
0.799137 0.921602 0.432855
0.799137 0.921602 0.525799
0.799137 0.921602 0.615913
0.799137 0.921602 0.703749
0.799137 0.921602 0.789686
0.799137 0.921602 0.874000
0.799137 1.020000 0.123456
0.799137 1.020000 0.234297
0.799137 1.020000 0.336211
0.799137 1.020000 0.432855
0.799137 1.020000 0.525799
0.799137 1.020000 0.615913
0.799137 1.020000 0.703749
0.799137 1.020000 0.789686
0.799137 1.020000 0.874000
0.956584 0.144079 0.116958
0.956584 0.144079 0.221965
0.956584 0.144079 0.318516
0.956584 0.144079 0.410073
0.956584 0.144079 0.498125
0.956584 0.144079 0.583497
0.956584 0.144079 0.666710
0.956584 0.144079 0.748124
0.956584 0.144079 0.828000
0.956584 0.273436 0.116958
0.956584 0.273436 0.221965
0.956584 0.273436 0.318516
0.956584 0.273436 0.410073
0.956584 0.273436 0.498125
0.956584 0.273436 0.583497
0.956584 0.273436 0.666710
0.869621 0.268074 0.831249
0.869621 0.268074 0.920000
0.956584 0.392375 0.116958
0.956584 0.392375 0.221965
0.956584 0.392375 0.318516
0.956584 0.392375 0.410073
0.956584 0.392375 0.498125
0.869621 0.384681 0.648330
0.869621 0.384681 0.740789
0.869621 0.384681 0.831249
0.869621 0.384681 0.920000
0.956584 0.505163 0.116958
0.956584 0.505163 0.221965
0.956584 0.505163 0.318516
0.869621 0.495258 0.455637
0.869621 0.495258 0.553473
0.869621 0.495258 0.648330
0.869621 0.495258 0.740789
0.869621 0.495258 0.831249
0.913102 0.505163 0.874000
0.956584 0.613633 0.116958
0.869621 0.601601 0.246628
0.869621 0.601601 0.353907
0.869621 0.601601 0.455637
0.869621 0.601601 0.553473
0.869621 0.601601 0.648330
0.913102 0.613633 0.703749
0.913102 0.613633 0.789686
0.913102 0.613633 0.874000
0.869621 0.704706 0.129953
0.869621 0.704706 0.246628
0.869621 0.704706 0.353907
0.869621 0.704706 0.455637
0.913102 0.718800 0.525799
0.913102 0.718800 0.615913
0.913102 0.718800 0.703749
0.913102 0.718800 0.789686
0.913102 0.718800 0.874000
0.869621 0.805205 0.129953
0.869621 0.805205 0.246628
0.913102 0.821309 0.336211
0.913102 0.821309 0.432855
0.913102 0.821309 0.525799
0.913102 0.821309 0.615913
0.913102 0.821309 0.703749
0.913102 0.821309 0.789686
0.913102 0.821309 0.874000
0.869621 0.903531 0.129953
0.913102 0.921602 0.234297
0.913102 0.921602 0.336211
0.913102 0.921602 0.432855
0.913102 0.921602 0.525799
0.913102 0.921602 0.615913
0.913102 0.921602 0.703749
0.913102 0.921602 0.789686
0.913102 0.921602 0.874000
0.913102 1.020000 0.123456
0.913102 1.020000 0.234297
0.913102 1.020000 0.336211
0.913102 1.020000 0.432855
0.913102 1.020000 0.525799
0.913102 1.020000 0.615913
0.913102 1.020000 0.703749
0.913102 1.020000 0.789686
0.913102 1.020000 0.874000
1.073395 0.144079 0.116958
1.073395 0.144079 0.221965
1.073395 0.144079 0.318516
1.073395 0.144079 0.410073
1.073395 0.144079 0.498125
1.073395 0.144079 0.583497
1.073395 0.144079 0.666710
1.073395 0.144079 0.748124
1.073395 0.144079 0.828000
1.073395 0.273436 0.116958
1.073395 0.273436 0.221965
1.073395 0.273436 0.318516
1.073395 0.273436 0.410073
1.073395 0.273436 0.498125
1.073395 0.273436 0.583497
1.073395 0.273436 0.666710
0.975814 0.268074 0.831249
0.975814 0.268074 0.920000
1.073395 0.392375 0.116958
1.073395 0.392375 0.221965
1.073395 0.392375 0.318516
1.073395 0.392375 0.410073
1.073395 0.392375 0.498125
0.975814 0.384681 0.648330
0.975814 0.384681 0.740789
0.975814 0.384681 0.831249
0.975814 0.384681 0.920000
1.073395 0.505163 0.116958
1.073395 0.505163 0.221965
1.073395 0.505163 0.318516
0.975814 0.495258 0.455637
0.975814 0.495258 0.553473
0.975814 0.495258 0.648330
0.975814 0.495258 0.740789
0.975814 0.495258 0.831249
1.024604 0.505163 0.874000
1.073395 0.613633 0.116958
0.975814 0.601601 0.246628
0.975814 0.601601 0.353907
0.975814 0.601601 0.455637
0.975814 0.601601 0.553473
0.975814 0.601601 0.648330
1.024604 0.613633 0.703749
1.024604 0.613633 0.789686
1.024604 0.613633 0.874000
0.975814 0.704706 0.129953
0.975814 0.704706 0.246628
0.975814 0.704706 0.353907
0.975814 0.704706 0.455637
1.024604 0.718800 0.525799
1.024604 0.718800 0.615913
1.024604 0.718800 0.703749
1.024604 0.718800 0.789686
1.024604 0.718800 0.874000
0.975814 0.805205 0.129953
0.975814 0.805205 0.246628
1.024604 0.821309 0.336211
1.024604 0.821309 0.432855
1.024604 0.821309 0.525799
1.024604 0.821309 0.615913
1.024604 0.821309 0.703749
1.024604 0.821309 0.789686
1.024604 0.821309 0.874000
1.024604 0.921602 0.123456
1.024604 0.921602 0.234297
1.024604 0.921602 0.336211
1.024604 0.921602 0.432855
1.024604 0.921602 0.525799
1.024604 0.921602 0.615913
1.024604 0.921602 0.703749
1.024604 0.921602 0.789686
1.024604 0.921602 0.874000
1.024604 1.020000 0.123456
1.024604 1.020000 0.234297
1.024604 1.020000 0.336211
1.024604 1.020000 0.432855
1.024604 1.020000 0.525799
1.024604 1.020000 0.615913
1.024604 1.020000 0.703749
1.024604 1.020000 0.789686
1.024604 1.020000 0.874000
1.188000 0.144079 0.116958
1.188000 0.144079 0.221965
1.188000 0.144079 0.318516
1.188000 0.144079 0.410073
1.188000 0.144079 0.498125
1.188000 0.144079 0.583497
1.188000 0.144079 0.666710
1.188000 0.144079 0.748124
1.080000 0.141254 0.920000
1.188000 0.273436 0.116958
1.188000 0.273436 0.221965
1.188000 0.273436 0.318516
1.188000 0.273436 0.410073
1.188000 0.273436 0.498125
1.188000 0.273436 0.583497
1.080000 0.268074 0.740789
1.080000 0.268074 0.831249
1.080000 0.268074 0.920000
1.188000 0.392375 0.116958
1.188000 0.392375 0.221965
1.188000 0.392375 0.318516
1.188000 0.392375 0.410073
1.080000 0.384681 0.553473
1.080000 0.384681 0.648330
1.080000 0.384681 0.740789
1.080000 0.384681 0.831249
1.080000 0.384681 0.920000
1.188000 0.505163 0.116958
1.188000 0.505163 0.221965
1.080000 0.495258 0.353907
1.080000 0.495258 0.455637
1.080000 0.495258 0.553473
1.080000 0.495258 0.648330
1.080000 0.495258 0.740789
1.080000 0.495258 0.831249
1.134000 0.505163 0.874000
1.080000 0.601601 0.129953
1.080000 0.601601 0.246628
1.080000 0.601601 0.353907
1.080000 0.601601 0.455637
1.080000 0.601601 0.553473
1.080000 0.601601 0.648330
1.134000 0.613633 0.703749
1.134000 0.613633 0.789686
1.134000 0.613633 0.874000
1.080000 0.704706 0.129953
1.080000 0.704706 0.246628
1.080000 0.704706 0.353907
1.080000 0.704706 0.455637
1.134000 0.718800 0.525799
1.134000 0.718800 0.615913
1.134000 0.718800 0.703749
1.134000 0.718800 0.789686
1.134000 0.718800 0.874000
1.080000 0.805205 0.129953
1.080000 0.805205 0.246628
1.134000 0.821309 0.336211
1.134000 0.821309 0.432855
1.134000 0.821309 0.525799
1.134000 0.821309 0.615913
1.134000 0.821309 0.703749
1.134000 0.821309 0.789686
1.134000 0.821309 0.874000
1.134000 0.921602 0.123456
1.134000 0.921602 0.234297
1.134000 0.921602 0.336211
1.134000 0.921602 0.432855
1.134000 0.921602 0.525799
1.134000 0.921602 0.615913
1.134000 0.921602 0.703749
1.134000 0.921602 0.789686
1.134000 0.921602 0.874000
1.134000 1.020000 0.123456
1.134000 1.020000 0.234297
1.134000 1.020000 0.336211
1.134000 1.020000 0.432855
1.134000 1.020000 0.525799
1.134000 1.020000 0.615913
1.134000 1.020000 0.703749
1.134000 1.020000 0.789686
1.134000 1.020000 0.874000
