app/src/main/assets/luts/05_Warm_Sunset.cube
TITLE "Warm Sunset Style"
LUT_3D_SIZE 5
0.000000 0.000000 0.000000
0.000000 0.000000 0.316250
0.000000 0.000000 0.632500
0.000000 0.000000 0.948750
0.000000 0.000000 1.265000
0.000000 0.229500 0.000000
0.000000 0.229500 0.316250
0.000000 0.229500 0.632500
0.000000 0.255000 0.891000
0.000000 0.255000 1.188000
0.000000 0.459000 0.000000
0.000000 0.510000 0.297000
0.000000 0.510000 0.594000
0.000000 0.510000 0.891000
0.000000 0.510000 1.188000
0.000000 0.765000 0.000000
0.000000 0.765000 0.297000
0.000000 0.765000 0.594000
0.000000 0.765000 0.891000
0.000000 0.803250 1.232000
0.000000 1.020000 0.000000
0.000000 1.020000 0.297000
0.000000 1.071000 0.616000
0.000000 1.071000 0.924000
0.000000 1.071000 1.232000
0.165000 0.000000 0.000000
0.165000 0.000000 0.316250
0.165000 0.000000 0.632500
0.165000 0.000000 0.948750
0.193600 0.000000 1.188000
0.165000 0.229500 0.000000
0.165000 0.229500 0.316250
0.193600 0.255000 0.594000
0.193600 0.255000 0.891000
0.193600 0.255000 1.188000
0.193600 0.510000 0.000000
0.193600 0.510000 0.297000
0.193600 0.510000 0.594000
0.193600 0.510000 0.891000
0.193600 0.510000 1.188000
0.193600 0.765000 0.000000
0.193600 0.765000 0.297000
0.193600 0.765000 0.594000
0.193600 0.765000 0.891000
0.187000 0.803250 1.232000
0.193600 1.020000 0.000000
0.193600 1.020000 0.297000
0.187000 1.071000 0.616000
0.187000 1.071000 0.924000
0.187000 1.071000 1.232000
0.330000 0.000000 0.000000
0.330000 0.000000 0.316250
0.330000 0.000000 0.632500
0.330000 0.000000 0.948750
0.387200 0.000000 1.188000
0.330000 0.229500 0.000000
0.330000 0.229500 0.316250
0.387200 0.255000 0.594000
0.387200 0.255000 0.891000
0.387200 0.255000 1.188000
0.387200 0.510000 0.000000
0.387200 0.510000 0.297000
0.387200 0.510000 0.594000
0.387200 0.510000 0.891000
0.387200 0.510000 1.188000
0.387200 0.765000 0.000000
0.387200 0.765000 0.297000
0.387200 0.765000 0.594000
0.374000 0.803250 0.924000
0.374000 0.803250 1.232000
0.387200 1.020000 0.000000
0.374000 1.071000 0.308000
0.374000 1.071000 0.616000
0.374000 1.071000 0.924000
0.374000 1.071000 1.232000
0.495000 0.000000 0.000000
0.495000 0.000000 0.316250
0.495000 0.000000 0.632500
0.580800 0.000000 0.891000
0.580800 0.000000 1.188000
0.495000 0.229500 0.000000
0.580800 0.255000 0.297000
0.580800 0.255000 0.594000
0.580800 0.255000 0.891000
0.580800 0.255000 1.188000
0.580800 0.510000 0.000000
0.580800 0.510000 0.297000
0.580800 0.510000 0.594000
0.580800 0.510000 0.891000
0.580800 0.510000 1.188000
0.580800 0.765000 0.000000
0.580800 0.765000 0.297000
0.580800 0.765000 0.594000
0.561000 0.803250 0.924000
0.561000 0.803250 1.232000
0.580800 1.020000 0.000000
0.561000 1.071000 0.308000
0.561000 1.071000 0.616000
0.561000 1.071000 0.924000
0.561000 1.071000 1.232000
0.660000 0.000000 0.000000
0.660000 0.000000 0.316250
0.660000 0.000000 0.632500
0.774400 0.000000 0.891000
0.774400 0.000000 1.188000
0.660000 0.229500 0.000000
0.774400 0.255000 0.297000
0.774400 0.255000 0.594000
0.774400 0.255000 0.891000
0.774400 0.255000 1.188000
0.774400 0.510000 0.000000
0.774400 0.510000 0.297000
0.774400 0.510000 0.594000
0.774400 0.510000 0.891000
0.748000 0.535500 1.232000
0.774400 0.765000 0.000000
0.774400 0.765000 0.297000
0.748000 0.803250 0.616000
0.748000 0.803250 0.924000
0.748000 0.803250 1.232000
0.748000 1.071000 0.000000
0.748000 1.071000 0.308000
0.748000 1.071000 0.616000
0.748000 1.071000 0.924000
0.748000 1.071000 1.232000
