app/src/main/assets/luts/05_Warm_Sunset.cube
TITLE "Warm Sunset Style"
LUT_3D_SIZE 9
0.000000 0.000000 0.000000
0.000000 0.000000 0.158125
0.000000 0.000000 0.316250
0.000000 0.000000 0.474375
0.000000 0.000000 0.632500
0.000000 0.000000 0.790625
0.000000 0.000000 0.948750
0.000000 0.000000 1.106875
0.000000 0.000000 1.265000
0.000000 0.114750 0.000000
0.000000 0.114750 0.158125
0.000000 0.114750 0.316250
0.000000 0.114750 0.474375
0.000000 0.114750 0.632500
0.000000 0.114750 0.790625
0.000000 0.114750 0.948750
0.000000 0.127500 1.039500
0.000000 0.127500 1.188000
0.000000 0.229500 0.000000
0.000000 0.229500 0.158125
0.000000 0.229500 0.316250
0.000000 0.229500 0.474375
0.000000 0.229500 0.632500
0.000000 0.255000 0.742500
0.000000 0.255000 0.891000
0.000000 0.255000 1.039500
0.000000 0.255000 1.188000
0.000000 0.344250 0.000000
0.000000 0.344250 0.158125
0.000000 0.344250 0.316250
0.000000 0.382500 0.445500
0.000000 0.382500 0.594000
0.000000 0.382500 0.742500
0.000000 0.382500 0.891000
0.000000 0.382500 1.039500
0.000000 0.382500 1.188000
0.000000 0.459000 0.000000
0.000000 0.510000 0.148500
0.000000 0.510000 0.297000
0.000000 0.510000 0.445500
0.000000 0.510000 0.594000
0.000000 0.510000 0.742500
0.000000 0.510000 0.891000
0.000000 0.510000 1.039500
0.000000 0.510000 1.188000
0.000000 0.637500 0.000000
0.000000 0.637500 0.148500
0.000000 0.637500 0.297000
0.000000 0.637500 0.445500
0.000000 0.637500 0.594000
0.000000 0.637500 0.742500
0.000000 0.637500 0.891000
0.000000 0.637500 1.039500
0.000000 0.637500 1.188000
0.000000 0.765000 0.000000
0.000000 0.765000 0.148500
0.000000 0.765000 0.297000
0.000000 0.765000 0.445500
0.000000 0.765000 0.594000
0.000000 0.765000 0.742500
0.000000 0.765000 0.891000
0.000000 0.803250 1.078000
0.000000 0.803250 1.232000
0.000000 0.892500 0.000000
0.000000 0.892500 0.148500
0.000000 0.892500 0.297000
0.000000 0.892500 0.445500
0.000000 0.892500 0.594000
0.000000 0.937125 0.770000
0.000000 0.937125 0.924000
0.000000 0.937125 1.078000
0.000000 0.937125 1.232000
0.000000 1.020000 0.000000
0.000000 1.020000 0.148500
0.000000 1.020000 0.297000
0.000000 1.020000 0.445500
0.000000 1.071000 0.616000
0.000000 1.071000 0.770000
0.000000 1.071000 0.924000
0.000000 1.071000 1.078000
0.000000 1.071000 1.232000
0.082500 0.000000 0.000000
0.082500 0.000000 0.158125
0.082500 0.000000 0.316250
0.082500 0.000000 0.474375
0.082500 0.000000 0.632500
0.082500 0.000000 0.790625
0.082500 0.000000 0.948750
0.082500 0.000000 1.106875
0.096800 0.000000 1.188000
0.082500 0.114750 0.000000
0.082500 0.114750 0.158125
0.082500 0.114750 0.316250
0.082500 0.114750 0.474375
0.082500 0.114750 0.632500
0.082500 0.114750 0.790625
0.096800 0.127500 0.891000
0.096800 0.127500 1.039500
0.096800 0.127500 1.188000
0.082500 0.229500 0.000000
0.082500 0.229500 0.158125
0.082500 0.229500 0.316250
0.082500 0.229500 0.474375
0.096800 0.255000 0.594000
0.096800 0.255000 0.742500
0.096800 0.255000 0.891000
0.096800 0.255000 1.039500
0.096800 0.255000 1.188000
0.082500 0.344250 0.000000
0.082500 0.344250 0.158125
0.096800 0.382500 0.297000
0.096800 0.382500 0.445500
0.096800 0.382500 0.594000
0.096800 0.382500 0.742500
0.096800 0.382500 0.891000
0.096800 0.382500 1.039500
0.096800 0.382500 1.188000
0.096800 0.510000 0.000000
0.096800 0.510000 0.148500
0.096800 0.510000 0.297000
0.096800 0.510000 0.445500
0.096800 0.510000 0.594000
0.096800 0.510000 0.742500
0.096800 0.510000 0.891000
0.096800 0.510000 1.039500
0.096800 0.510000 1.188000
0.096800 0.637500 0.000000
0.096800 0.637500 0.148500
0.096800 0.637500 0.297000
0.096800 0.637500 0.445500
0.096800 0.637500 0.594000
0.096800 0.637500 0.742500
0.096800 0.637500 0.891000
0.096800 0.637500 1.039500
0.096800 0.637500 1.188000
0.096800 0.765000 0.000000
0.096800 0.765000 0.148500
0.096800 0.765000 0.297000
0.096800 0.765000 0.445500
0.096800 0.765000 0.594000
0.096800 0.765000 0.742500
0.096800 0.765000 0.891000
0.093500 0.803250 1.078000
0.093500 0.803250 1.232000
0.096800 0.892500 0.000000
0.096800 0.892500 0.148500
0.096800 0.892500 0.297000
0.096800 0.892500 0.445500
0.096800 0.892500 0.594000
0.093500 0.937125 0.770000
0.093500 0.937125 0.924000
0.093500 0.937125 1.078000
0.093500 0.937125 1.232000
0.096800 1.020000 0.000000
0.096800 1.020000 0.148500
0.096800 1.020000 0.297000
0.093500 1.071000 0.462000
0.093500 1.071000 0.616000
0.093500 1.071000 0.770000
0.093500 1.071000 0.924000
0.093500 1.071000 1.078000
0.093500 1.071000 1.232000
0.165000 0.000000 0.000000
0.165000 0.000000 0.158125
0.165000 0.000000 0.316250
0.165000 0.000000 0.474375
0.165000 0.000000 0.632500
0.165000 0.000000 0.790625
0.165000 0.000000 0.948750
0.165000 0.000000 1.106875
0.193600 0.000000 1.188000
0.165000 0.114750 0.000000
0.165000 0.114750 0.158125
0.165000 0.114750 0.316250
0.165000 0.114750 0.474375
0.165000 0.114750 0.632500
0.165000 0.114750 0.790625
0.193600 0.127500 0.891000
0.193600 0.127500 1.039500
0.193600 0.127500 1.188000
0.165000 0.229500 0.000000
0.165000 0.229500 0.158125
0.165000 0.229500 0.316250
0.165000 0.229500 0.474375
0.193600 0.255000 0.594000
0.193600 0.255000 0.742500
0.193600 0.255000 0.891000
0.193600 0.255000 1.039500
0.193600 0.255000 1.188000
0.165000 0.344250 0.000000
0.165000 0.344250 0.158125
0.193600 0.382500 0.297000
0.193600 0.382500 0.445500
0.193600 0.382500 0.594000
0.193600 0.382500 0.742500
0.193600 0.382500 0.891000
0.193600 0.382500 1.039500
0.193600 0.382500 1.188000
0.193600 0.510000 0.000000
0.193600 0.510000 0.148500
0.193600 0.510000 0.297000
0.193600 0.510000 0.445500
0.193600 0.510000 0.594000
0.193600 0.510000 0.742500
0.193600 0.510000 0.891000
0.193600 0.510000 1.039500
0.193600 0.510000 1.188000
0.193600 0.637500 0.000000
0.193600 0.637500 0.148500
0.193600 0.637500 0.297000
0.193600 0.637500 0.445500
0.193600 0.637500 0.594000
0.193600 0.637500 0.742500
0.193600 0.637500 0.891000
0.193600 0.637500 1.039500
0.193600 0.637500 1.188000
0.193600 0.765000 0.000000
0.193600 0.765000 0.148500
0.193600 0.765000 0.297000
0.193600 0.765000 0.445500
0.193600 0.765000 0.594000
0.193600 0.765000 0.742500
0.193600 0.765000 0.891000
0.187000 0.803250 1.078000
0.187000 0.803250 1.232000
0.193600 0.892500 0.000000
0.193600 0.892500 0.148500
0.193600 0.892500 0.297000
0.193600 0.892500 0.445500
0.193600 0.892500 0.594000
0.187000 0.937125 0.770000
0.187000 0.937125 0.924000
0.187000 0.937125 1.078000
0.187000 0.937125 1.232000
0.193600 1.020000 0.000000
0.193600 1.020000 0.148500
0.193600 1.020000 0.297000
0.187000 1.071000 0.462000
0.187000 1.071000 0.616000
0.187000 1.071000 0.770000
0.187000 1.071000 0.924000
0.187000 1.071000 1.078000
0.187000 1.071000 1.232000
0.247500 0.000000 0.000000
0.247500 0.000000 0.158125
0.247500 0.000000 0.316250
0.247500 0.000000 0.474375
0.247500 0.000000 0.632500
0.247500 0.000000 0.790625
0.247500 0.000000 0.948750
0.290400 0.000000 1.039500
0.290400 0.000000 1.188000
0.247500 0.114750 0.000000
0.247500 0.114750 0.158125
0.247500 0.114750 0.316250
0.247500 0.114750 0.474375
0.247500 0.114750 0.632500
0.290400 0.127500 0.742500
0.290400 0.127500 0.891000
0.290400 0.127500 1.039500
0.290400 0.127500 1.188000
0.247500 0.229500 0.000000
0.247500 0.229500 0.158125
0.247500 0.229500 0.316250
0.290400 0.255000 0.445500
0.290400 0.255000 0.594000
0.290400 0.255000 0.742500
0.290400 0.255000 0.891000
0.290400 0.255000 1.039500
0.290400 0.255000 1.188000
0.247500 0.344250 0.000000
0.290400 0.382500 0.148500
0.290400 0.382500 0.297000
0.290400 0.382500 0.445500
0.290400 0.382500 0.594000
0.290400 0.382500 0.742500
0.290400 0.382500 0.891000
0.290400 0.382500 1.039500
0.290400 0.382500 1.188000
0.290400 0.510000 0.000000
0.290400 0.510000 0.148500
0.290400 0.510000 0.297000
0.290400 0.510000 0.445500
0.290400 0.510000 0.594000
0.290400 0.510000 0.742500
0.290400 0.510000 0.891000
0.290400 0.510000 1.039500
0.290400 0.510000 1.188000
0.290400 0.637500 0.000000
0.290400 0.637500 0.148500
0.290400 0.637500 0.297000
0.290400 0.637500 0.445500
0.290400 0.637500 0.594000
0.290400 0.637500 0.742500
0.290400 0.637500 0.891000
0.290400 0.637500 1.039500
0.280500 0.669375 1.232000
0.290400 0.765000 0.000000
0.290400 0.765000 0.148500
0.290400 0.765000 0.297000
0.290400 0.765000 0.445500
0.290400 0.765000 0.594000
0.290400 0.765000 0.742500
0.280500 0.803250 0.924000
0.280500 0.803250 1.078000
0.280500 0.803250 1.232000
0.290400 0.892500 0.000000
0.290400 0.892500 0.148500
0.290400 0.892500 0.297000
0.290400 0.892500 0.445500
0.280500 0.937125 0.616000
0.280500 0.937125 0.770000
0.280500 0.937125 0.924000
0.280500 0.937125 1.078000
0.280500 0.937125 1.232000
0.290400 1.020000 0.000000
0.290400 1.020000 0.148500
0.280500 1.071000 0.308000
0.280500 1.071000 0.462000
0.280500 1.071000 0.616000
0.280500 1.071000 0.770000
0.280500 1.071000 0.924000
0.280500 1.071000 1.078000
0.280500 1.071000 1.232000
0.330000 0.000000 0.000000
0.330000 0.000000 0.158125
0.330000 0.000000 0.316250
0.330000 0.000000 0.474375
0.330000 0.000000 0.632500
0.330000 0.000000 0.790625
0.330000 0.000000 0.948750
0.387200 0.000000 1.039500
0.387200 0.000000 1.188000
0.330000 0.114750 0.000000
0.330000 0.114750 0.158125
0.330000 0.114750 0.316250
0.330000 0.114750 0.474375
0.330000 0.114750 0.632500
0.387200 0.127500 0.742500
0.387200 0.127500 0.891000
0.387200 0.127500 1.039500
0.387200 0.127500 1.188000
0.330000 0.229500 0.000000
0.330000 0.229500 0.158125
0.330000 0.229500 0.316250
0.387200 0.255000 0.445500
0.387200 0.255000 0.594000
0.387200 0.255000 0.742500
0.387200 0.255000 0.891000
0.387200 0.255000 1.039500
0.387200 0.255000 1.188000
0.330000 0.344250 0.000000
0.387200 0.382500 0.148500
0.387200 0.382500 0.297000
0.387200 0.382500 0.445500
0.387200 0.382500 0.594000
0.387200 0.382500 0.742500
0.387200 0.382500 0.891000
0.387200 0.382500 1.039500
0.387200 0.382500 1.188000
0.387200 0.510000 0.000000
0.387200 0.510000 0.148500
0.387200 0.510000 0.297000
0.387200 0.510000 0.445500
0.387200 0.510000 0.594000
0.387200 0.510000 0.742500
0.387200 0.510000 0.891000
0.387200 0.510000 1.039500
0.387200 0.510000 1.188000
0.387200 0.637500 0.000000
0.387200 0.637500 0.148500
0.387200 0.637500 0.297000
0.387200 0.637500 0.445500
0.387200 0.637500 0.594000
0.387200 0.637500 0.742500
0.387200 0.637500 0.891000
0.387200 0.637500 1.039500
0.374000 0.669375 1.232000
0.387200 0.765000 0.000000
0.387200 0.765000 0.148500
0.387200 0.765000 0.297000
0.387200 0.765000 0.445500
0.387200 0.765000 0.594000
0.387200 0.765000 0.742500
0.374000 0.803250 0.924000
0.374000 0.803250 1.078000
0.374000 0.803250 1.232000
0.387200 0.892500 0.000000
0.387200 0.892500 0.148500
0.387200 0.892500 0.297000
0.387200 0.892500 0.445500
0.374000 0.937125 0.616000
0.374000 0.937125 0.770000
0.374000 0.937125 0.924000
0.374000 0.937125 1.078000
0.374000 0.937125 1.232000
0.387200 1.020000 0.000000
0.387200 1.020000 0.148500
0.374000 1.071000 0.308000
0.374000 1.071000 0.462000
0.374000 1.071000 0.616000
0.374000 1.071000 0.770000
0.374000 1.071000 0.924000
0.374000 1.071000 1.078000
0.374000 1.071000 1.232000
0.412500 0.000000 0.000000
0.412500 0.000000 0.158125
0.412500 0.000000 0.316250
0.412500 0.000000 0.474375
0.412500 0.000000 0.632500
0.412500 0.000000 0.790625
0.412500 0.000000 0.948750
0.484000 0.000000 1.039500
0.484000 0.000000 1.188000
0.412500 0.114750 0.000000
0.412500 0.114750 0.158125
0.412500 0.114750 0.316250
0.412500 0.114750 0.474375
0.412500 0.114750 0.632500
0.484000 0.127500 0.742500
0.484000 0.127500 0.891000
0.484000 0.127500 1.039500
0.484000 0.127500 1.188000
0.412500 0.229500 0.000000
0.412500 0.229500 0.158125
0.412500 0.229500 0.316250
0.484000 0.255000 0.445500
0.484000 0.255000 0.594000
0.484000 0.255000 0.742500
0.484000 0.255000 0.891000
0.484000 0.255000 1.039500
0.484000 0.255000 1.188000
0.412500 0.344250 0.000000
0.484000 0.382500 0.148500
0.484000 0.382500 0.297000
0.484000 0.382500 0.445500
0.484000 0.382500 0.594000
0.484000 0.382500 0.742500
0.484000 0.382500 0.891000
0.484000 0.382500 1.039500
0.484000 0.382500 1.188000
0.484000 0.510000 0.000000
0.484000 0.510000 0.148500
0.484000 0.510000 0.297000
0.484000 0.510000 0.445500
0.484000 0.510000 0.594000
0.484000 0.510000 0.742500
0.484000 0.510000 0.891000
0.484000 0.510000 1.039500
0.484000 0.510000 1.188000
0.484000 0.637500 0.000000
0.484000 0.637500 0.148500
0.484000 0.637500 0.297000
0.484000 0.637500 0.445500
0.484000 0.637500 0.594000
0.484000 0.637500 0.742500
0.484000 0.637500 0.891000
0.484000 0.637500 1.039500
0.467500 0.669375 1.232000
0.484000 0.765000 0.000000
0.484000 0.765000 0.148500
0.484000 0.765000 0.297000
0.484000 0.765000 0.445500
0.484000 0.765000 0.594000
0.484000 0.765000 0.742500
0.467500 0.803250 0.924000
0.467500 0.803250 1.078000
0.467500 0.803250 1.232000
0.484000 0.892500 0.000000
0.484000 0.892500 0.148500
0.484000 0.892500 0.297000
0.484000 0.892500 0.445500
0.467500 0.937125 0.616000
0.467500 0.937125 0.770000
0.467500 0.937125 0.924000
0.467500 0.937125 1.078000
0.467500 0.937125 1.232000
0.484000 1.020000 0.000000
0.484000 1.020000 0.148500
0.467500 1.071000 0.308000
0.467500 1.071000 0.462000
0.467500 1.071000 0.616000
0.467500 1.071000 0.770000
0.467500 1.071000 0.924000
0.467500 1.071000 1.078000
0.467500 1.071000 1.232000
0.495000 0.000000 0.000000
0.495000 0.000000 0.158125
0.495000 0.000000 0.316250
0.495000 0.000000 0.474375
0.495000 0.000000 0.632500
0.495000 0.000000 0.790625
0.580800 0.000000 0.891000
0.580800 0.000000 1.039500
0.580800 0.000000 1.188000
0.495000 0.114750 0.000000
0.495000 0.114750 0.158125
0.495000 0.114750 0.316250
0.495000 0.114750 0.474375
0.580800 0.127500 0.594000
0.580800 0.127500 0.742500
0.580800 0.127500 0.891000
0.580800 0.127500 1.039500
0.580800 0.127500 1.188000
0.495000 0.229500 0.000000
0.495000 0.229500 0.158125
0.580800 0.255000 0.297000
0.580800 0.255000 0.445500
0.580800 0.255000 0.594000
0.580800 0.255000 0.742500
0.580800 0.255000 0.891000
0.580800 0.255000 1.039500
0.580800 0.255000 1.188000
0.580800 0.382500 0.000000
0.580800 0.382500 0.148500
0.580800 0.382500 0.297000
0.580800 0.382500 0.445500
0.580800 0.382500 0.594000
0.580800 0.382500 0.742500
0.580800 0.382500 0.891000
0.580800 0.382500 1.039500
0.580800 0.382500 1.188000
0.580800 0.510000 0.000000
0.580800 0.510000 0.148500
0.580800 0.510000 0.297000
0.580800 0.510000 0.445500
0.580800 0.510000 0.594000
0.580800 0.510000 0.742500
0.580800 0.510000 0.891000
0.580800 0.510000 1.039500
0.580800 0.510000 1.188000
0.580800 0.637500 0.000000
0.580800 0.637500 0.148500
0.580800 0.637500 0.297000
0.580800 0.637500 0.445500
0.580800 0.637500 0.594000
0.580800 0.637500 0.742500
0.580800 0.637500 0.891000
0.561000 0.669375 1.078000
0.561000 0.669375 1.232000
0.580800 0.765000 0.000000
0.580800 0.765000 0.148500
0.580800 0.765000 0.297000
0.580800 0.765000 0.445500
0.580800 0.765000 0.594000
0.561000 0.803250 0.770000
0.561000 0.803250 0.924000
0.561000 0.803250 1.078000
0.561000 0.803250 1.232000
0.580800 0.892500 0.000000
0.580800 0.892500 0.148500
0.580800 0.892500 0.297000
0.561000 0.937125 0.462000
0.561000 0.937125 0.616000
0.561000 0.937125 0.770000
0.561000 0.937125 0.924000
0.561000 0.937125 1.078000
0.561000 0.937125 1.232000
0.580800 1.020000 0.000000
0.561000 1.071000 0.154000
0.561000 1.071000 0.308000
0.561000 1.071000 0.462000
0.561000 1.071000 0.616000
0.561000 1.071000 0.770000
0.561000 1.071000 0.924000
0.561000 1.071000 1.078000
0.561000 1.071000 1.232000
0.577500 0.000000 0.000000
0.577500 0.000000 0.158125
0.577500 0.000000 0.316250
0.577500 0.000000 0.474375
0.577500 0.000000 0.632500
0.577500 0.000000 0.790625
0.677600 0.000000 0.891000
0.677600 0.000000 1.039500
0.677600 0.000000 1.188000
0.577500 0.114750 0.000000
0.577500 0.114750 0.158125
0.577500 0.114750 0.316250
0.577500 0.114750 0.474375
0.677600 0.127500 0.594000
0.677600 0.127500 0.742500
0.677600 0.127500 0.891000
0.677600 0.127500 1.039500
0.677600 0.127500 1.188000
0.577500 0.229500 0.000000
0.577500 0.229500 0.158125
0.677600 0.255000 0.297000
0.677600 0.255000 0.445500
0.677600 0.255000 0.594000
0.677600 0.255000 0.742500
0.677600 0.255000 0.891000
0.677600 0.255000 1.039500
0.677600 0.255000 1.188000
0.677600 0.382500 0.000000
0.677600 0.382500 0.148500
0.677600 0.382500 0.297000
0.677600 0.382500 0.445500
0.677600 0.382500 0.594000
0.677600 0.382500 0.742500
0.677600 0.382500 0.891000
0.677600 0.382500 1.039500
0.677600 0.382500 1.188000
0.677600 0.510000 0.000000
0.677600 0.510000 0.148500
0.677600 0.510000 0.297000
0.677600 0.510000 0.445500
0.677600 0.510000 0.594000
0.677600 0.510000 0.742500
0.677600 0.510000 0.891000
0.677600 0.510000 1.039500
0.677600 0.510000 1.188000
0.677600 0.637500 0.000000
0.677600 0.637500 0.148500
0.677600 0.637500 0.297000
0.677600 0.637500 0.445500
0.677600 0.637500 0.594000
0.677600 0.637500 0.742500
0.677600 0.637500 0.891000
0.654500 0.669375 1.078000
0.654500 0.669375 1.232000
0.677600 0.765000 0.000000
0.677600 0.765000 0.148500
0.677600 0.765000 0.297000
0.677600 0.765000 0.445500
0.677600 0.765000 0.594000
0.654500 0.803250 0.770000
0.654500 0.803250 0.924000
0.654500 0.803250 1.078000
0.654500 0.803250 1.232000
0.677600 0.892500 0.000000
0.677600 0.892500 0.148500
0.677600 0.892500 0.297000
0.654500 0.937125 0.462000
0.654500 0.937125 0.616000
0.654500 0.937125 0.770000
0.654500 0.937125 0.924000
0.654500 0.937125 1.078000
0.654500 0.937125 1.232000
0.677600 1.020000 0.000000
0.654500 1.071000 0.154000
0.654500 1.071000 0.308000
0.654500 1.071000 0.462000
0.654500 1.071000 0.616000
0.654500 1.071000 0.770000
0.654500 1.071000 0.924000
0.654500 1.071000 1.078000
0.654500 1.071000 1.232000
0.660000 0.000000 0.000000
0.660000 0.000000 0.158125
0.660000 0.000000 0.316250
0.660000 0.000000 0.474375
0.660000 0.000000 0.632500
0.774400 0.000000 0.742500
0.774400 0.000000 0.891000
0.774400 0.000000 1.039500
0.774400 0.000000 1.188000
0.660000 0.114750 0.000000
0.660000 0.114750 0.158125
0.660000 0.114750 0.316250
0.660000 0.114750 0.474375
0.774400 0.127500 0.594000
0.774400 0.127500 0.742500
0.774400 0.127500 0.891000
0.774400 0.127500 1.039500
0.774400 0.127500 1.188000
0.660000 0.229500 0.000000
0.660000 0.229500 0.158125
0.774400 0.255000 0.297000
0.774400 0.255000 0.445500
0.774400 0.255000 0.594000
0.774400 0.255000 0.742500
0.774400 0.255000 0.891000
0.774400 0.255000 1.039500
0.774400 0.255000 1.188000
0.774400 0.382500 0.000000
0.774400 0.382500 0.148500
0.774400 0.382500 0.297000
0.774400 0.382500 0.445500
0.774400 0.382500 0.594000
0.774400 0.382500 0.742500
0.774400 0.382500 0.891000
0.774400 0.382500 1.039500
0.774400 0.382500 1.188000
0.774400 0.510000 0.000000
0.774400 0.510000 0.148500
0.774400 0.510000 0.297000
0.774400 0.510000 0.445500
0.774400 0.510000 0.594000
0.774400 0.510000 0.742500
0.774400 0.510000 0.891000
0.774400 0.510000 1.039500
0.748000 0.535500 1.232000
0.774400 0.637500 0.000000
0.774400 0.637500 0.148500
0.774400 0.637500 0.297000
0.774400 0.637500 0.445500
0.774400 0.637500 0.594000
0.774400 0.637500 0.742500
0.748000 0.669375 0.924000
0.748000 0.669375 1.078000
0.748000 0.669375 1.232000
0.774400 0.765000 0.000000
0.774400 0.765000 0.148500
0.774400 0.765000 0.297000
0.774400 0.765000 0.445500
0.748000 0.803250 0.616000
0.748000 0.803250 0.770000
0.748000 0.803250 0.924000
0.748000 0.803250 1.078000
0.748000 0.803250 1.232000
0.774400 0.892500 0.000000
0.774400 0.892500 0.148500
0.748000 0.937125 0.308000
0.748000 0.937125 0.462000
0.748000 0.937125 0.616000
0.748000 0.937125 0.770000
0.748000 0.937125 0.924000
0.748000 0.937125 1.078000
0.748000 0.937125 1.232000
0.748000 1.071000 0.000000
0.748000 1.071000 0.154000
0.748000 1.071000 0.308000
0.748000 1.071000 0.462000
0.748000 1.071000 0.616000
0.748000 1.071000 0.770000
0.748000 1.071000 0.924000
0.748000 1.071000 1.078000
0.748000 1.071000 1.232000
