app/src/main/assets/luts/05_Warm_Sunset.cube
TITLE "Warm Sunset Style"
LUT_3D_SIZE 33
0.000000 0.000000 0.000000
0.000000 0.000000 0.039531
0.000000 0.000000 0.079062
0.000000 0.000000 0.118594
0.000000 0.000000 0.158125
0.000000 0.000000 0.197656
0.000000 0.000000 0.237187
0.000000 0.000000 0.276719
0.000000 0.000000 0.316250
0.000000 0.000000 0.355781
0.000000 0.000000 0.395312
0.000000 0.000000 0.434844
0.000000 0.000000 0.474375
0.000000 0.000000 0.513906
0.000000 0.000000 0.553438
0.000000 0.000000 0.592969
0.000000 0.000000 0.632500
0.000000 0.000000 0.672031
0.000000 0.000000 0.711562
0.000000 0.000000 0.751094
0.000000 0.000000 0.790625
0.000000 0.000000 0.830156
0.000000 0.000000 0.869688
0.000000 0.000000 0.909219
0.000000 0.000000 0.948750
0.000000 0.000000 0.988281
0.000000 0.000000 1.027813
0.000000 0.000000 1.067344
0.000000 0.000000 1.106875
0.000000 0.000000 1.146406
0.000000 0.000000 1.185937
0.000000 0.000000 1.225469
0.000000 0.000000 1.265000
0.000000 0.028688 0.000000
0.000000 0.028688 0.039531
0.000000 0.028688 0.079062
0.000000 0.028688 0.118594
0.000000 0.028688 0.158125
0.000000 0.028688 0.197656
0.000000 0.028688 0.237187
0.000000 0.028688 0.276719
0.000000 0.028688 0.316250
0.000000 0.028688 0.355781
0.000000 0.028688 0.395312
0.000000 0.028688 0.434844
0.000000 0.028688 0.474375
0.000000 0.028688 0.513906
0.000000 0.028688 0.553438
0.000000 0.028688 0.592969
0.000000 0.028688 0.632500
0.000000 0.028688 0.672031
0.000000 0.028688 0.711562
0.000000 0.028688 0.751094
0.000000 0.028688 0.790625
0.000000 0.028688 0.830156
0.000000 0.028688 0.869688
0.000000 0.028688 0.909219
0.000000 0.028688 0.948750
0.000000 0.028688 0.988281
0.000000 0.028688 1.027813
0.000000 0.028688 1.067344
0.000000 0.028688 1.106875
0.000000 0.028688 1.146406
0.000000 0.028688 1.185937
0.000000 0.031875 1.150875
0.000000 0.031875 1.188000
0.000000 0.057375 0.000000
0.000000 0.057375 0.039531
0.000000 0.057375 0.079062
0.000000 0.057375 0.118594
0.000000 0.057375 0.158125
0.000000 0.057375 0.197656
0.000000 0.057375 0.237187
0.000000 0.057375 0.276719
0.000000 0.057375 0.316250
0.000000 0.057375 0.355781
0.000000 0.057375 0.395312
0.000000 0.057375 0.434844
0.000000 0.057375 0.474375
0.000000 0.057375 0.513906
0.000000 0.057375 0.553438
0.000000 0.057375 0.592969
0.000000 0.057375 0.632500
0.000000 0.057375 0.672031
0.000000 0.057375 0.711562
0.000000 0.057375 0.751094
0.000000 0.057375 0.790625
0.000000 0.057375 0.830156
0.000000 0.057375 0.869688
0.000000 0.057375 0.909219
0.000000 0.057375 0.948750
0.000000 0.057375 0.988281
0.000000 0.057375 1.027813
0.000000 0.057375 1.067344
0.000000 0.057375 1.106875
0.000000 0.063750 1.076625
0.000000 0.063750 1.113750
0.000000 0.063750 1.150875
0.000000 0.063750 1.188000
0.000000 0.086063 0.000000
0.000000 0.086063 0.039531
0.000000 0.086063 0.079062
0.000000 0.086063 0.118594
0.000000 0.086063 0.158125
0.000000 0.086063 0.197656
0.000000 0.086063 0.237187
0.000000 0.086063 0.276719
0.000000 0.086063 0.316250
0.000000 0.086063 0.355781
0.000000 0.086063 0.395312
0.000000 0.086063 0.434844
0.000000 0.086063 0.474375
0.000000 0.086063 0.513906
0.000000 0.086063 0.553438
0.000000 0.086063 0.592969
0.000000 0.086063 0.632500
0.000000 0.086063 0.672031
0.000000 0.086063 0.711562
0.000000 0.086063 0.751094
0.000000 0.086063 0.790625
0.000000 0.086063 0.830156
0.000000 0.086063 0.869688
0.000000 0.086063 0.909219
0.000000 0.086063 0.948750
0.000000 0.086063 0.988281
0.000000 0.086063 1.027813
0.000000 0.095625 1.002375
0.000000 0.095625 1.039500
0.000000 0.095625 1.076625
0.000000 0.095625 1.113750
0.000000 0.095625 1.150875
0.000000 0.095625 1.188000
0.000000 0.114750 0.000000
0.000000 0.114750 0.039531
0.000000 0.114750 0.079062
0.000000 0.114750 0.118594
0.000000 0.114750 0.158125
0.000000 0.114750 0.197656
0.000000 0.114750 0.237187
0.000000 0.114750 0.276719
0.000000 0.114750 0.316250
0.000000 0.114750 0.355781
0.000000 0.114750 0.395312
0.000000 0.114750 0.434844
0.000000 0.114750 0.474375
0.000000 0.114750 0.513906
0.000000 0.114750 0.553438
0.000000 0.114750 0.592969
0.000000 0.114750 0.632500
0.000000 0.114750 0.672031
0.000000 0.114750 0.711562
0.000000 0.114750 0.751094
0.000000 0.114750 0.790625
0.000000 0.114750 0.830156
0.000000 0.114750 0.869688
0.000000 0.114750 0.909219
0.000000 0.114750 0.948750
0.000000 0.127500 0.928125
0.000000 0.127500 0.965250
0.000000 0.127500 1.002375
0.000000 0.127500 1.039500
0.000000 0.127500 1.076625
0.000000 0.127500 1.113750
0.000000 0.127500 1.150875
0.000000 0.127500 1.188000
0.000000 0.143437 0.000000
0.000000 0.143437 0.039531
0.000000 0.143437 0.079062
0.000000 0.143437 0.118594
0.000000 0.143437 0.158125
0.000000 0.143437 0.197656
0.000000 0.143437 0.237187
0.000000 0.143437 0.276719
0.000000 0.143437 0.316250
0.000000 0.143437 0.355781
0.000000 0.143437 0.395312
0.000000 0.143437 0.434844
0.000000 0.143437 0.474375
0.000000 0.143437 0.513906
0.000000 0.143437 0.553438
0.000000 0.143437 0.592969
0.000000 0.143437 0.632500
0.000000 0.143437 0.672031
0.000000 0.143437 0.711562
0.000000 0.143437 0.751094
0.000000 0.143437 0.790625
0.000000 0.143437 0.830156
0.000000 0.143437 0.869688
0.000000 0.159375 0.853875
0.000000 0.159375 0.891000
0.000000 0.159375 0.928125
0.000000 0.159375 0.965250
0.000000 0.159375 1.002375
0.000000 0.159375 1.039500
0.000000 0.159375 1.076625
0.000000 0.159375 1.113750
0.000000 0.159375 1.150875
0.000000 0.159375 1.188000
0.000000 0.172125 0.000000
0.000000 0.172125 0.039531
0.000000 0.172125 0.079062
0.000000 0.172125 0.118594
0.000000 0.172125 0.158125
0.000000 0.172125 0.197656
0.000000 0.172125 0.237187
0.000000 0.172125 0.276719
0.000000 0.172125 0.316250
0.000000 0.172125 0.355781
0.000000 0.172125 0.395312
0.000000 0.172125 0.434844
0.000000 0.172125 0.474375
0.000000 0.172125 0.513906
0.000000 0.172125 0.553438
0.000000 0.172125 0.592969
0.000000 0.172125 0.632500
0.000000 0.172125 0.672031
0.000000 0.172125 0.711562
0.000000 0.172125 0.751094
0.000000 0.172125 0.790625
0.000000 0.191250 0.779625
0.000000 0.191250 0.816750
0.000000 0.191250 0.853875
0.000000 0.191250 0.891000
0.000000 0.191250 0.928125
0.000000 0.191250 0.965250
0.000000 0.191250 1.002375
0.000000 0.191250 1.039500
0.000000 0.191250 1.076625
0.000000 0.191250 1.113750
0.000000 0.191250 1.150875
0.000000 0.191250 1.188000
0.000000 0.200813 0.000000
0.000000 0.200813 0.039531
0.000000 0.200813 0.079062
0.000000 0.200813 0.118594
0.000000 0.200813 0.158125
0.000000 0.200813 0.197656
0.000000 0.200813 0.237187
0.000000 0.200813 0.276719
0.000000 0.200813 0.316250
0.000000 0.200813 0.355781
0.000000 0.200813 0.395312
0.000000 0.200813 0.434844
0.000000 0.200813 0.474375
0.000000 0.200813 0.513906
0.000000 0.200813 0.553438
0.000000 0.200813 0.592969
0.000000 0.200813 0.632500
0.000000 0.200813 0.672031
0.000000 0.200813 0.711562
0.000000 0.223125 0.705375
0.000000 0.223125 0.742500
0.000000 0.223125 0.779625
0.000000 0.223125 0.816750
0.000000 0.223125 0.853875
0.000000 0.223125 0.891000
0.000000 0.223125 0.928125
0.000000 0.223125 0.965250
0.000000 0.223125 1.002375
0.000000 0.223125 1.039500
0.000000 0.223125 1.076625
0.000000 0.223125 1.113750
0.000000 0.223125 1.150875
0.000000 0.223125 1.188000
0.000000 0.229500 0.000000
0.000000 0.229500 0.039531
0.000000 0.229500 0.079062
0.000000 0.229500 0.118594
0.000000 0.229500 0.158125
0.000000 0.229500 0.197656
0.000000 0.229500 0.237187
0.000000 0.229500 0.276719
0.000000 0.229500 0.316250
0.000000 0.229500 0.355781
0.000000 0.229500 0.395312
0.000000 0.229500 0.434844
0.000000 0.229500 0.474375
0.000000 0.229500 0.513906
0.000000 0.229500 0.553438
0.000000 0.229500 0.592969
0.000000 0.229500 0.632500
0.000000 0.255000 0.631125
0.000000 0.255000 0.668250
0.000000 0.255000 0.705375
0.000000 0.255000 0.742500
0.000000 0.255000 0.779625
0.000000 0.255000 0.816750
0.000000 0.255000 0.853875
0.000000 0.255000 0.891000
0.000000 0.255000 0.928125
0.000000 0.255000 0.965250
0.000000 0.255000 1.002375
0.000000 0.255000 1.039500
0.000000 0.255000 1.076625
0.000000 0.255000 1.113750
0.000000 0.255000 1.150875
0.000000 0.255000 1.188000
0.000000 0.258188 0.000000
0.000000 0.258188 0.039531
0.000000 0.258188 0.079062
0.000000 0.258188 0.118594
0.000000 0.258188 0.158125
0.000000 0.258188 0.197656
0.000000 0.258188 0.237187
0.000000 0.258188 0.276719
0.000000 0.258188 0.316250
0.000000 0.258188 0.355781
0.000000 0.258188 0.395312
0.000000 0.258188 0.434844
0.000000 0.258188 0.474375
0.000000 0.258188 0.513906
0.000000 0.258188 0.553438
0.000000 0.286875 0.556875
0.000000 0.286875 0.594000
0.000000 0.286875 0.631125
0.000000 0.286875 0.668250
0.000000 0.286875 0.705375
0.000000 0.286875 0.742500
0.000000 0.286875 0.779625
0.000000 0.286875 0.816750
0.000000 0.286875 0.853875
0.000000 0.286875 0.891000
0.000000 0.286875 0.928125
0.000000 0.286875 0.965250
0.000000 0.286875 1.002375
0.000000 0.286875 1.039500
0.000000 0.286875 1.076625
0.000000 0.286875 1.113750
0.000000 0.286875 1.150875
0.000000 0.286875 1.188000
0.000000 0.286875 0.000000
0.000000 0.286875 0.039531
0.000000 0.286875 0.079062
0.000000 0.286875 0.118594
0.000000 0.286875 0.158125
0.000000 0.286875 0.197656
0.000000 0.286875 0.237187
0.000000 0.286875 0.276719
0.000000 0.286875 0.316250
0.000000 0.286875 0.355781
0.000000 0.286875 0.395312
0.000000 0.286875 0.434844
0.000000 0.286875 0.474375
0.000000 0.318750 0.482625
0.000000 0.318750 0.519750
0.000000 0.318750 0.556875
0.000000 0.318750 0.594000
0.000000 0.318750 0.631125
0.000000 0.318750 0.668250
0.000000 0.318750 0.705375
0.000000 0.318750 0.742500
0.000000 0.318750 0.779625
0.000000 0.318750 0.816750
0.000000 0.318750 0.853875
0.000000 0.318750 0.891000
0.000000 0.318750 0.928125
0.000000 0.318750 0.965250
0.000000 0.318750 1.002375
0.000000 0.318750 1.039500
0.000000 0.318750 1.076625
0.000000 0.318750 1.113750
0.000000 0.318750 1.150875
0.000000 0.318750 1.188000
0.000000 0.315563 0.000000
0.000000 0.315563 0.039531
0.000000 0.315563 0.079062
0.000000 0.315563 0.118594
0.000000 0.315563 0.158125
0.000000 0.315563 0.197656
0.000000 0.315563 0.237187
0.000000 0.315563 0.276719
0.000000 0.315563 0.316250
0.000000 0.315563 0.355781
0.000000 0.315563 0.395312
0.000000 0.350625 0.408375
0.000000 0.350625 0.445500
0.000000 0.350625 0.482625
0.000000 0.350625 0.519750
0.000000 0.350625 0.556875
0.000000 0.350625 0.594000
0.000000 0.350625 0.631125
0.000000 0.350625 0.668250
0.000000 0.350625 0.705375
0.000000 0.350625 0.742500
0.000000 0.350625 0.779625
0.000000 0.350625 0.816750
0.000000 0.350625 0.853875
0.000000 0.350625 0.891000
0.000000 0.350625 0.928125
0.000000 0.350625 0.965250
0.000000 0.350625 1.002375
0.000000 0.350625 1.039500
0.000000 0.350625 1.076625
0.000000 0.350625 1.113750
0.000000 0.350625 1.150875
0.000000 0.350625 1.188000
0.000000 0.344250 0.000000
0.000000 0.344250 0.039531
0.000000 0.344250 0.079062
0.000000 0.344250 0.118594
0.000000 0.344250 0.158125
0.000000 0.344250 0.197656
0.000000 0.344250 0.237187
0.000000 0.344250 0.276719
0.000000 0.344250 0.316250
0.000000 0.382500 0.334125
0.000000 0.382500 0.371250
0.000000 0.382500 0.408375
0.000000 0.382500 0.445500
0.000000 0.382500 0.482625
0.000000 0.382500 0.519750
0.000000 0.382500 0.556875
0.000000 0.382500 0.594000
0.000000 0.382500 0.631125
0.000000 0.382500 0.668250
0.000000 0.382500 0.705375
0.000000 0.382500 0.742500
0.000000 0.382500 0.779625
0.000000 0.382500 0.816750
0.000000 0.382500 0.853875
0.000000 0.382500 0.891000
0.000000 0.382500 0.928125
0.000000 0.382500 0.965250
0.000000 0.382500 1.002375
0.000000 0.382500 1.039500
0.000000 0.382500 1.076625
0.000000 0.382500 1.113750
0.000000 0.382500 1.150875
0.000000 0.382500 1.188000
0.000000 0.372937 0.000000
0.000000 0.372937 0.039531
0.000000 0.372937 0.079062
0.000000 0.372937 0.118594
0.000000 0.372937 0.158125
0.000000 0.372937 0.197656
0.000000 0.372937 0.237187
0.000000 0.414375 0.259875
0.000000 0.414375 0.297000
0.000000 0.414375 0.334125
0.000000 0.414375 0.371250
0.000000 0.414375 0.408375
0.000000 0.414375 0.445500
0.000000 0.414375 0.482625
0.000000 0.414375 0.519750
0.000000 0.414375 0.556875
0.000000 0.414375 0.594000
0.000000 0.414375 0.631125
0.000000 0.414375 0.668250
0.000000 0.414375 0.705375
0.000000 0.414375 0.742500
0.000000 0.414375 0.779625
0.000000 0.414375 0.816750
0.000000 0.414375 0.853875
0.000000 0.414375 0.891000
0.000000 0.414375 0.928125
0.000000 0.414375 0.965250
0.000000 0.414375 1.002375
0.000000 0.414375 1.039500
0.000000 0.414375 1.076625
0.000000 0.414375 1.113750
0.000000 0.414375 1.150875
0.000000 0.414375 1.188000
0.000000 0.401625 0.000000
0.000000 0.401625 0.039531
0.000000 0.401625 0.079062
0.000000 0.401625 0.118594
0.000000 0.401625 0.158125
0.000000 0.446250 0.185625
0.000000 0.446250 0.222750
0.000000 0.446250 0.259875
0.000000 0.446250 0.297000
0.000000 0.446250 0.334125
0.000000 0.446250 0.371250
0.000000 0.446250 0.408375
0.000000 0.446250 0.445500
0.000000 0.446250 0.482625
0.000000 0.446250 0.519750
0.000000 0.446250 0.556875
0.000000 0.446250 0.594000
0.000000 0.446250 0.631125
0.000000 0.446250 0.668250
0.000000 0.446250 0.705375
0.000000 0.446250 0.742500
0.000000 0.446250 0.779625
0.000000 0.446250 0.816750
0.000000 0.446250 0.853875
0.000000 0.446250 0.891000
0.000000 0.446250 0.928125
0.000000 0.446250 0.965250
0.000000 0.446250 1.002375
0.000000 0.446250 1.039500
0.000000 0.446250 1.076625
0.000000 0.446250 1.113750
0.000000 0.446250 1.150875
0.000000 0.446250 1.188000
0.000000 0.430313 0.000000
0.000000 0.430313 0.039531
0.000000 0.430313 0.079062
0.000000 0.478125 0.111375
0.000000 0.478125 0.148500
0.000000 0.478125 0.185625
0.000000 0.478125 0.222750
0.000000 0.478125 0.259875
0.000000 0.478125 0.297000
0.000000 0.478125 0.334125
0.000000 0.478125 0.371250
0.000000 0.478125 0.408375
0.000000 0.478125 0.445500
0.000000 0.478125 0.482625
0.000000 0.478125 0.519750
0.000000 0.478125 0.556875
0.000000 0.478125 0.594000
0.000000 0.478125 0.631125
0.000000 0.478125 0.668250
0.000000 0.478125 0.705375
0.000000 0.478125 0.742500
0.000000 0.478125 0.779625
0.000000 0.478125 0.816750
0.000000 0.478125 0.853875
0.000000 0.478125 0.891000
0.000000 0.478125 0.928125
0.000000 0.478125 0.965250
0.000000 0.478125 1.002375
0.000000 0.478125 1.039500
0.000000 0.478125 1.076625
0.000000 0.478125 1.113750
0.000000 0.478125 1.150875
0.000000 0.478125 1.188000
0.000000 0.459000 0.000000
0.000000 0.510000 0.037125
0.000000 0.510000 0.074250
0.000000 0.510000 0.111375
0.000000 0.510000 0.148500
0.000000 0.510000 0.185625
0.000000 0.510000 0.222750
0.000000 0.510000 0.259875
0.000000 0.510000 0.297000
0.000000 0.510000 0.334125
0.000000 0.510000 0.371250
0.000000 0.510000 0.408375
0.000000 0.510000 0.445500
0.000000 0.510000 0.482625
0.000000 0.510000 0.519750
0.000000 0.510000 0.556875
0.000000 0.510000 0.594000
0.000000 0.510000 0.631125
0.000000 0.510000 0.668250
0.000000 0.510000 0.705375
0.000000 0.510000 0.742500
0.000000 0.510000 0.779625
0.000000 0.510000 0.816750
0.000000 0.510000 0.853875
0.000000 0.510000 0.891000
0.000000 0.510000 0.928125
0.000000 0.510000 0.965250
0.000000 0.510000 1.002375
0.000000 0.510000 1.039500
0.000000 0.510000 1.076625
0.000000 0.510000 1.113750
0.000000 0.510000 1.150875
0.000000 0.510000 1.188000
0.000000 0.541875 0.000000
0.000000 0.541875 0.037125
0.000000 0.541875 0.074250
0.000000 0.541875 0.111375
0.000000 0.541875 0.148500
0.000000 0.541875 0.185625
0.000000 0.541875 0.222750
0.000000 0.541875 0.259875
0.000000 0.541875 0.297000
0.000000 0.541875 0.334125
0.000000 0.541875 0.371250
0.000000 0.541875 0.408375
0.000000 0.541875 0.445500
0.000000 0.541875 0.482625
0.000000 0.541875 0.519750
0.000000 0.541875 0.556875
0.000000 0.541875 0.594000
0.000000 0.541875 0.631125
0.000000 0.541875 0.668250
0.000000 0.541875 0.705375
0.000000 0.541875 0.742500
0.000000 0.541875 0.779625
0.000000 0.541875 0.816750
0.000000 0.541875 0.853875
0.000000 0.541875 0.891000
0.000000 0.541875 0.928125
0.000000 0.541875 0.965250
0.000000 0.541875 1.002375
0.000000 0.541875 1.039500
0.000000 0.541875 1.076625
0.000000 0.541875 1.113750
0.000000 0.541875 1.150875
0.000000 0.541875 1.188000
0.000000 0.573750 0.000000
0.000000 0.573750 0.037125
0.000000 0.573750 0.074250
0.000000 0.573750 0.111375
0.000000 0.573750 0.148500
0.000000 0.573750 0.185625
0.000000 0.573750 0.222750
0.000000 0.573750 0.259875
0.000000 0.573750 0.297000
0.000000 0.573750 0.334125
0.000000 0.573750 0.371250
0.000000 0.573750 0.408375
0.000000 0.573750 0.445500
0.000000 0.573750 0.482625
0.000000 0.573750 0.519750
0.000000 0.573750 0.556875
0.000000 0.573750 0.594000
0.000000 0.573750 0.631125
0.000000 0.573750 0.668250
0.000000 0.573750 0.705375
0.000000 0.573750 0.742500
0.000000 0.573750 0.779625
0.000000 0.573750 0.816750
0.000000 0.573750 0.853875
0.000000 0.573750 0.891000
0.000000 0.573750 0.928125
0.000000 0.573750 0.965250
0.000000 0.573750 1.002375
0.000000 0.573750 1.039500
0.000000 0.573750 1.076625
0.000000 0.573750 1.113750
0.000000 0.573750 1.150875
0.000000 0.573750 1.188000
0.000000 0.605625 0.000000
0.000000 0.605625 0.037125
0.000000 0.605625 0.074250
0.000000 0.605625 0.111375
0.000000 0.605625 0.148500
0.000000 0.605625 0.185625
0.000000 0.605625 0.222750
0.000000 0.605625 0.259875
0.000000 0.605625 0.297000
0.000000 0.605625 0.334125
0.000000 0.605625 0.371250
0.000000 0.605625 0.408375
0.000000 0.605625 0.445500
0.000000 0.605625 0.482625
0.000000 0.605625 0.519750
0.000000 0.605625 0.556875
0.000000 0.605625 0.594000
0.000000 0.605625 0.631125
0.000000 0.605625 0.668250
0.000000 0.605625 0.705375
0.000000 0.605625 0.742500
0.000000 0.605625 0.779625
0.000000 0.605625 0.816750
0.000000 0.605625 0.853875
0.000000 0.605625 0.891000
0.000000 0.605625 0.928125
0.000000 0.605625 0.965250
0.000000 0.605625 1.002375
0.000000 0.605625 1.039500
0.000000 0.605625 1.076625
0.000000 0.605625 1.113750
0.000000 0.605625 1.150875
0.000000 0.605625 1.188000
0.000000 0.637500 0.000000
0.000000 0.637500 0.037125
0.000000 0.637500 0.074250
0.000000 0.637500 0.111375
0.000000 0.637500 0.148500
0.000000 0.637500 0.185625
0.000000 0.637500 0.222750
0.000000 0.637500 0.259875
0.000000 0.637500 0.297000
0.000000 0.637500 0.334125
0.000000 0.637500 0.371250
0.000000 0.637500 0.408375
0.000000 0.637500 0.445500
0.000000 0.637500 0.482625
0.000000 0.637500 0.519750
0.000000 0.637500 0.556875
0.000000 0.637500 0.594000
0.000000 0.637500 0.631125
0.000000 0.637500 0.668250
0.000000 0.637500 0.705375
0.000000 0.637500 0.742500
0.000000 0.637500 0.779625
0.000000 0.637500 0.816750
0.000000 0.637500 0.853875
0.000000 0.637500 0.891000
0.000000 0.637500 0.928125
0.000000 0.637500 0.965250
0.000000 0.637500 1.002375
0.000000 0.637500 1.039500
0.000000 0.637500 1.076625
0.000000 0.637500 1.113750
0.000000 0.637500 1.150875
0.000000 0.637500 1.188000
0.000000 0.669375 0.000000
0.000000 0.669375 0.037125
0.000000 0.669375 0.074250
0.000000 0.669375 0.111375
0.000000 0.669375 0.148500
0.000000 0.669375 0.185625
0.000000 0.669375 0.222750
0.000000 0.669375 0.259875
0.000000 0.669375 0.297000
0.000000 0.669375 0.334125
0.000000 0.669375 0.371250
0.000000 0.669375 0.408375
0.000000 0.669375 0.445500
0.000000 0.669375 0.482625
0.000000 0.669375 0.519750
0.000000 0.669375 0.556875
0.000000 0.669375 0.594000
0.000000 0.669375 0.631125
0.000000 0.669375 0.668250
0.000000 0.669375 0.705375
0.000000 0.669375 0.742500
0.000000 0.669375 0.779625
0.000000 0.669375 0.816750
0.000000 0.669375 0.853875
0.000000 0.669375 0.891000
0.000000 0.669375 0.928125
0.000000 0.669375 0.965250
0.000000 0.669375 1.002375
0.000000 0.669375 1.039500
0.000000 0.669375 1.076625
0.000000 0.669375 1.113750
0.000000 0.669375 1.150875
0.000000 0.669375 1.188000
0.000000 0.701250 0.000000
0.000000 0.701250 0.037125
0.000000 0.701250 0.074250
0.000000 0.701250 0.111375
0.000000 0.701250 0.148500
0.000000 0.701250 0.185625
0.000000 0.701250 0.222750
0.000000 0.701250 0.259875
0.000000 0.701250 0.297000
0.000000 0.701250 0.334125
0.000000 0.701250 0.371250
0.000000 0.701250 0.408375
0.000000 0.701250 0.445500
0.000000 0.701250 0.482625
0.000000 0.701250 0.519750
0.000000 0.701250 0.556875
0.000000 0.701250 0.594000
0.000000 0.701250 0.631125
0.000000 0.701250 0.668250
0.000000 0.701250 0.705375
0.000000 0.701250 0.742500
0.000000 0.701250 0.779625
0.000000 0.701250 0.816750
0.000000 0.701250 0.853875
0.000000 0.701250 0.891000
0.000000 0.701250 0.928125
0.000000 0.701250 0.965250
0.000000 0.701250 1.002375
0.000000 0.701250 1.039500
0.000000 0.701250 1.076625
0.000000 0.701250 1.113750
0.000000 0.701250 1.150875
0.000000 0.736313 1.232000
0.000000 0.733125 0.000000
0.000000 0.733125 0.037125
0.000000 0.733125 0.074250
0.000000 0.733125 0.111375
0.000000 0.733125 0.148500
0.000000 0.733125 0.185625
0.000000 0.733125 0.222750
0.000000 0.733125 0.259875
0.000000 0.733125 0.297000
0.000000 0.733125 0.334125
0.000000 0.733125 0.371250
0.000000 0.733125 0.408375
0.000000 0.733125 0.445500
0.000000 0.733125 0.482625
0.000000 0.733125 0.519750
0.000000 0.733125 0.556875
0.000000 0.733125 0.594000
0.000000 0.733125 0.631125
0.000000 0.733125 0.668250
0.000000 0.733125 0.705375
0.000000 0.733125 0.742500
0.000000 0.733125 0.779625
0.000000 0.733125 0.816750
0.000000 0.733125 0.853875
0.000000 0.733125 0.891000
0.000000 0.733125 0.928125
0.000000 0.733125 0.965250
0.000000 0.733125 1.002375
0.000000 0.733125 1.039500
0.000000 0.733125 1.076625
0.000000 0.769781 1.155000
0.000000 0.769781 1.193500
0.000000 0.769781 1.232000
0.000000 0.765000 0.000000
0.000000 0.765000 0.037125
0.000000 0.765000 0.074250
0.000000 0.765000 0.111375
0.000000 0.765000 0.148500
0.000000 0.765000 0.185625
0.000000 0.765000 0.222750
0.000000 0.765000 0.259875
0.000000 0.765000 0.297000
0.000000 0.765000 0.334125
0.000000 0.765000 0.371250
0.000000 0.765000 0.408375
0.000000 0.765000 0.445500
0.000000 0.765000 0.482625
0.000000 0.765000 0.519750
0.000000 0.765000 0.556875
0.000000 0.765000 0.594000
0.000000 0.765000 0.631125
0.000000 0.765000 0.668250
0.000000 0.765000 0.705375
0.000000 0.765000 0.742500
0.000000 0.765000 0.779625
0.000000 0.765000 0.816750
0.000000 0.765000 0.853875
0.000000 0.765000 0.891000
0.000000 0.765000 0.928125
0.000000 0.765000 0.965250
0.000000 0.765000 1.002375
0.000000 0.803250 1.078000
0.000000 0.803250 1.116500
0.000000 0.803250 1.155000
0.000000 0.803250 1.193500
0.000000 0.803250 1.232000
0.000000 0.796875 0.000000
0.000000 0.796875 0.037125
0.000000 0.796875 0.074250
0.000000 0.796875 0.111375
0.000000 0.796875 0.148500
0.000000 0.796875 0.185625
0.000000 0.796875 0.222750
0.000000 0.796875 0.259875
0.000000 0.796875 0.297000
0.000000 0.796875 0.334125
0.000000 0.796875 0.371250
0.000000 0.796875 0.408375
0.000000 0.796875 0.445500
0.000000 0.796875 0.482625
0.000000 0.796875 0.519750
0.000000 0.796875 0.556875
0.000000 0.796875 0.594000
0.000000 0.796875 0.631125
0.000000 0.796875 0.668250
0.000000 0.796875 0.705375
0.000000 0.796875 0.742500
0.000000 0.796875 0.779625
0.000000 0.796875 0.816750
0.000000 0.796875 0.853875
0.000000 0.796875 0.891000
0.000000 0.796875 0.928125
0.000000 0.836719 1.001000
0.000000 0.836719 1.039500
0.000000 0.836719 1.078000
0.000000 0.836719 1.116500
0.000000 0.836719 1.155000
0.000000 0.836719 1.193500
0.000000 0.836719 1.232000
0.000000 0.828750 0.000000
0.000000 0.828750 0.037125
0.000000 0.828750 0.074250
0.000000 0.828750 0.111375
0.000000 0.828750 0.148500
0.000000 0.828750 0.185625
0.000000 0.828750 0.222750
0.000000 0.828750 0.259875
0.000000 0.828750 0.297000
0.000000 0.828750 0.334125
0.000000 0.828750 0.371250
0.000000 0.828750 0.408375
0.000000 0.828750 0.445500
0.000000 0.828750 0.482625
0.000000 0.828750 0.519750
0.000000 0.828750 0.556875
0.000000 0.828750 0.594000
0.000000 0.828750 0.631125
0.000000 0.828750 0.668250
0.000000 0.828750 0.705375
0.000000 0.828750 0.742500
0.000000 0.828750 0.779625
0.000000 0.828750 0.816750
0.000000 0.828750 0.853875
0.000000 0.870188 0.924000
0.000000 0.870188 0.962500
0.000000 0.870188 1.001000
0.000000 0.870188 1.039500
0.000000 0.870188 1.078000
