app/src/main/assets/luts/06_Cool_Blue_Night.cube
TITLE "Cool Blue Night Style"
LUT_3D_SIZE 33
0.000000 0.000000 0.000000
0.000000 0.000000 0.020625
0.000000 0.000000 0.041250
0.000000 0.000000 0.061875
0.000000 0.000000 0.082500
0.000000 0.000000 0.103125
0.000000 0.000000 0.123750
0.000000 0.000000 0.144375
0.000000 0.000000 0.165000
0.000000 0.000000 0.185625
0.000000 0.000000 0.206250
0.000000 0.000000 0.226875
0.000000 0.000000 0.247500
0.000000 0.000000 0.268125
0.000000 0.000000 0.288750
0.000000 0.000000 0.309375
0.000000 0.000000 0.330000
0.000000 0.000000 0.350625
0.000000 0.000000 0.371250
0.000000 0.000000 0.391875
0.000000 0.000000 0.412500
0.000000 0.000000 0.433125
0.000000 0.000000 0.453750
0.000000 0.000000 0.474375
0.000000 0.000000 0.495000
0.000000 0.000000 0.515625
0.000000 0.000000 0.536250
0.000000 0.000000 0.556875
0.000000 0.000000 0.577500
0.000000 0.000000 0.598125
0.000000 0.000000 0.618750
0.000000 0.000000 0.639375
0.000000 0.000000 0.660000
0.000000 0.025234 0.000000
0.000000 0.025234 0.020625
0.000000 0.025234 0.041250
0.000000 0.025234 0.061875
0.000000 0.025234 0.082500
0.000000 0.025234 0.103125
0.000000 0.025234 0.123750
0.000000 0.025234 0.144375
0.000000 0.025234 0.165000
0.000000 0.025234 0.185625
0.000000 0.025234 0.206250
0.000000 0.025234 0.226875
0.000000 0.025234 0.247500
0.000000 0.025234 0.268125
0.000000 0.025234 0.288750
0.000000 0.025234 0.309375
0.000000 0.025234 0.330000
0.000000 0.025234 0.350625
0.000000 0.025234 0.371250
0.000000 0.025234 0.391875
0.000000 0.025234 0.412500
0.000000 0.025234 0.433125
0.000000 0.025234 0.453750
0.000000 0.025234 0.474375
0.000000 0.025234 0.495000
0.000000 0.025234 0.515625
0.000000 0.025234 0.536250
0.000000 0.025234 0.556875
0.000000 0.025234 0.577500
0.000000 0.025234 0.598125
0.000000 0.025234 0.618750
0.000000 0.028203 0.724625
0.000000 0.028203 0.748000
0.000000 0.050469 0.000000
0.000000 0.050469 0.020625
0.000000 0.050469 0.041250
0.000000 0.050469 0.061875
0.000000 0.050469 0.082500
0.000000 0.050469 0.103125
0.000000 0.050469 0.123750
0.000000 0.050469 0.144375
0.000000 0.050469 0.165000
0.000000 0.050469 0.185625
0.000000 0.050469 0.206250
0.000000 0.050469 0.226875
0.000000 0.050469 0.247500
0.000000 0.050469 0.268125
0.000000 0.050469 0.288750
0.000000 0.050469 0.309375
0.000000 0.050469 0.330000
0.000000 0.050469 0.350625
0.000000 0.050469 0.371250
0.000000 0.050469 0.391875
0.000000 0.050469 0.412500
0.000000 0.050469 0.433125
0.000000 0.050469 0.453750
0.000000 0.050469 0.474375
0.000000 0.050469 0.495000
0.000000 0.050469 0.515625
0.000000 0.050469 0.536250
0.000000 0.050469 0.556875
0.000000 0.050469 0.577500
0.000000 0.056406 0.677875
0.000000 0.056406 0.701250
0.000000 0.056406 0.724625
0.000000 0.056406 0.748000
0.000000 0.075703 0.000000
0.000000 0.075703 0.020625
0.000000 0.075703 0.041250
0.000000 0.075703 0.061875
0.000000 0.075703 0.082500
0.000000 0.075703 0.103125
0.000000 0.075703 0.123750
0.000000 0.075703 0.144375
0.000000 0.075703 0.165000
0.000000 0.075703 0.185625
0.000000 0.075703 0.206250
0.000000 0.075703 0.226875
0.000000 0.075703 0.247500
0.000000 0.075703 0.268125
0.000000 0.075703 0.288750
0.000000 0.075703 0.309375
0.000000 0.075703 0.330000
0.000000 0.075703 0.350625
0.000000 0.075703 0.371250
0.000000 0.075703 0.391875
0.000000 0.075703 0.412500
0.000000 0.075703 0.433125
0.000000 0.075703 0.453750
0.000000 0.075703 0.474375
0.000000 0.075703 0.495000
0.000000 0.075703 0.515625
0.000000 0.075703 0.536250
0.000000 0.084609 0.631125
0.000000 0.084609 0.654500
0.000000 0.084609 0.677875
0.000000 0.084609 0.701250
0.000000 0.084609 0.724625
0.000000 0.084609 0.748000
0.000000 0.100937 0.000000
0.000000 0.100937 0.020625
0.000000 0.100937 0.041250
0.000000 0.100937 0.061875
0.000000 0.100937 0.082500
0.000000 0.100937 0.103125
0.000000 0.100937 0.123750
0.000000 0.100937 0.144375
0.000000 0.100937 0.165000
0.000000 0.100937 0.185625
0.000000 0.100937 0.206250
0.000000 0.100937 0.226875
0.000000 0.100937 0.247500
0.000000 0.100937 0.268125
0.000000 0.100937 0.288750
0.000000 0.100937 0.309375
0.000000 0.100937 0.330000
0.000000 0.100937 0.350625
0.000000 0.100937 0.371250
0.000000 0.100937 0.391875
0.000000 0.100937 0.412500
0.000000 0.100937 0.433125
0.000000 0.100937 0.453750
0.000000 0.100937 0.474375
0.000000 0.100937 0.495000
0.000000 0.112812 0.584375
0.000000 0.112812 0.607750
0.000000 0.112812 0.631125
0.000000 0.112812 0.654500
0.000000 0.112812 0.677875
0.000000 0.112812 0.701250
0.000000 0.112812 0.724625
0.000000 0.112812 0.748000
0.000000 0.126172 0.000000
0.000000 0.126172 0.020625
0.000000 0.126172 0.041250
0.000000 0.126172 0.061875
0.000000 0.126172 0.082500
0.000000 0.126172 0.103125
0.000000 0.126172 0.123750
0.000000 0.126172 0.144375
0.000000 0.126172 0.165000
0.000000 0.126172 0.185625
0.000000 0.126172 0.206250
0.000000 0.126172 0.226875
0.000000 0.126172 0.247500
0.000000 0.126172 0.268125
0.000000 0.126172 0.288750
0.000000 0.126172 0.309375
0.000000 0.126172 0.330000
0.000000 0.126172 0.350625
0.000000 0.126172 0.371250
0.000000 0.126172 0.391875
0.000000 0.126172 0.412500
0.000000 0.126172 0.433125
0.000000 0.126172 0.453750
0.000000 0.141016 0.537625
0.000000 0.141016 0.561000
0.000000 0.141016 0.584375
0.000000 0.141016 0.607750
0.000000 0.141016 0.631125
0.000000 0.141016 0.654500
0.000000 0.141016 0.677875
0.000000 0.141016 0.701250
0.000000 0.141016 0.724625
0.000000 0.141016 0.748000
0.000000 0.151406 0.000000
0.000000 0.151406 0.020625
0.000000 0.151406 0.041250
0.000000 0.151406 0.061875
0.000000 0.151406 0.082500
0.000000 0.151406 0.103125
0.000000 0.151406 0.123750
0.000000 0.151406 0.144375
0.000000 0.151406 0.165000
0.000000 0.151406 0.185625
0.000000 0.151406 0.206250
0.000000 0.151406 0.226875
0.000000 0.151406 0.247500
0.000000 0.151406 0.268125
0.000000 0.151406 0.288750
0.000000 0.151406 0.309375
0.000000 0.151406 0.330000
0.000000 0.151406 0.350625
0.000000 0.151406 0.371250
0.000000 0.151406 0.391875
0.000000 0.151406 0.412500
0.000000 0.169219 0.490875
0.000000 0.169219 0.514250
0.000000 0.169219 0.537625
0.000000 0.169219 0.561000
0.000000 0.169219 0.584375
0.000000 0.169219 0.607750
0.000000 0.169219 0.631125
0.000000 0.169219 0.654500
0.000000 0.169219 0.677875
0.000000 0.169219 0.701250
0.000000 0.169219 0.724625
0.000000 0.169219 0.748000
0.000000 0.176641 0.000000
0.000000 0.176641 0.020625
0.000000 0.176641 0.041250
0.000000 0.176641 0.061875
0.000000 0.176641 0.082500
0.000000 0.176641 0.103125
0.000000 0.176641 0.123750
0.000000 0.176641 0.144375
0.000000 0.176641 0.165000
0.000000 0.176641 0.185625
0.000000 0.176641 0.206250
0.000000 0.176641 0.226875
0.000000 0.176641 0.247500
0.000000 0.176641 0.268125
0.000000 0.176641 0.288750
0.000000 0.176641 0.309375
0.000000 0.176641 0.330000
0.000000 0.176641 0.350625
0.000000 0.176641 0.371250
0.000000 0.197422 0.444125
0.000000 0.197422 0.467500
0.000000 0.197422 0.490875
0.000000 0.197422 0.514250
0.000000 0.197422 0.537625
0.000000 0.197422 0.561000
0.000000 0.197422 0.584375
0.000000 0.197422 0.607750
0.000000 0.197422 0.631125
0.000000 0.197422 0.654500
0.000000 0.197422 0.677875
0.000000 0.197422 0.701250
0.000000 0.197422 0.724625
0.000000 0.197422 0.748000
0.000000 0.201875 0.000000
0.000000 0.201875 0.020625
0.000000 0.201875 0.041250
0.000000 0.201875 0.061875
0.000000 0.201875 0.082500
0.000000 0.201875 0.103125
0.000000 0.201875 0.123750
0.000000 0.201875 0.144375
0.000000 0.201875 0.165000
0.000000 0.201875 0.185625
0.000000 0.201875 0.206250
0.000000 0.201875 0.226875
0.000000 0.201875 0.247500
0.000000 0.201875 0.268125
0.000000 0.201875 0.288750
0.000000 0.201875 0.309375
0.000000 0.201875 0.330000
0.000000 0.225625 0.397375
0.000000 0.225625 0.420750
0.000000 0.225625 0.444125
0.000000 0.225625 0.467500
0.000000 0.225625 0.490875
0.000000 0.225625 0.514250
0.000000 0.225625 0.537625
0.000000 0.225625 0.561000
0.000000 0.225625 0.584375
0.000000 0.225625 0.607750
0.000000 0.225625 0.631125
0.000000 0.225625 0.654500
0.000000 0.225625 0.677875
0.000000 0.225625 0.701250
0.000000 0.225625 0.724625
0.000000 0.225625 0.748000
0.000000 0.227109 0.000000
0.000000 0.227109 0.020625
0.000000 0.227109 0.041250
0.000000 0.227109 0.061875
0.000000 0.227109 0.082500
0.000000 0.227109 0.103125
0.000000 0.227109 0.123750
0.000000 0.227109 0.144375
0.000000 0.227109 0.165000
0.000000 0.227109 0.185625
0.000000 0.227109 0.206250
0.000000 0.227109 0.226875
0.000000 0.227109 0.247500
0.000000 0.227109 0.268125
0.000000 0.227109 0.288750
0.000000 0.253828 0.350625
0.000000 0.253828 0.374000
0.000000 0.253828 0.397375
0.000000 0.253828 0.420750
0.000000 0.253828 0.444125
0.000000 0.253828 0.467500
0.000000 0.253828 0.490875
0.000000 0.253828 0.514250
0.000000 0.253828 0.537625
0.000000 0.253828 0.561000
0.000000 0.253828 0.584375
0.000000 0.253828 0.607750
0.000000 0.253828 0.631125
0.000000 0.253828 0.654500
0.000000 0.253828 0.677875
0.000000 0.253828 0.701250
0.000000 0.253828 0.724625
0.000000 0.253828 0.748000
0.000000 0.252344 0.000000
0.000000 0.252344 0.020625
0.000000 0.252344 0.041250
0.000000 0.252344 0.061875
0.000000 0.252344 0.082500
0.000000 0.252344 0.103125
0.000000 0.252344 0.123750
0.000000 0.252344 0.144375
0.000000 0.252344 0.165000
0.000000 0.252344 0.185625
0.000000 0.252344 0.206250
0.000000 0.252344 0.226875
0.000000 0.252344 0.247500
0.000000 0.282031 0.303875
0.000000 0.282031 0.327250
0.000000 0.282031 0.350625
0.000000 0.282031 0.374000
0.000000 0.282031 0.397375
0.000000 0.282031 0.420750
0.000000 0.282031 0.444125
0.000000 0.282031 0.467500
0.000000 0.282031 0.490875
0.000000 0.282031 0.514250
0.000000 0.282031 0.537625
0.000000 0.282031 0.561000
0.000000 0.282031 0.584375
0.000000 0.282031 0.607750
0.000000 0.282031 0.631125
0.000000 0.282031 0.654500
0.000000 0.282031 0.677875
0.000000 0.282031 0.701250
0.000000 0.282031 0.724625
0.000000 0.282031 0.748000
0.000000 0.277578 0.000000
0.000000 0.277578 0.020625
0.000000 0.277578 0.041250
0.000000 0.277578 0.061875
0.000000 0.277578 0.082500
0.000000 0.277578 0.103125
0.000000 0.277578 0.123750
0.000000 0.277578 0.144375
0.000000 0.277578 0.165000
0.000000 0.277578 0.185625
0.000000 0.277578 0.206250
0.000000 0.310234 0.257125
0.000000 0.310234 0.280500
0.000000 0.310234 0.303875
0.000000 0.310234 0.327250
0.000000 0.310234 0.350625
0.000000 0.310234 0.374000
0.000000 0.310234 0.397375
0.000000 0.310234 0.420750
0.000000 0.310234 0.444125
0.000000 0.310234 0.467500
0.000000 0.310234 0.490875
0.000000 0.310234 0.514250
0.000000 0.310234 0.537625
0.000000 0.310234 0.561000
0.000000 0.310234 0.584375
0.000000 0.310234 0.607750
0.000000 0.310234 0.631125
0.000000 0.310234 0.654500
0.000000 0.310234 0.677875
0.000000 0.310234 0.701250
0.000000 0.310234 0.724625
0.000000 0.310234 0.748000
0.000000 0.302812 0.000000
0.000000 0.302812 0.020625
0.000000 0.302812 0.041250
0.000000 0.302812 0.061875
0.000000 0.302812 0.082500
0.000000 0.302812 0.103125
0.000000 0.302812 0.123750
0.000000 0.302812 0.144375
0.000000 0.302812 0.165000
0.000000 0.338437 0.210375
0.000000 0.338437 0.233750
0.000000 0.338437 0.257125
0.000000 0.338437 0.280500
0.000000 0.338437 0.303875
0.000000 0.338437 0.327250
0.000000 0.338437 0.350625
0.000000 0.338437 0.374000
0.000000 0.338437 0.397375
0.000000 0.338437 0.420750
0.000000 0.338437 0.444125
0.000000 0.338437 0.467500
0.000000 0.338437 0.490875
0.000000 0.338437 0.514250
0.000000 0.338437 0.537625
0.000000 0.338437 0.561000
0.000000 0.338437 0.584375
0.000000 0.338437 0.607750
0.000000 0.338437 0.631125
0.000000 0.338437 0.654500
0.000000 0.338437 0.677875
0.000000 0.338437 0.701250
0.000000 0.338437 0.724625
0.000000 0.338437 0.748000
0.000000 0.328047 0.000000
0.000000 0.328047 0.020625
0.000000 0.328047 0.041250
0.000000 0.328047 0.061875
0.000000 0.328047 0.082500
0.000000 0.328047 0.103125
0.000000 0.328047 0.123750
0.000000 0.366641 0.163625
0.000000 0.366641 0.187000
0.000000 0.366641 0.210375
0.000000 0.366641 0.233750
0.000000 0.366641 0.257125
0.000000 0.366641 0.280500
0.000000 0.366641 0.303875
0.000000 0.366641 0.327250
0.000000 0.366641 0.350625
0.000000 0.366641 0.374000
0.000000 0.366641 0.397375
0.000000 0.366641 0.420750
0.000000 0.366641 0.444125
0.000000 0.366641 0.467500
0.000000 0.366641 0.490875
0.000000 0.366641 0.514250
0.000000 0.366641 0.537625
0.000000 0.366641 0.561000
0.000000 0.366641 0.584375
0.000000 0.366641 0.607750
0.000000 0.366641 0.631125
0.000000 0.366641 0.654500
0.000000 0.366641 0.677875
0.000000 0.366641 0.701250
0.000000 0.366641 0.724625
0.000000 0.366641 0.748000
0.000000 0.353281 0.000000
0.000000 0.353281 0.020625
0.000000 0.353281 0.041250
0.000000 0.353281 0.061875
0.000000 0.353281 0.082500
0.000000 0.394844 0.116875
0.000000 0.394844 0.140250
0.000000 0.394844 0.163625
0.000000 0.394844 0.187000
0.000000 0.394844 0.210375
0.000000 0.394844 0.233750
0.000000 0.394844 0.257125
0.000000 0.394844 0.280500
0.000000 0.394844 0.303875
0.000000 0.394844 0.327250
0.000000 0.394844 0.350625
0.000000 0.394844 0.374000
0.000000 0.394844 0.397375
0.000000 0.394844 0.420750
0.000000 0.394844 0.444125
0.000000 0.394844 0.467500
0.000000 0.394844 0.490875
0.000000 0.394844 0.514250
0.000000 0.394844 0.537625
0.000000 0.394844 0.561000
0.000000 0.394844 0.584375
0.000000 0.394844 0.607750
0.000000 0.394844 0.631125
0.000000 0.394844 0.654500
0.000000 0.394844 0.677875
0.000000 0.394844 0.701250
0.000000 0.394844 0.724625
0.000000 0.394844 0.748000
0.000000 0.378516 0.000000
0.000000 0.378516 0.020625
0.000000 0.378516 0.041250
0.000000 0.423047 0.070125
0.000000 0.423047 0.093500
0.000000 0.423047 0.116875
0.000000 0.423047 0.140250
0.000000 0.423047 0.163625
0.000000 0.423047 0.187000
0.000000 0.423047 0.210375
0.000000 0.423047 0.233750
0.000000 0.423047 0.257125
0.000000 0.423047 0.280500
0.000000 0.423047 0.303875
0.000000 0.423047 0.327250
0.000000 0.423047 0.350625
0.000000 0.423047 0.374000
0.000000 0.423047 0.397375
0.000000 0.423047 0.420750
0.000000 0.423047 0.444125
0.000000 0.423047 0.467500
0.000000 0.423047 0.490875
0.000000 0.423047 0.514250
0.000000 0.423047 0.537625
0.000000 0.423047 0.561000
0.000000 0.423047 0.584375
0.000000 0.423047 0.607750
0.000000 0.423047 0.631125
0.000000 0.423047 0.654500
0.000000 0.423047 0.677875
0.000000 0.423047 0.701250
0.000000 0.423047 0.724625
0.000000 0.423047 0.748000
0.000000 0.403750 0.000000
0.000000 0.451250 0.023375
0.000000 0.451250 0.046750
0.000000 0.451250 0.070125
0.000000 0.451250 0.093500
0.000000 0.451250 0.116875
0.000000 0.451250 0.140250
0.000000 0.451250 0.163625
0.000000 0.451250 0.187000
0.000000 0.451250 0.210375
0.000000 0.451250 0.233750
0.000000 0.451250 0.257125
0.000000 0.451250 0.280500
0.000000 0.451250 0.303875
0.000000 0.451250 0.327250
0.000000 0.451250 0.350625
0.000000 0.451250 0.374000
0.000000 0.451250 0.397375
0.000000 0.451250 0.420750
0.000000 0.451250 0.444125
0.000000 0.451250 0.467500
0.000000 0.451250 0.490875
0.000000 0.451250 0.514250
0.000000 0.451250 0.537625
0.000000 0.451250 0.561000
0.000000 0.451250 0.584375
0.000000 0.451250 0.607750
0.000000 0.451250 0.631125
0.000000 0.451250 0.654500
0.000000 0.451250 0.677875
0.000000 0.451250 0.701250
0.000000 0.451250 0.724625
0.000000 0.451250 0.748000
0.000000 0.479453 0.000000
0.000000 0.479453 0.023375
0.000000 0.479453 0.046750
0.000000 0.479453 0.070125
0.000000 0.479453 0.093500
0.000000 0.479453 0.116875
0.000000 0.479453 0.140250
0.000000 0.479453 0.163625
0.000000 0.479453 0.187000
0.000000 0.479453 0.210375
0.000000 0.479453 0.233750
0.000000 0.479453 0.257125
0.000000 0.479453 0.280500
0.000000 0.479453 0.303875
0.000000 0.479453 0.327250
0.000000 0.479453 0.350625
0.000000 0.479453 0.374000
0.000000 0.479453 0.397375
0.000000 0.479453 0.420750
0.000000 0.479453 0.444125
0.000000 0.479453 0.467500
0.000000 0.479453 0.490875
0.000000 0.479453 0.514250
0.000000 0.479453 0.537625
0.000000 0.479453 0.561000
0.000000 0.479453 0.584375
0.000000 0.479453 0.607750
0.000000 0.479453 0.631125
0.000000 0.479453 0.654500
0.000000 0.479453 0.677875
0.000000 0.479453 0.701250
0.000000 0.479453 0.724625
0.000000 0.479453 0.748000
0.000000 0.507656 0.000000
0.000000 0.507656 0.023375
0.000000 0.507656 0.046750
0.000000 0.507656 0.070125
0.000000 0.507656 0.093500
0.000000 0.507656 0.116875
0.000000 0.507656 0.140250
0.000000 0.507656 0.163625
0.000000 0.507656 0.187000
0.000000 0.507656 0.210375
0.000000 0.507656 0.233750
0.000000 0.507656 0.257125
0.000000 0.507656 0.280500
0.000000 0.507656 0.303875
0.000000 0.507656 0.327250
0.000000 0.507656 0.350625
0.000000 0.507656 0.374000
0.000000 0.507656 0.397375
0.000000 0.507656 0.420750
0.000000 0.507656 0.444125
0.000000 0.507656 0.467500
0.000000 0.507656 0.490875
0.000000 0.507656 0.514250
0.000000 0.507656 0.537625
0.000000 0.507656 0.561000
0.000000 0.507656 0.584375
0.000000 0.507656 0.607750
0.000000 0.507656 0.631125
0.000000 0.507656 0.654500
0.000000 0.507656 0.677875
0.000000 0.507656 0.701250
0.000000 0.507656 0.724625
0.000000 0.507656 0.748000
0.000000 0.535859 0.000000
0.000000 0.535859 0.023375
0.000000 0.535859 0.046750
0.000000 0.535859 0.070125
0.000000 0.535859 0.093500
0.000000 0.535859 0.116875
0.000000 0.535859 0.140250
0.000000 0.535859 0.163625
0.000000 0.535859 0.187000
0.000000 0.535859 0.210375
0.000000 0.535859 0.233750
0.000000 0.535859 0.257125
0.000000 0.535859 0.280500
0.000000 0.535859 0.303875
0.000000 0.535859 0.327250
0.000000 0.535859 0.350625
0.000000 0.535859 0.374000
0.000000 0.535859 0.397375
0.000000 0.535859 0.420750
0.000000 0.535859 0.444125
0.000000 0.535859 0.467500
0.000000 0.535859 0.490875
0.000000 0.535859 0.514250
0.000000 0.535859 0.537625
0.000000 0.535859 0.561000
0.000000 0.535859 0.584375
0.000000 0.535859 0.607750
0.000000 0.535859 0.631125
0.000000 0.535859 0.654500
0.000000 0.535859 0.677875
0.000000 0.535859 0.701250
0.000000 0.535859 0.724625
0.000000 0.535859 0.748000
0.000000 0.564063 0.000000
0.000000 0.564063 0.023375
0.000000 0.564063 0.046750
0.000000 0.564063 0.070125
0.000000 0.564063 0.093500
0.000000 0.564063 0.116875
0.000000 0.564063 0.140250
0.000000 0.564063 0.163625
0.000000 0.564063 0.187000
0.000000 0.564063 0.210375
0.000000 0.564063 0.233750
0.000000 0.564063 0.257125
0.000000 0.564063 0.280500
0.000000 0.564063 0.303875
0.000000 0.564063 0.327250
0.000000 0.564063 0.350625
0.000000 0.564063 0.374000
0.000000 0.564063 0.397375
0.000000 0.564063 0.420750
0.000000 0.564063 0.444125
0.000000 0.564063 0.467500
0.000000 0.564063 0.490875
0.000000 0.564063 0.514250
0.000000 0.564063 0.537625
0.000000 0.564063 0.561000
0.000000 0.564063 0.584375
0.000000 0.564063 0.607750
0.000000 0.564063 0.631125
0.000000 0.564063 0.654500
0.000000 0.564063 0.677875
0.000000 0.564063 0.701250
0.000000 0.564063 0.724625
0.000000 0.564063 0.748000
0.000000 0.592266 0.000000
0.000000 0.592266 0.023375
0.000000 0.592266 0.046750
0.000000 0.592266 0.070125
0.000000 0.592266 0.093500
0.000000 0.592266 0.116875
0.000000 0.592266 0.140250
0.000000 0.592266 0.163625
0.000000 0.592266 0.187000
0.000000 0.592266 0.210375
0.000000 0.592266 0.233750
0.000000 0.592266 0.257125
0.000000 0.592266 0.280500
0.000000 0.592266 0.303875
0.000000 0.592266 0.327250
0.000000 0.592266 0.350625
0.000000 0.592266 0.374000
0.000000 0.592266 0.397375
0.000000 0.592266 0.420750
0.000000 0.592266 0.444125
0.000000 0.592266 0.467500
0.000000 0.592266 0.490875
0.000000 0.592266 0.514250
0.000000 0.592266 0.537625
0.000000 0.592266 0.561000
0.000000 0.592266 0.584375
0.000000 0.592266 0.607750
0.000000 0.592266 0.631125
0.000000 0.592266 0.654500
0.000000 0.592266 0.677875
0.000000 0.592266 0.701250
0.000000 0.592266 0.724625
0.000000 0.592266 0.748000
0.000000 0.620469 0.000000
0.000000 0.620469 0.023375
0.000000 0.620469 0.046750
0.000000 0.620469 0.070125
0.000000 0.620469 0.093500
0.000000 0.620469 0.116875
0.000000 0.620469 0.140250
0.000000 0.620469 0.163625
0.000000 0.620469 0.187000
0.000000 0.620469 0.210375
0.000000 0.620469 0.233750
0.000000 0.620469 0.257125
0.000000 0.620469 0.280500
0.000000 0.620469 0.303875
0.000000 0.620469 0.327250
0.000000 0.620469 0.350625
0.000000 0.620469 0.374000
0.000000 0.620469 0.397375
0.000000 0.620469 0.420750
0.000000 0.620469 0.444125
0.000000 0.620469 0.467500
0.000000 0.620469 0.490875
0.000000 0.620469 0.514250
0.000000 0.620469 0.537625
0.000000 0.620469 0.561000
0.000000 0.620469 0.584375
0.000000 0.620469 0.607750
0.000000 0.620469 0.631125
0.000000 0.620469 0.654500
0.000000 0.620469 0.677875
0.000000 0.620469 0.701250
0.000000 0.620469 0.724625
0.000000 0.640062 0.792000
0.000000 0.648672 0.000000
0.000000 0.648672 0.023375
0.000000 0.648672 0.046750
0.000000 0.648672 0.070125
0.000000 0.648672 0.093500
0.000000 0.648672 0.116875
0.000000 0.648672 0.140250
0.000000 0.648672 0.163625
0.000000 0.648672 0.187000
0.000000 0.648672 0.210375
0.000000 0.648672 0.233750
0.000000 0.648672 0.257125
0.000000 0.648672 0.280500
0.000000 0.648672 0.303875
0.000000 0.648672 0.327250
0.000000 0.648672 0.350625
0.000000 0.648672 0.374000
0.000000 0.648672 0.397375
0.000000 0.648672 0.420750
0.000000 0.648672 0.444125
0.000000 0.648672 0.467500
0.000000 0.648672 0.490875
0.000000 0.648672 0.514250
0.000000 0.648672 0.537625
0.000000 0.648672 0.561000
0.000000 0.648672 0.584375
0.000000 0.648672 0.607750
0.000000 0.648672 0.631125
0.000000 0.648672 0.654500
0.000000 0.648672 0.677875
0.000000 0.669156 0.742500
0.000000 0.669156 0.767250
0.000000 0.669156 0.792000
0.000000 0.676875 0.000000
0.000000 0.676875 0.023375
0.000000 0.676875 0.046750
0.000000 0.676875 0.070125
0.000000 0.676875 0.093500
0.000000 0.676875 0.116875
0.000000 0.676875 0.140250
0.000000 0.676875 0.163625
0.000000 0.676875 0.187000
0.000000 0.676875 0.210375
0.000000 0.676875 0.233750
0.000000 0.676875 0.257125
0.000000 0.676875 0.280500
0.000000 0.676875 0.303875
0.000000 0.676875 0.327250
0.000000 0.676875 0.350625
0.000000 0.676875 0.374000
0.000000 0.676875 0.397375
0.000000 0.676875 0.420750
0.000000 0.676875 0.444125
0.000000 0.676875 0.467500
0.000000 0.676875 0.490875
0.000000 0.676875 0.514250
0.000000 0.676875 0.537625
0.000000 0.676875 0.561000
0.000000 0.676875 0.584375
0.000000 0.676875 0.607750
0.000000 0.676875 0.631125
0.000000 0.698250 0.693000
0.000000 0.698250 0.717750
0.000000 0.698250 0.742500
0.000000 0.698250 0.767250
0.000000 0.698250 0.792000
0.000000 0.705078 0.000000
0.000000 0.705078 0.023375
0.000000 0.705078 0.046750
0.000000 0.705078 0.070125
0.000000 0.705078 0.093500
0.000000 0.705078 0.116875
0.000000 0.705078 0.140250
0.000000 0.705078 0.163625
0.000000 0.705078 0.187000
0.000000 0.705078 0.210375
0.000000 0.705078 0.233750
0.000000 0.705078 0.257125
0.000000 0.705078 0.280500
0.000000 0.705078 0.303875
0.000000 0.705078 0.327250
0.000000 0.705078 0.350625
0.000000 0.705078 0.374000
0.000000 0.705078 0.397375
0.000000 0.705078 0.420750
0.000000 0.705078 0.444125
0.000000 0.705078 0.467500
0.000000 0.705078 0.490875
0.000000 0.705078 0.514250
0.000000 0.705078 0.537625
0.000000 0.705078 0.561000
0.000000 0.705078 0.584375
0.000000 0.727344 0.643500
0.000000 0.727344 0.668250
0.000000 0.727344 0.693000
0.000000 0.727344 0.717750
0.000000 0.727344 0.742500
0.000000 0.727344 0.767250
0.000000 0.727344 0.792000
0.000000 0.733281 0.000000
0.000000 0.733281 0.023375
0.000000 0.733281 0.046750
0.000000 0.733281 0.070125
0.000000 0.733281 0.093500
0.000000 0.733281 0.116875
0.000000 0.733281 0.140250
0.000000 0.733281 0.163625
0.000000 0.733281 0.187000
0.000000 0.733281 0.210375
0.000000 0.733281 0.233750
0.000000 0.733281 0.257125
0.000000 0.733281 0.280500
0.000000 0.733281 0.303875
0.000000 0.733281 0.327250
0.000000 0.733281 0.350625
0.000000 0.733281 0.374000
0.000000 0.733281 0.397375
0.000000 0.733281 0.420750
0.000000 0.733281 0.444125
0.000000 0.733281 0.467500
0.000000 0.733281 0.490875
0.000000 0.733281 0.514250
0.000000 0.733281 0.537625
0.000000 0.756437 0.594000
0.000000 0.756437 0.618750
0.000000 0.756437 0.643500
0.000000 0.756437 0.668250
0.000000 0.756437 0.693000
