app/src/main/assets/luts/06_Cool_Blue_Night.cube
TITLE "Cool Blue Night Style"
LUT_3D_SIZE 5
0.000000 0.000000 0.000000
0.000000 0.000000 0.165000
0.000000 0.000000 0.330000
0.000000 0.000000 0.495000
0.000000 0.000000 0.660000
0.000000 0.201875 0.000000
0.000000 0.201875 0.165000
0.000000 0.201875 0.330000
0.000000 0.225625 0.561000
0.000000 0.225625 0.748000
0.000000 0.403750 0.000000
0.000000 0.451250 0.187000
0.000000 0.451250 0.374000
0.000000 0.451250 0.561000
0.000000 0.451250 0.748000
0.000000 0.676875 0.000000
0.000000 0.676875 0.187000
0.000000 0.676875 0.374000
0.000000 0.676875 0.561000
0.000000 0.698250 0.792000
0.000000 0.902500 0.000000
0.000000 0.902500 0.187000
0.000000 0.931000 0.396000
0.000000 0.931000 0.594000
0.000000 0.931000 0.792000
0.336000 0.000000 0.000000
0.336000 0.000000 0.165000
0.336000 0.000000 0.330000
0.336000 0.000000 0.495000
0.308000 0.000000 0.748000
0.336000 0.201875 0.000000
0.336000 0.201875 0.165000
0.308000 0.225625 0.374000
0.308000 0.225625 0.561000
0.308000 0.225625 0.748000
0.308000 0.451250 0.000000
0.308000 0.451250 0.187000
0.308000 0.451250 0.374000
0.308000 0.451250 0.561000
0.308000 0.451250 0.748000
0.308000 0.676875 0.000000
0.308000 0.676875 0.187000
0.308000 0.676875 0.374000
0.308000 0.676875 0.561000
0.302400 0.698250 0.792000
0.308000 0.902500 0.000000
0.308000 0.902500 0.187000
0.302400 0.931000 0.396000
0.302400 0.931000 0.594000
0.302400 0.931000 0.792000
0.672000 0.000000 0.000000
0.672000 0.000000 0.165000
0.672000 0.000000 0.330000
0.672000 0.000000 0.495000
0.616000 0.000000 0.748000
0.672000 0.201875 0.000000
0.672000 0.201875 0.165000
0.616000 0.225625 0.374000
0.616000 0.225625 0.561000
0.616000 0.225625 0.748000
0.616000 0.451250 0.000000
0.616000 0.451250 0.187000
0.616000 0.451250 0.374000
0.616000 0.451250 0.561000
0.616000 0.451250 0.748000
0.616000 0.676875 0.000000
0.616000 0.676875 0.187000
0.616000 0.676875 0.374000
0.604800 0.698250 0.594000
0.604800 0.698250 0.792000
0.616000 0.902500 0.000000
0.604800 0.931000 0.198000
0.604800 0.931000 0.396000
0.604800 0.931000 0.594000
0.604800 0.931000 0.792000
1.008000 0.000000 0.000000
1.008000 0.000000 0.165000
1.008000 0.000000 0.330000
0.924000 0.000000 0.561000
0.924000 0.000000 0.748000
1.008000 0.201875 0.000000
0.924000 0.225625 0.187000
0.924000 0.225625 0.374000
0.924000 0.225625 0.561000
0.924000 0.225625 0.748000
0.924000 0.451250 0.000000
0.924000 0.451250 0.187000
0.924000 0.451250 0.374000
0.924000 0.451250 0.561000
0.924000 0.451250 0.748000
0.924000 0.676875 0.000000
0.924000 0.676875 0.187000
0.924000 0.676875 0.374000
0.907200 0.698250 0.594000
0.907200 0.698250 0.792000
0.924000 0.902500 0.000000
0.907200 0.931000 0.198000
0.907200 0.931000 0.396000
0.907200 0.931000 0.594000
0.907200 0.931000 0.792000
1.344000 0.000000 0.000000
1.344000 0.000000 0.165000
1.344000 0.000000 0.330000
1.232000 0.000000 0.561000
1.232000 0.000000 0.748000
1.344000 0.201875 0.000000
1.232000 0.225625 0.187000
1.232000 0.225625 0.374000
1.232000 0.225625 0.561000
1.232000 0.225625 0.748000
1.232000 0.451250 0.000000
1.232000 0.451250 0.187000
1.232000 0.451250 0.374000
1.232000 0.451250 0.561000
1.209600 0.465500 0.792000
1.232000 0.676875 0.000000
1.232000 0.676875 0.187000
1.209600 0.698250 0.396000
1.209600 0.698250 0.594000
1.209600 0.698250 0.792000
1.209600 0.931000 0.000000
1.209600 0.931000 0.198000
1.209600 0.931000 0.396000
1.209600 0.931000 0.594000
1.209600 0.931000 0.792000
