app/src/main/assets/luts/06_Cool_Blue_Night.cube
TITLE "Cool Blue Night Style"
LUT_3D_SIZE 9
0.000000 0.000000 0.000000
0.000000 0.000000 0.082500
0.000000 0.000000 0.165000
0.000000 0.000000 0.247500
0.000000 0.000000 0.330000
0.000000 0.000000 0.412500
0.000000 0.000000 0.495000
0.000000 0.000000 0.577500
0.000000 0.000000 0.660000
0.000000 0.100937 0.000000
0.000000 0.100937 0.082500
0.000000 0.100937 0.165000
0.000000 0.100937 0.247500
0.000000 0.100937 0.330000
0.000000 0.100937 0.412500
0.000000 0.100937 0.495000
0.000000 0.112812 0.654500
0.000000 0.112812 0.748000
0.000000 0.201875 0.000000
0.000000 0.201875 0.082500
0.000000 0.201875 0.165000
0.000000 0.201875 0.247500
0.000000 0.201875 0.330000
0.000000 0.225625 0.467500
0.000000 0.225625 0.561000
0.000000 0.225625 0.654500
0.000000 0.225625 0.748000
0.000000 0.302812 0.000000
0.000000 0.302812 0.082500
0.000000 0.302812 0.165000
0.000000 0.338437 0.280500
0.000000 0.338437 0.374000
0.000000 0.338437 0.467500
0.000000 0.338437 0.561000
0.000000 0.338437 0.654500
0.000000 0.338437 0.748000
0.000000 0.403750 0.000000
0.000000 0.451250 0.093500
0.000000 0.451250 0.187000
0.000000 0.451250 0.280500
0.000000 0.451250 0.374000
0.000000 0.451250 0.467500
0.000000 0.451250 0.561000
0.000000 0.451250 0.654500
0.000000 0.451250 0.748000
0.000000 0.564063 0.000000
0.000000 0.564063 0.093500
0.000000 0.564063 0.187000
0.000000 0.564063 0.280500
0.000000 0.564063 0.374000
0.000000 0.564063 0.467500
0.000000 0.564063 0.561000
0.000000 0.564063 0.654500
0.000000 0.564063 0.748000
0.000000 0.676875 0.000000
0.000000 0.676875 0.093500
0.000000 0.676875 0.187000
0.000000 0.676875 0.280500
0.000000 0.676875 0.374000
0.000000 0.676875 0.467500
0.000000 0.676875 0.561000
0.000000 0.698250 0.693000
0.000000 0.698250 0.792000
0.000000 0.789687 0.000000
0.000000 0.789687 0.093500
0.000000 0.789687 0.187000
0.000000 0.789687 0.280500
0.000000 0.789687 0.374000
0.000000 0.814625 0.495000
0.000000 0.814625 0.594000
0.000000 0.814625 0.693000
0.000000 0.814625 0.792000
0.000000 0.902500 0.000000
0.000000 0.902500 0.093500
0.000000 0.902500 0.187000
0.000000 0.902500 0.280500
0.000000 0.931000 0.396000
0.000000 0.931000 0.495000
0.000000 0.931000 0.594000
0.000000 0.931000 0.693000
0.000000 0.931000 0.792000
0.168000 0.000000 0.000000
0.168000 0.000000 0.082500
0.168000 0.000000 0.165000
0.168000 0.000000 0.247500
0.168000 0.000000 0.330000
0.168000 0.000000 0.412500
0.168000 0.000000 0.495000
0.168000 0.000000 0.577500
0.154000 0.000000 0.748000
0.168000 0.100937 0.000000
0.168000 0.100937 0.082500
0.168000 0.100937 0.165000
0.168000 0.100937 0.247500
0.168000 0.100937 0.330000
0.168000 0.100937 0.412500
0.154000 0.112812 0.561000
0.154000 0.112812 0.654500
0.154000 0.112812 0.748000
0.168000 0.201875 0.000000
0.168000 0.201875 0.082500
0.168000 0.201875 0.165000
0.168000 0.201875 0.247500
0.154000 0.225625 0.374000
0.154000 0.225625 0.467500
0.154000 0.225625 0.561000
0.154000 0.225625 0.654500
0.154000 0.225625 0.748000
0.168000 0.302812 0.000000
0.168000 0.302812 0.082500
0.154000 0.338437 0.187000
0.154000 0.338437 0.280500
0.154000 0.338437 0.374000
0.154000 0.338437 0.467500
0.154000 0.338437 0.561000
0.154000 0.338437 0.654500
0.154000 0.338437 0.748000
0.154000 0.451250 0.000000
0.154000 0.451250 0.093500
0.154000 0.451250 0.187000
0.154000 0.451250 0.280500
0.154000 0.451250 0.374000
0.154000 0.451250 0.467500
0.154000 0.451250 0.561000
0.154000 0.451250 0.654500
0.154000 0.451250 0.748000
0.154000 0.564063 0.000000
0.154000 0.564063 0.093500
0.154000 0.564063 0.187000
0.154000 0.564063 0.280500
0.154000 0.564063 0.374000
0.154000 0.564063 0.467500
0.154000 0.564063 0.561000
0.154000 0.564063 0.654500
0.154000 0.564063 0.748000
0.154000 0.676875 0.000000
0.154000 0.676875 0.093500
0.154000 0.676875 0.187000
0.154000 0.676875 0.280500
0.154000 0.676875 0.374000
0.154000 0.676875 0.467500
0.154000 0.676875 0.561000
0.151200 0.698250 0.693000
0.151200 0.698250 0.792000
0.154000 0.789687 0.000000
0.154000 0.789687 0.093500
0.154000 0.789687 0.187000
0.154000 0.789687 0.280500
0.154000 0.789687 0.374000
0.151200 0.814625 0.495000
0.151200 0.814625 0.594000
0.151200 0.814625 0.693000
0.151200 0.814625 0.792000
0.154000 0.902500 0.000000
0.154000 0.902500 0.093500
0.154000 0.902500 0.187000
0.151200 0.931000 0.297000
0.151200 0.931000 0.396000
0.151200 0.931000 0.495000
0.151200 0.931000 0.594000
0.151200 0.931000 0.693000
0.151200 0.931000 0.792000
0.336000 0.000000 0.000000
0.336000 0.000000 0.082500
0.336000 0.000000 0.165000
0.336000 0.000000 0.247500
0.336000 0.000000 0.330000
0.336000 0.000000 0.412500
0.336000 0.000000 0.495000
0.336000 0.000000 0.577500
0.308000 0.000000 0.748000
0.336000 0.100937 0.000000
0.336000 0.100937 0.082500
0.336000 0.100937 0.165000
0.336000 0.100937 0.247500
0.336000 0.100937 0.330000
0.336000 0.100937 0.412500
0.308000 0.112812 0.561000
0.308000 0.112812 0.654500
0.308000 0.112812 0.748000
0.336000 0.201875 0.000000
0.336000 0.201875 0.082500
0.336000 0.201875 0.165000
0.336000 0.201875 0.247500
0.308000 0.225625 0.374000
0.308000 0.225625 0.467500
0.308000 0.225625 0.561000
0.308000 0.225625 0.654500
0.308000 0.225625 0.748000
0.336000 0.302812 0.000000
0.336000 0.302812 0.082500
0.308000 0.338437 0.187000
0.308000 0.338437 0.280500
0.308000 0.338437 0.374000
0.308000 0.338437 0.467500
0.308000 0.338437 0.561000
0.308000 0.338437 0.654500
0.308000 0.338437 0.748000
0.308000 0.451250 0.000000
0.308000 0.451250 0.093500
0.308000 0.451250 0.187000
0.308000 0.451250 0.280500
0.308000 0.451250 0.374000
0.308000 0.451250 0.467500
0.308000 0.451250 0.561000
0.308000 0.451250 0.654500
0.308000 0.451250 0.748000
0.308000 0.564063 0.000000
0.308000 0.564063 0.093500
0.308000 0.564063 0.187000
0.308000 0.564063 0.280500
0.308000 0.564063 0.374000
0.308000 0.564063 0.467500
0.308000 0.564063 0.561000
0.308000 0.564063 0.654500
0.308000 0.564063 0.748000
0.308000 0.676875 0.000000
0.308000 0.676875 0.093500
0.308000 0.676875 0.187000
0.308000 0.676875 0.280500
0.308000 0.676875 0.374000
0.308000 0.676875 0.467500
0.308000 0.676875 0.561000
0.302400 0.698250 0.693000
0.302400 0.698250 0.792000
0.308000 0.789687 0.000000
0.308000 0.789687 0.093500
0.308000 0.789687 0.187000
0.308000 0.789687 0.280500
0.308000 0.789687 0.374000
0.302400 0.814625 0.495000
0.302400 0.814625 0.594000
0.302400 0.814625 0.693000
0.302400 0.814625 0.792000
0.308000 0.902500 0.000000
0.308000 0.902500 0.093500
0.308000 0.902500 0.187000
0.302400 0.931000 0.297000
0.302400 0.931000 0.396000
0.302400 0.931000 0.495000
0.302400 0.931000 0.594000
0.302400 0.931000 0.693000
0.302400 0.931000 0.792000
0.504000 0.000000 0.000000
0.504000 0.000000 0.082500
0.504000 0.000000 0.165000
0.504000 0.000000 0.247500
0.504000 0.000000 0.330000
0.504000 0.000000 0.412500
0.504000 0.000000 0.495000
0.462000 0.000000 0.654500
0.462000 0.000000 0.748000
0.504000 0.100937 0.000000
0.504000 0.100937 0.082500
0.504000 0.100937 0.165000
0.504000 0.100937 0.247500
0.504000 0.100937 0.330000
0.462000 0.112812 0.467500
0.462000 0.112812 0.561000
0.462000 0.112812 0.654500
0.462000 0.112812 0.748000
0.504000 0.201875 0.000000
0.504000 0.201875 0.082500
0.504000 0.201875 0.165000
0.462000 0.225625 0.280500
0.462000 0.225625 0.374000
0.462000 0.225625 0.467500
0.462000 0.225625 0.561000
0.462000 0.225625 0.654500
0.462000 0.225625 0.748000
0.504000 0.302812 0.000000
0.462000 0.338437 0.093500
0.462000 0.338437 0.187000
0.462000 0.338437 0.280500
0.462000 0.338437 0.374000
0.462000 0.338437 0.467500
0.462000 0.338437 0.561000
0.462000 0.338437 0.654500
0.462000 0.338437 0.748000
0.462000 0.451250 0.000000
0.462000 0.451250 0.093500
0.462000 0.451250 0.187000
0.462000 0.451250 0.280500
0.462000 0.451250 0.374000
0.462000 0.451250 0.467500
0.462000 0.451250 0.561000
0.462000 0.451250 0.654500
0.462000 0.451250 0.748000
0.462000 0.564063 0.000000
0.462000 0.564063 0.093500
0.462000 0.564063 0.187000
0.462000 0.564063 0.280500
0.462000 0.564063 0.374000
0.462000 0.564063 0.467500
0.462000 0.564063 0.561000
0.462000 0.564063 0.654500
0.453600 0.581875 0.792000
0.462000 0.676875 0.000000
0.462000 0.676875 0.093500
0.462000 0.676875 0.187000
0.462000 0.676875 0.280500
0.462000 0.676875 0.374000
0.462000 0.676875 0.467500
0.453600 0.698250 0.594000
0.453600 0.698250 0.693000
0.453600 0.698250 0.792000
0.462000 0.789687 0.000000
0.462000 0.789687 0.093500
0.462000 0.789687 0.187000
0.462000 0.789687 0.280500
0.453600 0.814625 0.396000
0.453600 0.814625 0.495000
0.453600 0.814625 0.594000
0.453600 0.814625 0.693000
0.453600 0.814625 0.792000
0.462000 0.902500 0.000000
0.462000 0.902500 0.093500
0.453600 0.931000 0.198000
0.453600 0.931000 0.297000
0.453600 0.931000 0.396000
0.453600 0.931000 0.495000
0.453600 0.931000 0.594000
0.453600 0.931000 0.693000
0.453600 0.931000 0.792000
0.672000 0.000000 0.000000
0.672000 0.000000 0.082500
0.672000 0.000000 0.165000
0.672000 0.000000 0.247500
0.672000 0.000000 0.330000
0.672000 0.000000 0.412500
0.672000 0.000000 0.495000
0.616000 0.000000 0.654500
0.616000 0.000000 0.748000
0.672000 0.100937 0.000000
0.672000 0.100937 0.082500
0.672000 0.100937 0.165000
0.672000 0.100937 0.247500
0.672000 0.100937 0.330000
0.616000 0.112812 0.467500
0.616000 0.112812 0.561000
0.616000 0.112812 0.654500
0.616000 0.112812 0.748000
0.672000 0.201875 0.000000
0.672000 0.201875 0.082500
0.672000 0.201875 0.165000
0.616000 0.225625 0.280500
0.616000 0.225625 0.374000
0.616000 0.225625 0.467500
0.616000 0.225625 0.561000
0.616000 0.225625 0.654500
0.616000 0.225625 0.748000
0.672000 0.302812 0.000000
0.616000 0.338437 0.093500
0.616000 0.338437 0.187000
0.616000 0.338437 0.280500
0.616000 0.338437 0.374000
0.616000 0.338437 0.467500
0.616000 0.338437 0.561000
0.616000 0.338437 0.654500
0.616000 0.338437 0.748000
0.616000 0.451250 0.000000
0.616000 0.451250 0.093500
0.616000 0.451250 0.187000
0.616000 0.451250 0.280500
0.616000 0.451250 0.374000
0.616000 0.451250 0.467500
0.616000 0.451250 0.561000
0.616000 0.451250 0.654500
0.616000 0.451250 0.748000
0.616000 0.564063 0.000000
0.616000 0.564063 0.093500
0.616000 0.564063 0.187000
0.616000 0.564063 0.280500
0.616000 0.564063 0.374000
0.616000 0.564063 0.467500
0.616000 0.564063 0.561000
0.616000 0.564063 0.654500
0.604800 0.581875 0.792000
0.616000 0.676875 0.000000
0.616000 0.676875 0.093500
0.616000 0.676875 0.187000
0.616000 0.676875 0.280500
0.616000 0.676875 0.374000
0.616000 0.676875 0.467500
0.604800 0.698250 0.594000
0.604800 0.698250 0.693000
0.604800 0.698250 0.792000
0.616000 0.789687 0.000000
0.616000 0.789687 0.093500
0.616000 0.789687 0.187000
0.616000 0.789687 0.280500
0.604800 0.814625 0.396000
0.604800 0.814625 0.495000
0.604800 0.814625 0.594000
0.604800 0.814625 0.693000
0.604800 0.814625 0.792000
0.616000 0.902500 0.000000
0.616000 0.902500 0.093500
0.604800 0.931000 0.198000
0.604800 0.931000 0.297000
0.604800 0.931000 0.396000
0.604800 0.931000 0.495000
0.604800 0.931000 0.594000
0.604800 0.931000 0.693000
0.604800 0.931000 0.792000
0.840000 0.000000 0.000000
0.840000 0.000000 0.082500
0.840000 0.000000 0.165000
0.840000 0.000000 0.247500
0.840000 0.000000 0.330000
0.840000 0.000000 0.412500
0.840000 0.000000 0.495000
0.770000 0.000000 0.654500
0.770000 0.000000 0.748000
0.840000 0.100937 0.000000
0.840000 0.100937 0.082500
0.840000 0.100937 0.165000
0.840000 0.100937 0.247500
0.840000 0.100937 0.330000
0.770000 0.112812 0.467500
0.770000 0.112812 0.561000
0.770000 0.112812 0.654500
0.770000 0.112812 0.748000
0.840000 0.201875 0.000000
0.840000 0.201875 0.082500
0.840000 0.201875 0.165000
0.770000 0.225625 0.280500
0.770000 0.225625 0.374000
0.770000 0.225625 0.467500
0.770000 0.225625 0.561000
0.770000 0.225625 0.654500
0.770000 0.225625 0.748000
0.840000 0.302812 0.000000
0.770000 0.338437 0.093500
0.770000 0.338437 0.187000
0.770000 0.338437 0.280500
0.770000 0.338437 0.374000
0.770000 0.338437 0.467500
0.770000 0.338437 0.561000
0.770000 0.338437 0.654500
0.770000 0.338437 0.748000
0.770000 0.451250 0.000000
0.770000 0.451250 0.093500
0.770000 0.451250 0.187000
0.770000 0.451250 0.280500
0.770000 0.451250 0.374000
0.770000 0.451250 0.467500
0.770000 0.451250 0.561000
0.770000 0.451250 0.654500
0.770000 0.451250 0.748000
0.770000 0.564063 0.000000
0.770000 0.564063 0.093500
0.770000 0.564063 0.187000
0.770000 0.564063 0.280500
0.770000 0.564063 0.374000
0.770000 0.564063 0.467500
0.770000 0.564063 0.561000
0.770000 0.564063 0.654500
0.756000 0.581875 0.792000
0.770000 0.676875 0.000000
0.770000 0.676875 0.093500
0.770000 0.676875 0.187000
0.770000 0.676875 0.280500
0.770000 0.676875 0.374000
0.770000 0.676875 0.467500
0.756000 0.698250 0.594000
0.756000 0.698250 0.693000
0.756000 0.698250 0.792000
0.770000 0.789687 0.000000
0.770000 0.789687 0.093500
0.770000 0.789687 0.187000
0.770000 0.789687 0.280500
0.756000 0.814625 0.396000
0.756000 0.814625 0.495000
0.756000 0.814625 0.594000
0.756000 0.814625 0.693000
0.756000 0.814625 0.792000
0.770000 0.902500 0.000000
0.770000 0.902500 0.093500
0.756000 0.931000 0.198000
0.756000 0.931000 0.297000
0.756000 0.931000 0.396000
0.756000 0.931000 0.495000
0.756000 0.931000 0.594000
0.756000 0.931000 0.693000
0.756000 0.931000 0.792000
1.008000 0.000000 0.000000
1.008000 0.000000 0.082500
1.008000 0.000000 0.165000
1.008000 0.000000 0.247500
1.008000 0.000000 0.330000
1.008000 0.000000 0.412500
0.924000 0.000000 0.561000
0.924000 0.000000 0.654500
0.924000 0.000000 0.748000
1.008000 0.100937 0.000000
1.008000 0.100937 0.082500
1.008000 0.100937 0.165000
1.008000 0.100937 0.247500
0.924000 0.112812 0.374000
0.924000 0.112812 0.467500
0.924000 0.112812 0.561000
0.924000 0.112812 0.654500
0.924000 0.112812 0.748000
1.008000 0.201875 0.000000
1.008000 0.201875 0.082500
0.924000 0.225625 0.187000
0.924000 0.225625 0.280500
0.924000 0.225625 0.374000
0.924000 0.225625 0.467500
0.924000 0.225625 0.561000
0.924000 0.225625 0.654500
0.924000 0.225625 0.748000
0.924000 0.338437 0.000000
0.924000 0.338437 0.093500
0.924000 0.338437 0.187000
0.924000 0.338437 0.280500
0.924000 0.338437 0.374000
0.924000 0.338437 0.467500
0.924000 0.338437 0.561000
0.924000 0.338437 0.654500
0.924000 0.338437 0.748000
0.924000 0.451250 0.000000
0.924000 0.451250 0.093500
0.924000 0.451250 0.187000
0.924000 0.451250 0.280500
0.924000 0.451250 0.374000
0.924000 0.451250 0.467500
0.924000 0.451250 0.561000
0.924000 0.451250 0.654500
0.924000 0.451250 0.748000
0.924000 0.564063 0.000000
0.924000 0.564063 0.093500
0.924000 0.564063 0.187000
0.924000 0.564063 0.280500
0.924000 0.564063 0.374000
0.924000 0.564063 0.467500
0.924000 0.564063 0.561000
0.907200 0.581875 0.693000
0.907200 0.581875 0.792000
0.924000 0.676875 0.000000
0.924000 0.676875 0.093500
0.924000 0.676875 0.187000
0.924000 0.676875 0.280500
0.924000 0.676875 0.374000
0.907200 0.698250 0.495000
0.907200 0.698250 0.594000
0.907200 0.698250 0.693000
0.907200 0.698250 0.792000
0.924000 0.789687 0.000000
0.924000 0.789687 0.093500
0.924000 0.789687 0.187000
0.907200 0.814625 0.297000
0.907200 0.814625 0.396000
0.907200 0.814625 0.495000
0.907200 0.814625 0.594000
0.907200 0.814625 0.693000
0.907200 0.814625 0.792000
0.924000 0.902500 0.000000
0.907200 0.931000 0.099000
0.907200 0.931000 0.198000
0.907200 0.931000 0.297000
0.907200 0.931000 0.396000
0.907200 0.931000 0.495000
0.907200 0.931000 0.594000
0.907200 0.931000 0.693000
0.907200 0.931000 0.792000
1.176000 0.000000 0.000000
1.176000 0.000000 0.082500
1.176000 0.000000 0.165000
1.176000 0.000000 0.247500
1.176000 0.000000 0.330000
1.176000 0.000000 0.412500
1.078000 0.000000 0.561000
1.078000 0.000000 0.654500
1.078000 0.000000 0.748000
1.176000 0.100937 0.000000
1.176000 0.100937 0.082500
1.176000 0.100937 0.165000
1.176000 0.100937 0.247500
1.078000 0.112812 0.374000
1.078000 0.112812 0.467500
1.078000 0.112812 0.561000
1.078000 0.112812 0.654500
1.078000 0.112812 0.748000
1.176000 0.201875 0.000000
1.176000 0.201875 0.082500
1.078000 0.225625 0.187000
1.078000 0.225625 0.280500
1.078000 0.225625 0.374000
1.078000 0.225625 0.467500
1.078000 0.225625 0.561000
1.078000 0.225625 0.654500
1.078000 0.225625 0.748000
1.078000 0.338437 0.000000
1.078000 0.338437 0.093500
1.078000 0.338437 0.187000
1.078000 0.338437 0.280500
1.078000 0.338437 0.374000
1.078000 0.338437 0.467500
1.078000 0.338437 0.561000
1.078000 0.338437 0.654500
1.078000 0.338437 0.748000
1.078000 0.451250 0.000000
1.078000 0.451250 0.093500
1.078000 0.451250 0.187000
1.078000 0.451250 0.280500
1.078000 0.451250 0.374000
1.078000 0.451250 0.467500
1.078000 0.451250 0.561000
1.078000 0.451250 0.654500
1.078000 0.451250 0.748000
1.078000 0.564063 0.000000
1.078000 0.564063 0.093500
1.078000 0.564063 0.187000
1.078000 0.564063 0.280500
1.078000 0.564063 0.374000
1.078000 0.564063 0.467500
1.078000 0.564063 0.561000
1.058400 0.581875 0.693000
1.058400 0.581875 0.792000
1.078000 0.676875 0.000000
1.078000 0.676875 0.093500
1.078000 0.676875 0.187000
1.078000 0.676875 0.280500
1.078000 0.676875 0.374000
1.058400 0.698250 0.495000
1.058400 0.698250 0.594000
1.058400 0.698250 0.693000
1.058400 0.698250 0.792000
1.078000 0.789687 0.000000
1.078000 0.789687 0.093500
1.078000 0.789687 0.187000
1.058400 0.814625 0.297000
1.058400 0.814625 0.396000
1.058400 0.814625 0.495000
1.058400 0.814625 0.594000
1.058400 0.814625 0.693000
1.058400 0.814625 0.792000
1.078000 0.902500 0.000000
1.058400 0.931000 0.099000
1.058400 0.931000 0.198000
1.058400 0.931000 0.297000
1.058400 0.931000 0.396000
1.058400 0.931000 0.495000
1.058400 0.931000 0.594000
1.058400 0.931000 0.693000
1.058400 0.931000 0.792000
1.344000 0.000000 0.000000
1.344000 0.000000 0.082500
1.344000 0.000000 0.165000
1.344000 0.000000 0.247500
1.344000 0.000000 0.330000
1.232000 0.000000 0.467500
1.232000 0.000000 0.561000
1.232000 0.000000 0.654500
1.232000 0.000000 0.748000
1.344000 0.100937 0.000000
1.344000 0.100937 0.082500
1.344000 0.100937 0.165000
1.344000 0.100937 0.247500
1.232000 0.112812 0.374000
1.232000 0.112812 0.467500
1.232000 0.112812 0.561000
1.232000 0.112812 0.654500
1.232000 0.112812 0.748000
1.344000 0.201875 0.000000
1.344000 0.201875 0.082500
1.232000 0.225625 0.187000
1.232000 0.225625 0.280500
1.232000 0.225625 0.374000
1.232000 0.225625 0.467500
1.232000 0.225625 0.561000
1.232000 0.225625 0.654500
1.232000 0.225625 0.748000
1.232000 0.338437 0.000000
1.232000 0.338437 0.093500
1.232000 0.338437 0.187000
1.232000 0.338437 0.280500
1.232000 0.338437 0.374000
1.232000 0.338437 0.467500
1.232000 0.338437 0.561000
1.232000 0.338437 0.654500
1.232000 0.338437 0.748000
1.232000 0.451250 0.000000
1.232000 0.451250 0.093500
1.232000 0.451250 0.187000
1.232000 0.451250 0.280500
1.232000 0.451250 0.374000
1.232000 0.451250 0.467500
1.232000 0.451250 0.561000
1.232000 0.451250 0.654500
1.209600 0.465500 0.792000
1.232000 0.564063 0.000000
1.232000 0.564063 0.093500
1.232000 0.564063 0.187000
1.232000 0.564063 0.280500
1.232000 0.564063 0.374000
1.232000 0.564063 0.467500
1.209600 0.581875 0.594000
1.209600 0.581875 0.693000
1.209600 0.581875 0.792000
1.232000 0.676875 0.000000
1.232000 0.676875 0.093500
1.232000 0.676875 0.187000
1.232000 0.676875 0.280500
1.209600 0.698250 0.396000
1.209600 0.698250 0.495000
1.209600 0.698250 0.594000
1.209600 0.698250 0.693000
1.209600 0.698250 0.792000
1.232000 0.789687 0.000000
1.232000 0.789687 0.093500
1.209600 0.814625 0.198000
1.209600 0.814625 0.297000
1.209600 0.814625 0.396000
1.209600 0.814625 0.495000
1.209600 0.814625 0.594000
1.209600 0.814625 0.693000
1.209600 0.814625 0.792000
1.209600 0.931000 0.000000
1.209600 0.931000 0.099000
1.209600 0.931000 0.198000
1.209600 0.931000 0.297000
1.209600 0.931000 0.396000
1.209600 0.931000 0.495000
1.209600 0.931000 0.594000
1.209600 0.931000 0.693000
1.209600 0.931000 0.792000
