app/src/main/assets/luts/07_Vintage_Film.cube
TITLE "Vintage Film Style"
LUT_3D_SIZE 33
0.082297 0.126439 0.108895
0.082297 0.126439 0.137803
0.082297 0.126439 0.166394
0.082297 0.126439 0.194726
0.082297 0.126439 0.222843
0.082297 0.126439 0.250773
0.082297 0.126439 0.278541
0.082297 0.126439 0.306163
0.082297 0.126439 0.333654
0.082297 0.126439 0.361027
0.082297 0.126439 0.388291
0.082297 0.126439 0.415454
0.082297 0.126439 0.442524
0.082297 0.126439 0.469507
0.082297 0.126439 0.496409
0.082297 0.126439 0.523234
0.082297 0.126439 0.549987
0.082297 0.126439 0.576671
0.082297 0.126439 0.603291
0.082297 0.126439 0.629849
0.082297 0.126439 0.656348
0.082297 0.126439 0.682791
0.082297 0.126439 0.709180
0.082297 0.126439 0.735518
0.082297 0.126439 0.761806
0.082297 0.126439 0.788046
0.082297 0.126439 0.814240
0.082297 0.126439 0.840391
0.082297 0.126439 0.866498
0.082297 0.126439 0.892564
0.082297 0.126439 0.918590
0.082297 0.126439 0.944577
0.082297 0.126439 0.970527
0.082297 0.160005 0.108895
0.082297 0.160005 0.137803
0.082297 0.160005 0.166394
0.082297 0.160005 0.194726
0.082297 0.160005 0.222843
0.082297 0.160005 0.250773
0.082297 0.160005 0.278541
0.082297 0.160005 0.306163
0.082297 0.160005 0.333654
0.082297 0.160005 0.361027
0.082297 0.160005 0.388291
0.082297 0.160005 0.415454
0.082297 0.160005 0.442524
0.082297 0.160005 0.469507
0.082297 0.160005 0.496409
0.082297 0.160005 0.523234
0.082297 0.160005 0.549987
0.082297 0.160005 0.576671
0.082297 0.160005 0.603291
0.082297 0.160005 0.629849
0.082297 0.160005 0.656348
0.082297 0.160005 0.682791
0.082297 0.160005 0.709180
0.082297 0.160005 0.735518
0.082297 0.160005 0.761806
0.082297 0.160005 0.788046
0.082297 0.160005 0.814240
0.082297 0.160005 0.840391
0.082297 0.160005 0.866498
0.082297 0.160005 0.892564
0.082297 0.160005 0.918590
0.082297 0.160005 0.944577
0.082297 0.160005 0.970527
0.082297 0.193202 0.108895
0.082297 0.193202 0.137803
0.082297 0.193202 0.166394
0.082297 0.193202 0.194726
0.082297 0.193202 0.222843
0.082297 0.193202 0.250773
0.082297 0.193202 0.278541
0.082297 0.193202 0.306163
0.082297 0.193202 0.333654
0.082297 0.193202 0.361027
0.082297 0.193202 0.388291
0.082297 0.193202 0.415454
0.082297 0.193202 0.442524
0.082297 0.193202 0.469507
0.082297 0.193202 0.496409
0.082297 0.193202 0.523234
0.082297 0.193202 0.549987
0.082297 0.193202 0.576671
0.082297 0.193202 0.603291
0.082297 0.193202 0.629849
0.082297 0.193202 0.656348
0.082297 0.193202 0.682791
0.082297 0.193202 0.709180
0.082297 0.193202 0.735518
0.082297 0.193202 0.761806
0.082297 0.193202 0.788046
0.082297 0.193202 0.814240
0.082297 0.193202 0.840391
0.082297 0.193202 0.866498
0.082297 0.193202 0.892564
0.082297 0.193202 0.918590
0.082297 0.193202 0.944577
0.082297 0.193202 0.970527
0.082297 0.226099 0.108895
0.082297 0.226099 0.137803
0.082297 0.226099 0.166394
0.082297 0.226099 0.194726
0.082297 0.226099 0.222843
0.082297 0.226099 0.250773
0.082297 0.226099 0.278541
0.082297 0.226099 0.306163
0.082297 0.226099 0.333654
0.082297 0.226099 0.361027
0.082297 0.226099 0.388291
0.082297 0.226099 0.415454
0.082297 0.226099 0.442524
0.082297 0.226099 0.469507
0.082297 0.226099 0.496409
0.082297 0.226099 0.523234
0.082297 0.226099 0.549987
0.082297 0.226099 0.576671
0.082297 0.226099 0.603291
0.082297 0.226099 0.629849
0.082297 0.226099 0.656348
0.082297 0.226099 0.682791
0.082297 0.226099 0.709180
0.082297 0.226099 0.735518
0.082297 0.226099 0.761806
0.082297 0.226099 0.788046
0.082297 0.226099 0.814240
0.082297 0.226099 0.840391
0.082297 0.226099 0.866498
0.082297 0.226099 0.892564
0.082297 0.226099 0.918590
0.082297 0.226099 0.944577
0.082297 0.226099 0.970527
0.082297 0.258746 0.108895
0.082297 0.258746 0.137803
0.082297 0.258746 0.166394
0.082297 0.258746 0.194726
0.082297 0.258746 0.222843
0.082297 0.258746 0.250773
0.082297 0.258746 0.278541
0.082297 0.258746 0.306163
0.082297 0.258746 0.333654
0.082297 0.258746 0.361027
0.082297 0.258746 0.388291
0.082297 0.258746 0.415454
0.082297 0.258746 0.442524
0.082297 0.258746 0.469507
0.082297 0.258746 0.496409
0.082297 0.258746 0.523234
0.082297 0.258746 0.549987
0.082297 0.258746 0.576671
0.082297 0.258746 0.603291
0.082297 0.258746 0.629849
0.082297 0.258746 0.656348
0.082297 0.258746 0.682791
0.082297 0.258746 0.709180
0.082297 0.258746 0.735518
0.082297 0.258746 0.761806
0.082297 0.258746 0.788046
0.082297 0.258746 0.814240
0.082297 0.258746 0.840391
0.082297 0.258746 0.866498
0.082297 0.258746 0.892564
0.082297 0.258746 0.918590
0.082297 0.258746 0.944577
0.082297 0.258746 0.970527
0.082297 0.291176 0.108895
0.082297 0.291176 0.137803
0.082297 0.291176 0.166394
0.082297 0.291176 0.194726
0.082297 0.291176 0.222843
0.082297 0.291176 0.250773
0.082297 0.291176 0.278541
0.082297 0.291176 0.306163
0.082297 0.291176 0.333654
0.082297 0.291176 0.361027
0.082297 0.291176 0.388291
0.082297 0.291176 0.415454
0.082297 0.291176 0.442524
0.082297 0.291176 0.469507
0.082297 0.291176 0.496409
0.082297 0.291176 0.523234
0.082297 0.291176 0.549987
0.082297 0.291176 0.576671
0.082297 0.291176 0.603291
0.082297 0.291176 0.629849
0.082297 0.291176 0.656348
0.082297 0.291176 0.682791
0.082297 0.291176 0.709180
0.082297 0.291176 0.735518
0.082297 0.291176 0.761806
0.082297 0.291176 0.788046
0.082297 0.291176 0.814240
0.082297 0.291176 0.840391
0.082297 0.291176 0.866498
0.082297 0.291176 0.892564
0.082297 0.291176 0.918590
0.082297 0.291176 0.944577
0.082297 0.291176 0.970527
0.082297 0.323417 0.108895
0.082297 0.323417 0.137803
0.082297 0.323417 0.166394
0.082297 0.323417 0.194726
0.082297 0.323417 0.222843
0.082297 0.323417 0.250773
0.082297 0.323417 0.278541
0.082297 0.323417 0.306163
0.082297 0.323417 0.333654
0.082297 0.323417 0.361027
0.082297 0.323417 0.388291
0.082297 0.323417 0.415454
0.082297 0.323417 0.442524
0.082297 0.323417 0.469507
0.082297 0.323417 0.496409
0.082297 0.323417 0.523234
0.082297 0.323417 0.549987
0.082297 0.323417 0.576671
0.082297 0.323417 0.603291
0.082297 0.323417 0.629849
0.082297 0.323417 0.656348
0.082297 0.323417 0.682791
0.082297 0.323417 0.709180
0.082297 0.323417 0.735518
0.082297 0.323417 0.761806
0.082297 0.323417 0.788046
0.082297 0.323417 0.814240
0.082297 0.323417 0.840391
0.082297 0.323417 0.866498
0.082297 0.323417 0.892564
0.082297 0.323417 0.918590
0.082297 0.323417 0.944577
0.099371 0.300615 1.018991
0.082297 0.355490 0.108895
0.082297 0.355490 0.137803
0.082297 0.355490 0.166394
0.082297 0.355490 0.194726
0.082297 0.355490 0.222843
0.082297 0.355490 0.250773
0.082297 0.355490 0.278541
0.082297 0.355490 0.306163
0.082297 0.355490 0.333654
0.082297 0.355490 0.361027
0.082297 0.355490 0.388291
0.082297 0.355490 0.415454
0.082297 0.355490 0.442524
0.082297 0.355490 0.469507
0.082297 0.355490 0.496409
0.082297 0.355490 0.523234
0.082297 0.355490 0.549987
0.082297 0.355490 0.576671
0.082297 0.355490 0.603291
0.082297 0.355490 0.629849
0.082297 0.355490 0.656348
0.082297 0.355490 0.682791
0.082297 0.355490 0.709180
0.082297 0.355490 0.735518
0.082297 0.355490 0.761806
0.082297 0.355490 0.788046
0.082297 0.355490 0.814240
0.082297 0.355490 0.840391
0.082297 0.355490 0.866498
0.082297 0.355490 0.892564
0.099371 0.330426 0.964460
0.099371 0.330426 0.991745
0.099371 0.330426 1.018991
0.082297 0.387411 0.108895
0.082297 0.387411 0.137803
0.082297 0.387411 0.166394
0.082297 0.387411 0.194726
0.082297 0.387411 0.222843
0.082297 0.387411 0.250773
0.082297 0.387411 0.278541
0.082297 0.387411 0.306163
0.082297 0.387411 0.333654
0.082297 0.387411 0.361027
0.082297 0.387411 0.388291
0.082297 0.387411 0.415454
0.082297 0.387411 0.442524
0.082297 0.387411 0.469507
0.082297 0.387411 0.496409
0.082297 0.387411 0.523234
0.082297 0.387411 0.549987
0.082297 0.387411 0.576671
0.082297 0.387411 0.603291
0.082297 0.387411 0.629849
0.082297 0.387411 0.656348
0.082297 0.387411 0.682791
0.082297 0.387411 0.709180
0.082297 0.387411 0.735518
0.082297 0.387411 0.761806
0.082297 0.387411 0.788046
0.082297 0.387411 0.814240
0.082297 0.387411 0.840391
0.099371 0.360097 0.909767
0.099371 0.360097 0.937134
0.099371 0.360097 0.964460
0.099371 0.360097 0.991745
0.099371 0.360097 1.018991
0.082297 0.419193 0.108895
0.082297 0.419193 0.137803
0.082297 0.419193 0.166394
0.082297 0.419193 0.194726
0.082297 0.419193 0.222843
0.082297 0.419193 0.250773
0.082297 0.419193 0.278541
0.082297 0.419193 0.306163
0.082297 0.419193 0.333654
0.082297 0.419193 0.361027
0.082297 0.419193 0.388291
0.082297 0.419193 0.415454
0.082297 0.419193 0.442524
0.082297 0.419193 0.469507
0.082297 0.419193 0.496409
0.082297 0.419193 0.523234
0.082297 0.419193 0.549987
0.082297 0.419193 0.576671
0.082297 0.419193 0.603291
0.082297 0.419193 0.629849
0.082297 0.419193 0.656348
0.082297 0.419193 0.682791
0.082297 0.419193 0.709180
0.082297 0.419193 0.735518
0.082297 0.419193 0.761806
0.082297 0.419193 0.788046
0.099371 0.389639 0.854900
0.099371 0.389639 0.882356
0.099371 0.389639 0.909767
0.099371 0.389639 0.937134
0.099371 0.389639 0.964460
0.099371 0.389639 0.991745
0.099371 0.389639 1.018991
0.082297 0.450850 0.108895
0.082297 0.450850 0.137803
0.082297 0.450850 0.166394
0.082297 0.450850 0.194726
0.082297 0.450850 0.222843
0.082297 0.450850 0.250773
0.082297 0.450850 0.278541
0.082297 0.450850 0.306163
0.082297 0.450850 0.333654
0.082297 0.450850 0.361027
0.082297 0.450850 0.388291
0.082297 0.450850 0.415454
0.082297 0.450850 0.442524
0.082297 0.450850 0.469507
0.082297 0.450850 0.496409
0.082297 0.450850 0.523234
0.082297 0.450850 0.549987
0.082297 0.450850 0.576671
0.082297 0.450850 0.603291
0.082297 0.450850 0.629849
0.082297 0.450850 0.656348
0.082297 0.450850 0.682791
0.082297 0.450850 0.709180
0.082297 0.450850 0.735518
0.099371 0.419063 0.799847
0.099371 0.419063 0.827397
0.099371 0.419063 0.854900
0.099371 0.419063 0.882356
0.099371 0.419063 0.909767
0.099371 0.419063 0.937134
0.099371 0.419063 0.964460
0.099371 0.419063 0.991745
0.099371 0.419063 1.018991
0.082297 0.482389 0.108895
0.082297 0.482389 0.137803
0.082297 0.482389 0.166394
0.082297 0.482389 0.194726
0.082297 0.482389 0.222843
0.082297 0.482389 0.250773
0.082297 0.482389 0.278541
0.082297 0.482389 0.306163
0.082297 0.482389 0.333654
0.082297 0.482389 0.361027
0.082297 0.482389 0.388291
0.082297 0.482389 0.415454
0.082297 0.482389 0.442524
0.082297 0.482389 0.469507
0.082297 0.482389 0.496409
0.082297 0.482389 0.523234
0.082297 0.482389 0.549987
0.082297 0.482389 0.576671
0.082297 0.482389 0.603291
0.082297 0.482389 0.629849
0.082297 0.482389 0.656348
0.082297 0.482389 0.682791
0.099371 0.448379 0.744593
0.099371 0.448379 0.772246
0.099371 0.448379 0.799847
0.099371 0.448379 0.827397
0.099371 0.448379 0.854900
0.099371 0.448379 0.882356
0.099371 0.448379 0.909767
0.099371 0.448379 0.937134
0.099371 0.448379 0.964460
0.099371 0.448379 0.991745
0.099371 0.448379 1.018991
0.082297 0.513821 0.108895
0.082297 0.513821 0.137803
0.082297 0.513821 0.166394
0.082297 0.513821 0.194726
0.082297 0.513821 0.222843
0.082297 0.513821 0.250773
0.082297 0.513821 0.278541
0.082297 0.513821 0.306163
0.082297 0.513821 0.333654
0.082297 0.513821 0.361027
0.082297 0.513821 0.388291
0.082297 0.513821 0.415454
0.082297 0.513821 0.442524
0.082297 0.513821 0.469507
0.082297 0.513821 0.496409
0.082297 0.513821 0.523234
0.082297 0.513821 0.549987
0.082297 0.513821 0.576671
0.082297 0.513821 0.603291
0.082297 0.513821 0.629849
0.099371 0.477594 0.689123
0.099371 0.477594 0.716886
0.099371 0.477594 0.744593
0.099371 0.477594 0.772246
0.099371 0.477594 0.799847
0.099371 0.477594 0.827397
0.099371 0.477594 0.854900
0.099371 0.477594 0.882356
0.099371 0.477594 0.909767
0.099371 0.477594 0.937134
0.099371 0.477594 0.964460
0.099371 0.477594 0.991745
0.099371 0.477594 1.018991
0.082297 0.545151 0.108895
0.082297 0.545151 0.137803
0.082297 0.545151 0.166394
0.082297 0.545151 0.194726
0.082297 0.545151 0.222843
0.082297 0.545151 0.250773
0.082297 0.545151 0.278541
0.082297 0.545151 0.306163
0.082297 0.545151 0.333654
0.082297 0.545151 0.361027
0.082297 0.545151 0.388291
0.082297 0.545151 0.415454
0.082297 0.545151 0.442524
0.082297 0.545151 0.469507
0.082297 0.545151 0.496409
0.082297 0.545151 0.523234
0.082297 0.545151 0.549987
0.082297 0.545151 0.576671
0.099371 0.506716 0.633416
0.099371 0.506716 0.661301
0.099371 0.506716 0.689123
0.099371 0.506716 0.716886
0.099371 0.506716 0.744593
0.099371 0.506716 0.772246
0.099371 0.506716 0.799847
0.099371 0.506716 0.827397
0.099371 0.506716 0.854900
0.099371 0.506716 0.882356
0.099371 0.506716 0.909767
0.099371 0.506716 0.937134
0.099371 0.506716 0.964460
0.099371 0.506716 0.991745
0.099371 0.506716 1.018991
0.082297 0.576387 0.108895
0.082297 0.576387 0.137803
0.082297 0.576387 0.166394
0.082297 0.576387 0.194726
0.082297 0.576387 0.222843
0.082297 0.576387 0.250773
0.082297 0.576387 0.278541
0.082297 0.576387 0.306163
0.082297 0.576387 0.333654
0.082297 0.576387 0.361027
0.082297 0.576387 0.388291
0.082297 0.576387 0.415454
0.082297 0.576387 0.442524
0.082297 0.576387 0.469507
0.082297 0.576387 0.496409
0.082297 0.576387 0.523234
0.099371 0.535749 0.577450
0.099371 0.535749 0.605467
0.099371 0.535749 0.633416
0.099371 0.535749 0.661301
0.099371 0.535749 0.689123
0.099371 0.535749 0.716886
0.099371 0.535749 0.744593
0.099371 0.535749 0.772246
0.099371 0.535749 0.799847
0.099371 0.535749 0.827397
0.099371 0.535749 0.854900
0.099371 0.535749 0.882356
0.099371 0.535749 0.909767
0.099371 0.535749 0.937134
0.099371 0.535749 0.964460
0.099371 0.535749 0.991745
0.099371 0.535749 1.018991
0.082297 0.607534 0.108895
0.082297 0.607534 0.137803
0.082297 0.607534 0.166394
0.082297 0.607534 0.194726
0.082297 0.607534 0.222843
0.082297 0.607534 0.250773
0.082297 0.607534 0.278541
0.082297 0.607534 0.306163
0.082297 0.607534 0.333654
0.082297 0.607534 0.361027
0.082297 0.607534 0.388291
0.082297 0.607534 0.415454
0.082297 0.607534 0.442524
0.082297 0.607534 0.469507
0.099371 0.564700 0.521197
0.099371 0.564700 0.549362
0.099371 0.564700 0.577450
0.099371 0.564700 0.605467
0.099371 0.564700 0.633416
0.099371 0.564700 0.661301
0.099371 0.564700 0.689123
0.099371 0.564700 0.716886
0.099371 0.564700 0.744593
0.099371 0.564700 0.772246
0.099371 0.564700 0.799847
0.099371 0.564700 0.827397
0.099371 0.564700 0.854900
0.099371 0.564700 0.882356
0.099371 0.564700 0.909767
0.099371 0.564700 0.937134
0.099371 0.564700 0.964460
0.099371 0.564700 0.991745
0.099371 0.564700 1.018991
0.082297 0.638597 0.108895
0.082297 0.638597 0.137803
0.082297 0.638597 0.166394
0.082297 0.638597 0.194726
0.082297 0.638597 0.222843
0.082297 0.638597 0.250773
0.082297 0.638597 0.278541
0.082297 0.638597 0.306163
0.082297 0.638597 0.333654
0.082297 0.638597 0.361027
0.082297 0.638597 0.388291
0.082297 0.638597 0.415454
0.099371 0.593573 0.464622
0.099371 0.593573 0.492952
0.099371 0.593573 0.521197
0.099371 0.593573 0.549362
0.099371 0.593573 0.577450
0.099371 0.593573 0.605467
0.099371 0.593573 0.633416
0.099371 0.593573 0.661301
0.099371 0.593573 0.689123
0.099371 0.593573 0.716886
0.099371 0.593573 0.744593
0.099371 0.593573 0.772246
0.099371 0.593573 0.799847
0.099371 0.593573 0.827397
0.099371 0.593573 0.854900
0.099371 0.593573 0.882356
0.099371 0.593573 0.909767
0.099371 0.593573 0.937134
0.099371 0.593573 0.964460
0.099371 0.593573 0.991745
0.099371 0.593573 1.018991
0.082297 0.669581 0.108895
0.082297 0.669581 0.137803
0.082297 0.669581 0.166394
0.082297 0.669581 0.194726
0.082297 0.669581 0.222843
0.082297 0.669581 0.250773
0.082297 0.669581 0.278541
0.082297 0.669581 0.306163
0.082297 0.669581 0.333654
0.082297 0.669581 0.361027
0.099371 0.622373 0.407680
0.099371 0.622373 0.436200
0.099371 0.622373 0.464622
0.099371 0.622373 0.492952
0.099371 0.622373 0.521197
0.099371 0.622373 0.549362
0.099371 0.622373 0.577450
0.099371 0.622373 0.605467
0.099371 0.622373 0.633416
0.099371 0.622373 0.661301
0.099371 0.622373 0.689123
0.099371 0.622373 0.716886
0.099371 0.622373 0.744593
0.099371 0.622373 0.772246
0.099371 0.622373 0.799847
0.099371 0.622373 0.827397
0.099371 0.622373 0.854900
0.099371 0.622373 0.882356
0.099371 0.622373 0.909767
0.099371 0.622373 0.937134
0.099371 0.622373 0.964460
0.088007 0.651899 1.066971
0.088007 0.651899 1.096283
0.082297 0.700489 0.108895
0.082297 0.700489 0.137803
0.082297 0.700489 0.166394
0.082297 0.700489 0.194726
0.082297 0.700489 0.222843
0.082297 0.700489 0.250773
0.082297 0.700489 0.278541
0.082297 0.700489 0.306163
0.099371 0.651102 0.350316
0.099371 0.651102 0.379055
0.099371 0.651102 0.407680
0.099371 0.651102 0.436200
0.099371 0.651102 0.464622
0.099371 0.651102 0.492952
0.099371 0.651102 0.521197
0.099371 0.651102 0.549362
0.099371 0.651102 0.577450
0.099371 0.651102 0.605467
0.099371 0.651102 0.633416
0.099371 0.651102 0.661301
0.099371 0.651102 0.689123
0.099371 0.651102 0.716886
0.099371 0.651102 0.744593
0.099371 0.651102 0.772246
0.099371 0.651102 0.799847
0.099371 0.651102 0.827397
0.099371 0.651102 0.854900
0.099371 0.651102 0.882356
0.099371 0.651102 0.909767
0.088007 0.681991 1.008218
0.088007 0.681991 1.037616
0.088007 0.681991 1.066971
0.088007 0.681991 1.096283
0.082297 0.731326 0.108895
0.082297 0.731326 0.137803
0.082297 0.731326 0.166394
0.082297 0.731326 0.194726
0.082297 0.731326 0.222843
0.082297 0.731326 0.250773
0.099371 0.679765 0.292450
0.099371 0.679765 0.321451
0.099371 0.679765 0.350316
0.099371 0.679765 0.379055
0.099371 0.679765 0.407680
0.099371 0.679765 0.436200
0.099371 0.679765 0.464622
0.099371 0.679765 0.492952
0.099371 0.679765 0.521197
0.099371 0.679765 0.549362
0.099371 0.679765 0.577450
0.099371 0.679765 0.605467
0.099371 0.679765 0.633416
0.099371 0.679765 0.661301
0.099371 0.679765 0.689123
0.099371 0.679765 0.716886
0.099371 0.679765 0.744593
0.099371 0.679765 0.772246
0.099371 0.679765 0.799847
0.099371 0.679765 0.827397
0.099371 0.679765 0.854900
0.088007 0.712014 0.949284
0.088007 0.712014 0.978775
0.088007 0.712014 1.008218
0.088007 0.712014 1.037616
0.088007 0.712014 1.066971
0.088007 0.712014 1.096283
0.082297 0.762095 0.108895
0.082297 0.762095 0.137803
0.082297 0.762095 0.166394
0.082297 0.762095 0.194726
0.099371 0.708364 0.233971
0.099371 0.708364 0.263296
0.099371 0.708364 0.292450
0.099371 0.708364 0.321451
0.099371 0.708364 0.350316
0.099371 0.708364 0.379055
0.099371 0.708364 0.407680
0.099371 0.708364 0.436200
0.099371 0.708364 0.464622
0.099371 0.708364 0.492952
0.099371 0.708364 0.521197
0.099371 0.708364 0.549362
0.099371 0.708364 0.577450
0.099371 0.708364 0.605467
0.099371 0.708364 0.633416
0.099371 0.708364 0.661301
0.099371 0.708364 0.689123
0.099371 0.708364 0.716886
0.099371 0.708364 0.744593
0.099371 0.708364 0.772246
0.099371 0.708364 0.799847
0.088007 0.741970 0.890157
0.088007 0.741970 0.919746
0.088007 0.741970 0.949284
0.088007 0.741970 0.978775
0.088007 0.741970 1.008218
0.088007 0.741970 1.037616
0.088007 0.741970 1.066971
0.088007 0.741970 1.096283
0.082297 0.792798 0.108895
0.082297 0.792798 0.137803
0.099371 0.736902 0.174703
0.099371 0.736902 0.204450
0.099371 0.736902 0.233971
0.099371 0.736902 0.263296
0.099371 0.736902 0.292450
0.099371 0.736902 0.321451
0.099371 0.736902 0.350316
0.099371 0.736902 0.379055
0.099371 0.736902 0.407680
0.099371 0.736902 0.436200
0.099371 0.736902 0.464622
0.099371 0.736902 0.492952
0.099371 0.736902 0.521197
0.099371 0.736902 0.549362
0.099371 0.736902 0.577450
0.099371 0.736902 0.605467
0.099371 0.736902 0.633416
0.099371 0.736902 0.661301
0.099371 0.736902 0.689123
0.099371 0.736902 0.716886
0.099371 0.736902 0.744593
0.088007 0.771862 0.830823
0.088007 0.771862 0.860517
0.088007 0.771862 0.890157
0.088007 0.771862 0.919746
0.088007 0.771862 0.949284
0.088007 0.771862 0.978775
0.088007 0.771862 1.008218
0.088007 0.771862 1.037616
0.088007 0.771862 1.066971
0.088007 0.771862 1.096283
0.099371 0.765383 0.114333
0.099371 0.765383 0.144685
0.099371 0.765383 0.174703
0.099371 0.765383 0.204450
0.099371 0.765383 0.233971
0.099371 0.765383 0.263296
0.099371 0.765383 0.292450
0.099371 0.765383 0.321451
0.099371 0.765383 0.350316
0.099371 0.765383 0.379055
0.099371 0.765383 0.407680
0.099371 0.765383 0.436200
0.099371 0.765383 0.464622
0.099371 0.765383 0.492952
0.099371 0.765383 0.521197
0.099371 0.765383 0.549362
0.099371 0.765383 0.577450
0.099371 0.765383 0.605467
0.099371 0.765383 0.633416
0.099371 0.765383 0.661301
0.099371 0.765383 0.689123
0.099371 0.765383 0.716886
0.088007 0.801694 0.801072
0.088007 0.801694 0.830823
0.088007 0.801694 0.860517
0.088007 0.801694 0.890157
0.088007 0.801694 0.919746
0.088007 0.801694 0.949284
0.088007 0.801694 0.978775
0.088007 0.801694 1.008218
0.088007 0.801694 1.037616
0.088007 0.801694 1.066971
0.088007 0.801694 1.096283
0.099371 0.793808 0.114333
0.099371 0.793808 0.144685
0.099371 0.793808 0.174703
0.099371 0.793808 0.204450
0.099371 0.793808 0.233971
0.099371 0.793808 0.263296
0.099371 0.793808 0.292450
0.099371 0.793808 0.321451
0.099371 0.793808 0.350316
0.099371 0.793808 0.379055
0.099371 0.793808 0.407680
0.099371 0.793808 0.436200
0.099371 0.793808 0.464622
0.099371 0.793808 0.492952
0.099371 0.793808 0.521197
0.099371 0.793808 0.549362
0.099371 0.793808 0.577450
0.099371 0.793808 0.605467
0.099371 0.793808 0.633416
0.099371 0.793808 0.661301
0.088007 0.831467 0.741394
0.088007 0.831467 0.771264
0.088007 0.831467 0.801072
0.088007 0.831467 0.830823
0.088007 0.831467 0.860517
0.088007 0.831467 0.890157
0.088007 0.831467 0.919746
0.088007 0.831467 0.949284
0.088007 0.831467 0.978775
0.088007 0.831467 1.008218
0.088007 0.831467 1.037616
0.088007 0.831467 1.066971
0.088007 0.831467 1.096283
0.099371 0.822179 0.114333
0.099371 0.822179 0.144685
0.099371 0.822179 0.174703
0.099371 0.822179 0.204450
0.099371 0.822179 0.233971
0.099371 0.822179 0.263296
0.099371 0.822179 0.292450
0.099371 0.822179 0.321451
0.099371 0.822179 0.350316
0.099371 0.822179 0.379055
0.099371 0.822179 0.407680
0.099371 0.822179 0.436200
0.099371 0.822179 0.464622
0.099371 0.822179 0.492952
0.099371 0.822179 0.521197
0.099371 0.822179 0.549362
0.099371 0.822179 0.577450
0.099371 0.822179 0.605467
0.088007 0.861185 0.681462
0.088007 0.861185 0.711462
0.088007 0.861185 0.741394
0.088007 0.861185 0.771264
0.088007 0.861185 0.801072
0.088007 0.861185 0.830823
0.088007 0.861185 0.860517
0.088007 0.861185 0.890157
0.088007 0.861185 0.919746
0.088007 0.861185 0.949284
0.088007 0.861185 0.978775
0.088007 0.861185 1.008218
0.088007 0.861185 1.037616
0.088007 0.861185 1.066971
0.088007 0.861185 1.096283
0.099371 0.850499 0.114333
0.099371 0.850499 0.144685
0.099371 0.850499 0.174703
0.099371 0.850499 0.204450
0.099371 0.850499 0.233971
0.099371 0.850499 0.263296
0.099371 0.850499 0.292450
0.099371 0.850499 0.321451
0.099371 0.850499 0.350316
0.099371 0.850499 0.379055
0.099371 0.850499 0.407680
0.099371 0.850499 0.436200
0.099371 0.850499 0.464622
0.099371 0.850499 0.492952
0.099371 0.850499 0.521197
0.099371 0.850499 0.549362
0.088007 0.890848 0.621251
0.088007 0.890848 0.651393
0.088007 0.890848 0.681462
0.088007 0.890848 0.711462
0.088007 0.890848 0.741394
0.088007 0.890848 0.771264
0.088007 0.890848 0.801072
0.088007 0.890848 0.830823
0.088007 0.890848 0.860517
0.088007 0.890848 0.890157
0.088007 0.890848 0.919746
0.088007 0.890848 0.949284
0.088007 0.890848 0.978775
0.088007 0.890848 1.008218
0.088007 0.890848 1.037616
0.088007 0.890848 1.066971
0.088007 0.890848 1.096283
0.099371 0.878769 0.114333
0.099371 0.878769 0.144685
0.099371 0.878769 0.174703
0.099371 0.878769 0.204450
0.099371 0.878769 0.233971
0.099371 0.878769 0.263296
0.099371 0.878769 0.292450
0.099371 0.878769 0.321451
0.099371 0.878769 0.350316
0.099371 0.878769 0.379055
0.099371 0.878769 0.407680
0.099371 0.878769 0.436200
0.099371 0.878769 0.464622
0.099371 0.878769 0.492952
0.088007 0.920460 0.560731
0.088007 0.920460 0.591032
0.088007 0.920460 0.621251
0.088007 0.920460 0.651393
0.088007 0.920460 0.681462
0.088007 0.920460 0.711462
0.088007 0.920460 0.741394
0.088007 0.920460 0.771264
0.088007 0.920460 0.801072
0.088007 0.920460 0.830823
0.088007 0.920460 0.860517
0.088007 0.920460 0.890157
0.088007 0.920460 0.919746
0.088007 0.920460 0.949284
0.088007 0.920460 0.978775
