app/src/main/assets/luts/07_Vintage_Film.cube
TITLE "Vintage Film Style"
LUT_3D_SIZE 5
0.082297 0.126439 0.108895
0.082297 0.126439 0.333654
0.082297 0.126439 0.549987
0.082297 0.126439 0.761806
0.082297 0.126439 0.970527
0.082297 0.387411 0.108895
0.082297 0.387411 0.333654
0.082297 0.387411 0.549987
0.082297 0.387411 0.761806
0.099371 0.360097 1.018991
0.082297 0.638597 0.108895
0.082297 0.638597 0.333654
0.099371 0.593573 0.577450
0.099371 0.593573 0.799847
0.099371 0.593573 1.018991
0.099371 0.822179 0.114333
0.099371 0.822179 0.350316
0.099371 0.822179 0.577450
0.088007 0.861185 0.860517
0.088007 0.861185 1.096283
0.099371 1.047442 0.114333
0.088007 1.097134 0.376888
0.088007 1.097134 0.621251
0.088007 1.097134 0.860517
0.088007 1.097134 1.096283
0.252157 0.126439 0.108895
0.252157 0.126439 0.333654
0.252157 0.126439 0.549987
0.252157 0.126439 0.761806
0.252157 0.126439 0.970527
0.252157 0.387411 0.108895
0.252157 0.387411 0.333654
0.252157 0.387411 0.549987
0.252157 0.387411 0.761806
0.304472 0.360097 1.018991
0.252157 0.638597 0.108895
0.252157 0.638597 0.333654
0.304472 0.593573 0.577450
0.304472 0.593573 0.799847
0.269654 0.621733 1.096283
0.304472 0.822179 0.114333
0.304472 0.822179 0.350316
0.269654 0.861185 0.621251
0.269654 0.861185 0.860517
0.269654 0.861185 1.096283
0.269654 1.097134 0.123005
0.269654 1.097134 0.376888
0.269654 1.097134 0.621251
0.269654 1.097134 0.860517
0.269654 1.097134 1.096283
0.415649 0.126439 0.108895
0.415649 0.126439 0.333654
0.415649 0.126439 0.549987
0.415649 0.126439 0.761806
0.415649 0.126439 0.970527
0.415649 0.387411 0.108895
0.415649 0.387411 0.333654
0.415649 0.387411 0.549987
0.501884 0.360097 0.799847
0.501884 0.360097 1.018991
0.415649 0.638597 0.108895
0.501884 0.593573 0.350316
0.501884 0.593573 0.577450
0.501884 0.593573 0.799847
0.444490 0.621733 1.096283
0.501884 0.822179 0.114333
0.501884 0.822179 0.350316
0.444490 0.861185 0.621251
0.444490 0.861185 0.860517
0.444490 0.861185 1.096283
0.444490 1.097134 0.123005
0.444490 1.097134 0.376888
0.444490 1.097134 0.621251
0.444490 1.097134 0.860517
0.444490 1.097134 1.096283
0.575729 0.126439 0.108895
0.575729 0.126439 0.333654
0.575729 0.126439 0.549987
0.575729 0.126439 0.761806
0.575729 0.126439 0.970527
0.575729 0.387411 0.108895
0.575729 0.387411 0.333654
0.575729 0.387411 0.549987
0.695177 0.360097 0.799847
0.695177 0.360097 1.018991
0.575729 0.638597 0.108895
0.695177 0.593573 0.350316
0.695177 0.593573 0.577450
0.615678 0.621733 0.860517
0.615678 0.621733 1.096283
0.695177 0.822179 0.114333
0.615678 0.861185 0.376888
0.615678 0.861185 0.621251
0.615678 0.861185 0.860517
0.615678 0.861185 1.096283
0.615678 1.097134 0.123005
0.615678 1.097134 0.376888
0.615678 1.097134 0.621251
0.615678 1.097134 0.860517
0.615678 1.097134 1.096283
0.733469 0.126439 0.108895
0.733469 0.126439 0.333654
0.733469 0.126439 0.549987
0.733469 0.126439 0.761806
0.885643 0.117525 1.018991
0.733469 0.387411 0.108895
0.733469 0.387411 0.333654
0.885643 0.360097 0.577450
0.885643 0.360097 0.799847
0.885643 0.360097 1.018991
0.885643 0.593573 0.114333
0.885643 0.593573 0.350316
0.885643 0.593573 0.577450
0.784363 0.621733 0.860517
0.784363 0.621733 1.096283
0.885643 0.822179 0.114333
0.784363 0.861185 0.376888
0.784363 0.861185 0.621251
0.784363 0.861185 0.860517
0.784363 0.861185 1.096283
0.784363 1.097134 0.123005
0.784363 1.097134 0.376888
0.784363 1.097134 0.621251
0.784363 1.097134 0.860517
0.784363 1.097134 1.096283
