app/src/main/assets/luts/07_Vintage_Film.cube
TITLE "Vintage Film Style"
LUT_3D_SIZE 9
0.082297 0.126439 0.108895
0.082297 0.126439 0.222843
0.082297 0.126439 0.333654
0.082297 0.126439 0.442524
0.082297 0.126439 0.549987
0.082297 0.126439 0.656348
0.082297 0.126439 0.761806
0.082297 0.126439 0.866498
0.082297 0.126439 0.970527
0.082297 0.258746 0.108895
0.082297 0.258746 0.222843
0.082297 0.258746 0.333654
0.082297 0.258746 0.442524
0.082297 0.258746 0.549987
0.082297 0.258746 0.656348
0.082297 0.258746 0.761806
0.082297 0.258746 0.866498
0.082297 0.258746 0.970527
0.082297 0.387411 0.108895
0.082297 0.387411 0.222843
0.082297 0.387411 0.333654
0.082297 0.387411 0.442524
0.082297 0.387411 0.549987
0.082297 0.387411 0.656348
0.082297 0.387411 0.761806
0.099371 0.360097 0.909767
0.099371 0.360097 1.018991
0.082297 0.513821 0.108895
0.082297 0.513821 0.222843
0.082297 0.513821 0.333654
0.082297 0.513821 0.442524
0.082297 0.513821 0.549987
0.099371 0.477594 0.689123
0.099371 0.477594 0.799847
0.099371 0.477594 0.909767
0.099371 0.477594 1.018991
0.082297 0.638597 0.108895
0.082297 0.638597 0.222843
0.082297 0.638597 0.333654
0.099371 0.593573 0.464622
0.099371 0.593573 0.577450
0.099371 0.593573 0.689123
0.099371 0.593573 0.799847
0.099371 0.593573 0.909767
0.099371 0.593573 1.018991
0.082297 0.762095 0.108895
0.099371 0.708364 0.233971
0.099371 0.708364 0.350316
0.099371 0.708364 0.464622
0.099371 0.708364 0.577450
0.099371 0.708364 0.689123
0.099371 0.708364 0.799847
0.088007 0.741970 0.978775
0.088007 0.741970 1.096283
0.099371 0.822179 0.114333
0.099371 0.822179 0.233971
0.099371 0.822179 0.350316
0.099371 0.822179 0.464622
0.099371 0.822179 0.577450
0.088007 0.861185 0.741394
0.088007 0.861185 0.860517
0.088007 0.861185 0.978775
0.088007 0.861185 1.096283
0.099371 0.935168 0.114333
0.099371 0.935168 0.233971
0.099371 0.935168 0.350316
0.088007 0.979534 0.499864
0.088007 0.979534 0.621251
0.088007 0.979534 0.741394
0.088007 0.979534 0.860517
0.088007 0.979534 0.978775
0.088007 0.979534 1.096283
0.099371 1.047442 0.114333
0.088007 1.097134 0.251718
0.088007 1.097134 0.376888
0.088007 1.097134 0.499864
0.088007 1.097134 0.621251
0.088007 1.097134 0.741394
0.088007 1.097134 0.860517
0.088007 1.097134 0.978775
0.088007 1.097134 1.096283
0.168412 0.126439 0.108895
0.168412 0.126439 0.222843
0.168412 0.126439 0.333654
0.168412 0.126439 0.442524
0.168412 0.126439 0.549987
0.168412 0.126439 0.656348
0.168412 0.126439 0.761806
0.168412 0.126439 0.866498
0.168412 0.126439 0.970527
0.168412 0.258746 0.108895
0.168412 0.258746 0.222843
0.168412 0.258746 0.333654
0.168412 0.258746 0.442524
0.168412 0.258746 0.549987
0.168412 0.258746 0.656348
0.168412 0.258746 0.761806
0.168412 0.258746 0.866498
0.168412 0.258746 0.970527
0.168412 0.387411 0.108895
0.168412 0.387411 0.222843
0.168412 0.387411 0.333654
0.168412 0.387411 0.442524
0.168412 0.387411 0.549987
0.168412 0.387411 0.656348
0.168412 0.387411 0.761806
0.203353 0.360097 0.909767
0.203353 0.360097 1.018991
0.168412 0.513821 0.108895
0.168412 0.513821 0.222843
0.168412 0.513821 0.333654
0.168412 0.513821 0.442524
0.168412 0.513821 0.549987
0.203353 0.477594 0.689123
0.203353 0.477594 0.799847
0.203353 0.477594 0.909767
0.203353 0.477594 1.018991
0.168412 0.638597 0.108895
0.168412 0.638597 0.222843
0.168412 0.638597 0.333654
0.203353 0.593573 0.464622
0.203353 0.593573 0.577450
0.203353 0.593573 0.689123
0.203353 0.593573 0.799847
0.203353 0.593573 0.909767
0.180098 0.621733 1.096283
0.168412 0.762095 0.108895
0.203353 0.708364 0.233971
0.203353 0.708364 0.350316
0.203353 0.708364 0.464622
0.203353 0.708364 0.577450
0.203353 0.708364 0.689123
0.180098 0.741970 0.860517
0.180098 0.741970 0.978775
0.180098 0.741970 1.096283
0.203353 0.822179 0.114333
0.203353 0.822179 0.233971
0.203353 0.822179 0.350316
0.203353 0.822179 0.464622
0.180098 0.861185 0.621251
0.180098 0.861185 0.741394
0.180098 0.861185 0.860517
0.180098 0.861185 0.978775
0.180098 0.861185 1.096283
0.203353 0.935168 0.114333
0.203353 0.935168 0.233971
0.180098 0.979534 0.376888
0.180098 0.979534 0.499864
0.180098 0.979534 0.621251
0.180098 0.979534 0.741394
0.180098 0.979534 0.860517
0.180098 0.979534 0.978775
0.180098 0.979534 1.096283
0.180098 1.097134 0.123005
0.180098 1.097134 0.251718
0.180098 1.097134 0.376888
0.180098 1.097134 0.499864
0.180098 1.097134 0.621251
0.180098 1.097134 0.741394
0.180098 1.097134 0.860517
0.180098 1.097134 0.978775
0.180098 1.097134 1.096283
0.252157 0.126439 0.108895
0.252157 0.126439 0.222843
0.252157 0.126439 0.333654
0.252157 0.126439 0.442524
0.252157 0.126439 0.549987
0.252157 0.126439 0.656348
0.252157 0.126439 0.761806
0.252157 0.126439 0.866498
0.252157 0.126439 0.970527
0.252157 0.258746 0.108895
0.252157 0.258746 0.222843
0.252157 0.258746 0.333654
0.252157 0.258746 0.442524
0.252157 0.258746 0.549987
0.252157 0.258746 0.656348
0.252157 0.258746 0.761806
0.252157 0.258746 0.866498
0.304472 0.240503 1.018991
0.252157 0.387411 0.108895
0.252157 0.387411 0.222843
0.252157 0.387411 0.333654
0.252157 0.387411 0.442524
0.252157 0.387411 0.549987
0.252157 0.387411 0.656348
0.252157 0.387411 0.761806
0.304472 0.360097 0.909767
0.304472 0.360097 1.018991
0.252157 0.513821 0.108895
0.252157 0.513821 0.222843
0.252157 0.513821 0.333654
0.252157 0.513821 0.442524
0.252157 0.513821 0.549987
0.304472 0.477594 0.689123
0.304472 0.477594 0.799847
0.304472 0.477594 0.909767
0.304472 0.477594 1.018991
0.252157 0.638597 0.108895
0.252157 0.638597 0.222843
0.252157 0.638597 0.333654
0.304472 0.593573 0.464622
0.304472 0.593573 0.577450
0.304472 0.593573 0.689123
0.304472 0.593573 0.799847
0.304472 0.593573 0.909767
0.269654 0.621733 1.096283
0.252157 0.762095 0.108895
0.304472 0.708364 0.233971
0.304472 0.708364 0.350316
0.304472 0.708364 0.464622
0.304472 0.708364 0.577450
0.304472 0.708364 0.689123
0.269654 0.741970 0.860517
0.269654 0.741970 0.978775
0.269654 0.741970 1.096283
0.304472 0.822179 0.114333
0.304472 0.822179 0.233971
0.304472 0.822179 0.350316
0.304472 0.822179 0.464622
0.269654 0.861185 0.621251
0.269654 0.861185 0.741394
0.269654 0.861185 0.860517
0.269654 0.861185 0.978775
0.269654 0.861185 1.096283
0.304472 0.935168 0.114333
0.304472 0.935168 0.233971
0.269654 0.979534 0.376888
0.269654 0.979534 0.499864
0.269654 0.979534 0.621251
0.269654 0.979534 0.741394
0.269654 0.979534 0.860517
0.269654 0.979534 0.978775
0.269654 0.979534 1.096283
0.269654 1.097134 0.123005
0.269654 1.097134 0.251718
0.269654 1.097134 0.376888
0.269654 1.097134 0.499864
0.269654 1.097134 0.621251
0.269654 1.097134 0.741394
0.269654 1.097134 0.860517
0.269654 1.097134 0.978775
0.269654 1.097134 1.096283
0.334434 0.126439 0.108895
0.334434 0.126439 0.222843
0.334434 0.126439 0.333654
0.334434 0.126439 0.442524
0.334434 0.126439 0.549987
0.334434 0.126439 0.656348
0.334434 0.126439 0.761806
0.334434 0.126439 0.866498
0.334434 0.126439 0.970527
0.334434 0.258746 0.108895
0.334434 0.258746 0.222843
0.334434 0.258746 0.333654
0.334434 0.258746 0.442524
0.334434 0.258746 0.549987
0.334434 0.258746 0.656348
0.334434 0.258746 0.761806
0.334434 0.258746 0.866498
0.403820 0.240503 1.018991
0.334434 0.387411 0.108895
0.334434 0.387411 0.222843
0.334434 0.387411 0.333654
0.334434 0.387411 0.442524
0.334434 0.387411 0.549987
0.334434 0.387411 0.656348
0.403820 0.360097 0.799847
0.403820 0.360097 0.909767
0.403820 0.360097 1.018991
0.334434 0.513821 0.108895
0.334434 0.513821 0.222843
0.334434 0.513821 0.333654
0.334434 0.513821 0.442524
0.403820 0.477594 0.577450
0.403820 0.477594 0.689123
0.403820 0.477594 0.799847
0.403820 0.477594 0.909767
0.403820 0.477594 1.018991
0.334434 0.638597 0.108895
0.334434 0.638597 0.222843
0.403820 0.593573 0.350316
0.403820 0.593573 0.464622
0.403820 0.593573 0.577450
0.403820 0.593573 0.689123
0.403820 0.593573 0.799847
0.403820 0.593573 0.909767
0.357640 0.621733 1.096283
0.403820 0.708364 0.114333
0.403820 0.708364 0.233971
0.403820 0.708364 0.350316
0.403820 0.708364 0.464622
0.403820 0.708364 0.577450
0.403820 0.708364 0.689123
0.357640 0.741970 0.860517
0.357640 0.741970 0.978775
0.357640 0.741970 1.096283
0.403820 0.822179 0.114333
0.403820 0.822179 0.233971
0.403820 0.822179 0.350316
0.403820 0.822179 0.464622
0.357640 0.861185 0.621251
0.357640 0.861185 0.741394
0.357640 0.861185 0.860517
0.357640 0.861185 0.978775
0.357640 0.861185 1.096283
0.403820 0.935168 0.114333
0.403820 0.935168 0.233971
0.357640 0.979534 0.376888
0.357640 0.979534 0.499864
0.357640 0.979534 0.621251
0.357640 0.979534 0.741394
0.357640 0.979534 0.860517
0.357640 0.979534 0.978775
0.357640 0.979534 1.096283
0.357640 1.097134 0.123005
0.357640 1.097134 0.251718
0.357640 1.097134 0.376888
0.357640 1.097134 0.499864
0.357640 1.097134 0.621251
0.357640 1.097134 0.741394
0.357640 1.097134 0.860517
0.357640 1.097134 0.978775
0.357640 1.097134 1.096283
0.415649 0.126439 0.108895
0.415649 0.126439 0.222843
0.415649 0.126439 0.333654
0.415649 0.126439 0.442524
0.415649 0.126439 0.549987
0.415649 0.126439 0.656348
0.415649 0.126439 0.761806
0.415649 0.126439 0.866498
0.415649 0.126439 0.970527
0.415649 0.258746 0.108895
0.415649 0.258746 0.222843
0.415649 0.258746 0.333654
0.415649 0.258746 0.442524
0.415649 0.258746 0.549987
0.415649 0.258746 0.656348
0.415649 0.258746 0.761806
0.415649 0.258746 0.866498
0.501884 0.240503 1.018991
0.415649 0.387411 0.108895
0.415649 0.387411 0.222843
0.415649 0.387411 0.333654
0.415649 0.387411 0.442524
0.415649 0.387411 0.549987
0.415649 0.387411 0.656348
0.501884 0.360097 0.799847
0.501884 0.360097 0.909767
0.501884 0.360097 1.018991
0.415649 0.513821 0.108895
0.415649 0.513821 0.222843
0.415649 0.513821 0.333654
0.415649 0.513821 0.442524
0.501884 0.477594 0.577450
0.501884 0.477594 0.689123
0.501884 0.477594 0.799847
0.501884 0.477594 0.909767
0.501884 0.477594 1.018991
0.415649 0.638597 0.108895
0.415649 0.638597 0.222843
0.501884 0.593573 0.350316
0.501884 0.593573 0.464622
0.501884 0.593573 0.577450
0.501884 0.593573 0.689123
0.501884 0.593573 0.799847
0.444490 0.621733 0.978775
0.444490 0.621733 1.096283
0.501884 0.708364 0.114333
0.501884 0.708364 0.233971
0.501884 0.708364 0.350316
0.501884 0.708364 0.464622
0.501884 0.708364 0.577450
0.444490 0.741970 0.741394
0.444490 0.741970 0.860517
0.444490 0.741970 0.978775
0.444490 0.741970 1.096283
0.501884 0.822179 0.114333
0.501884 0.822179 0.233971
0.501884 0.822179 0.350316
0.444490 0.861185 0.499864
0.444490 0.861185 0.621251
0.444490 0.861185 0.741394
0.444490 0.861185 0.860517
0.444490 0.861185 0.978775
0.444490 0.861185 1.096283
0.501884 0.935168 0.114333
0.444490 0.979534 0.251718
0.444490 0.979534 0.376888
0.444490 0.979534 0.499864
0.444490 0.979534 0.621251
0.444490 0.979534 0.741394
0.444490 0.979534 0.860517
0.444490 0.979534 0.978775
0.444490 0.979534 1.096283
0.444490 1.097134 0.123005
0.444490 1.097134 0.251718
0.444490 1.097134 0.376888
0.444490 1.097134 0.499864
0.444490 1.097134 0.621251
0.444490 1.097134 0.741394
0.444490 1.097134 0.860517
0.444490 1.097134 0.978775
0.444490 1.097134 1.096283
0.496030 0.126439 0.108895
0.496030 0.126439 0.222843
0.496030 0.126439 0.333654
0.496030 0.126439 0.442524
0.496030 0.126439 0.549987
0.496030 0.126439 0.656348
0.496030 0.126439 0.761806
0.496030 0.126439 0.866498
0.496030 0.126439 0.970527
0.496030 0.258746 0.108895
0.496030 0.258746 0.222843
0.496030 0.258746 0.333654
0.496030 0.258746 0.442524
0.496030 0.258746 0.549987
0.496030 0.258746 0.656348
0.496030 0.258746 0.761806
0.598942 0.240503 0.909767
0.598942 0.240503 1.018991
0.496030 0.387411 0.108895
0.496030 0.387411 0.222843
0.496030 0.387411 0.333654
0.496030 0.387411 0.442524
0.496030 0.387411 0.549987
0.598942 0.360097 0.689123
0.598942 0.360097 0.799847
0.598942 0.360097 0.909767
0.598942 0.360097 1.018991
0.496030 0.513821 0.108895
0.496030 0.513821 0.222843
0.496030 0.513821 0.333654
0.598942 0.477594 0.464622
0.598942 0.477594 0.577450
0.598942 0.477594 0.689123
0.598942 0.477594 0.799847
0.598942 0.477594 0.909767
0.598942 0.477594 1.018991
0.496030 0.638597 0.108895
0.598942 0.593573 0.233971
0.598942 0.593573 0.350316
0.598942 0.593573 0.464622
0.598942 0.593573 0.577450
0.598942 0.593573 0.689123
0.598942 0.593573 0.799847
0.530449 0.621733 0.978775
0.530449 0.621733 1.096283
0.598942 0.708364 0.114333
0.598942 0.708364 0.233971
0.598942 0.708364 0.350316
0.598942 0.708364 0.464622
0.598942 0.708364 0.577450
0.530449 0.741970 0.741394
0.530449 0.741970 0.860517
0.530449 0.741970 0.978775
0.530449 0.741970 1.096283
0.598942 0.822179 0.114333
0.598942 0.822179 0.233971
0.598942 0.822179 0.350316
0.530449 0.861185 0.499864
0.530449 0.861185 0.621251
0.530449 0.861185 0.741394
0.530449 0.861185 0.860517
0.530449 0.861185 0.978775
0.530449 0.861185 1.096283
0.598942 0.935168 0.114333
0.530449 0.979534 0.251718
0.530449 0.979534 0.376888
0.530449 0.979534 0.499864
0.530449 0.979534 0.621251
0.530449 0.979534 0.741394
0.530449 0.979534 0.860517
0.530449 0.979534 0.978775
0.530449 0.979534 1.096283
0.530449 1.097134 0.123005
0.530449 1.097134 0.251718
0.530449 1.097134 0.376888
0.530449 1.097134 0.499864
0.530449 1.097134 0.621251
0.530449 1.097134 0.741394
0.530449 1.097134 0.860517
0.530449 1.097134 0.978775
0.530449 1.097134 1.096283
0.575729 0.126439 0.108895
0.575729 0.126439 0.222843
0.575729 0.126439 0.333654
0.575729 0.126439 0.442524
0.575729 0.126439 0.549987
0.575729 0.126439 0.656348
0.575729 0.126439 0.761806
0.575729 0.126439 0.866498
0.575729 0.126439 0.970527
0.575729 0.258746 0.108895
0.575729 0.258746 0.222843
0.575729 0.258746 0.333654
0.575729 0.258746 0.442524
0.575729 0.258746 0.549987
0.575729 0.258746 0.656348
0.575729 0.258746 0.761806
0.695177 0.240503 0.909767
0.695177 0.240503 1.018991
0.575729 0.387411 0.108895
0.575729 0.387411 0.222843
0.575729 0.387411 0.333654
0.575729 0.387411 0.442524
0.575729 0.387411 0.549987
0.695177 0.360097 0.689123
0.695177 0.360097 0.799847
0.695177 0.360097 0.909767
0.695177 0.360097 1.018991
0.575729 0.513821 0.108895
0.575729 0.513821 0.222843
0.575729 0.513821 0.333654
0.695177 0.477594 0.464622
0.695177 0.477594 0.577450
0.695177 0.477594 0.689123
0.695177 0.477594 0.799847
0.695177 0.477594 0.909767
0.615678 0.500252 1.096283
0.575729 0.638597 0.108895
0.695177 0.593573 0.233971
0.695177 0.593573 0.350316
0.695177 0.593573 0.464622
0.695177 0.593573 0.577450
0.695177 0.593573 0.689123
0.615678 0.621733 0.860517
0.615678 0.621733 0.978775
0.615678 0.621733 1.096283
0.695177 0.708364 0.114333
0.695177 0.708364 0.233971
0.695177 0.708364 0.350316
0.695177 0.708364 0.464622
0.615678 0.741970 0.621251
0.615678 0.741970 0.741394
0.615678 0.741970 0.860517
0.615678 0.741970 0.978775
0.615678 0.741970 1.096283
0.695177 0.822179 0.114333
0.695177 0.822179 0.233971
0.615678 0.861185 0.376888
0.615678 0.861185 0.499864
0.615678 0.861185 0.621251
0.615678 0.861185 0.741394
0.615678 0.861185 0.860517
0.615678 0.861185 0.978775
0.615678 0.861185 1.096283
0.695177 0.935168 0.114333
0.615678 0.979534 0.251718
0.615678 0.979534 0.376888
0.615678 0.979534 0.499864
0.615678 0.979534 0.621251
0.615678 0.979534 0.741394
0.615678 0.979534 0.860517
0.615678 0.979534 0.978775
0.615678 0.979534 1.096283
0.615678 1.097134 0.123005
0.615678 1.097134 0.251718
0.615678 1.097134 0.376888
0.615678 1.097134 0.499864
0.615678 1.097134 0.621251
0.615678 1.097134 0.741394
0.615678 1.097134 0.860517
0.615678 1.097134 0.978775
0.615678 1.097134 1.096283
0.654850 0.126439 0.108895
0.654850 0.126439 0.222843
0.654850 0.126439 0.333654
0.654850 0.126439 0.442524
0.654850 0.126439 0.549987
0.654850 0.126439 0.656348
0.654850 0.126439 0.761806
0.654850 0.126439 0.866498
0.654850 0.126439 0.970527
0.654850 0.258746 0.108895
0.654850 0.258746 0.222843
0.654850 0.258746 0.333654
0.654850 0.258746 0.442524
0.654850 0.258746 0.549987
0.654850 0.258746 0.656348
0.654850 0.258746 0.761806
0.790712 0.240503 0.909767
0.790712 0.240503 1.018991
0.654850 0.387411 0.108895
0.654850 0.387411 0.222843
0.654850 0.387411 0.333654
0.654850 0.387411 0.442524
0.654850 0.387411 0.549987
0.790712 0.360097 0.689123
0.790712 0.360097 0.799847
0.790712 0.360097 0.909767
0.790712 0.360097 1.018991
0.654850 0.513821 0.108895
0.654850 0.513821 0.222843
0.654850 0.513821 0.333654
0.790712 0.477594 0.464622
0.790712 0.477594 0.577450
0.790712 0.477594 0.689123
0.790712 0.477594 0.799847
0.790712 0.477594 0.909767
0.700289 0.500252 1.096283
0.654850 0.638597 0.108895
0.790712 0.593573 0.233971
0.790712 0.593573 0.350316
0.790712 0.593573 0.464622
0.790712 0.593573 0.577450
0.790712 0.593573 0.689123
0.700289 0.621733 0.860517
0.700289 0.621733 0.978775
0.700289 0.621733 1.096283
0.790712 0.708364 0.114333
0.790712 0.708364 0.233971
0.790712 0.708364 0.350316
0.790712 0.708364 0.464622
0.700289 0.741970 0.621251
0.700289 0.741970 0.741394
0.700289 0.741970 0.860517
0.700289 0.741970 0.978775
0.700289 0.741970 1.096283
0.790712 0.822179 0.114333
0.790712 0.822179 0.233971
0.700289 0.861185 0.376888
0.700289 0.861185 0.499864
0.700289 0.861185 0.621251
0.700289 0.861185 0.741394
0.700289 0.861185 0.860517
0.700289 0.861185 0.978775
0.700289 0.861185 1.096283
0.700289 0.979534 0.123005
0.700289 0.979534 0.251718
0.700289 0.979534 0.376888
0.700289 0.979534 0.499864
0.700289 0.979534 0.621251
0.700289 0.979534 0.741394
0.700289 0.979534 0.860517
0.700289 0.979534 0.978775
0.700289 0.979534 1.096283
0.700289 1.097134 0.123005
0.700289 1.097134 0.251718
0.700289 1.097134 0.376888
0.700289 1.097134 0.499864
0.700289 1.097134 0.621251
0.700289 1.097134 0.741394
0.700289 1.097134 0.860517
0.700289 1.097134 0.978775
0.700289 1.097134 1.096283
0.733469 0.126439 0.108895
0.733469 0.126439 0.222843
0.733469 0.126439 0.333654
0.733469 0.126439 0.442524
0.733469 0.126439 0.549987
0.733469 0.126439 0.656348
0.733469 0.126439 0.761806
0.733469 0.126439 0.866498
0.885643 0.117525 1.018991
0.733469 0.258746 0.108895
0.733469 0.258746 0.222843
0.733469 0.258746 0.333654
0.733469 0.258746 0.442524
0.733469 0.258746 0.549987
0.733469 0.258746 0.656348
0.885643 0.240503 0.799847
0.885643 0.240503 0.909767
0.885643 0.240503 1.018991
0.733469 0.387411 0.108895
0.733469 0.387411 0.222843
0.733469 0.387411 0.333654
0.733469 0.387411 0.442524
0.885643 0.360097 0.577450
0.885643 0.360097 0.689123
0.885643 0.360097 0.799847
0.885643 0.360097 0.909767
0.885643 0.360097 1.018991
0.733469 0.513821 0.108895
0.733469 0.513821 0.222843
0.885643 0.477594 0.350316
0.885643 0.477594 0.464622
0.885643 0.477594 0.577450
0.885643 0.477594 0.689123
0.885643 0.477594 0.799847
0.885643 0.477594 0.909767
0.784363 0.500252 1.096283
0.885643 0.593573 0.114333
0.885643 0.593573 0.233971
0.885643 0.593573 0.350316
0.885643 0.593573 0.464622
0.885643 0.593573 0.577450
0.885643 0.593573 0.689123
0.784363 0.621733 0.860517
0.784363 0.621733 0.978775
0.784363 0.621733 1.096283
0.885643 0.708364 0.114333
0.885643 0.708364 0.233971
0.885643 0.708364 0.350316
0.885643 0.708364 0.464622
0.784363 0.741970 0.621251
0.784363 0.741970 0.741394
0.784363 0.741970 0.860517
0.784363 0.741970 0.978775
0.784363 0.741970 1.096283
0.885643 0.822179 0.114333
0.885643 0.822179 0.233971
0.784363 0.861185 0.376888
0.784363 0.861185 0.499864
0.784363 0.861185 0.621251
0.784363 0.861185 0.741394
0.784363 0.861185 0.860517
0.784363 0.861185 0.978775
0.784363 0.861185 1.096283
0.784363 0.979534 0.123005
0.784363 0.979534 0.251718
0.784363 0.979534 0.376888
0.784363 0.979534 0.499864
0.784363 0.979534 0.621251
0.784363 0.979534 0.741394
0.784363 0.979534 0.860517
0.784363 0.979534 0.978775
0.784363 0.979534 1.096283
0.784363 1.097134 0.123005
0.784363 1.097134 0.251718
0.784363 1.097134 0.376888
0.784363 1.097134 0.499864
0.784363 1.097134 0.621251
0.784363 1.097134 0.741394
0.784363 1.097134 0.860517
0.784363 1.097134 0.978775
0.784363 1.097134 1.096283
