app/src/main/assets/luts/08_Cyberpunk.cube
TITLE "Cyberpunk Style"
LUT_3D_SIZE 5
0.000000 0.000000 0.000000
0.000000 0.000000 0.270852
0.000000 0.000000 0.488211
0.000000 0.000000 0.689104
0.000000 0.000000 0.880000
0.000000 0.236995 0.000000
0.000000 0.236995 0.270852
0.000000 0.236995 0.488211
0.000000 0.304708 0.861380
0.000000 0.304708 1.000000
0.000000 0.427184 0.000000
0.000000 0.549237 0.338565
0.000000 0.549237 0.610263
0.000000 0.549237 0.861380
0.000000 0.549237 1.000000
0.000000 0.775242 0.000000
0.000000 0.775242 0.338565
0.000000 0.775242 0.610263
0.000000 0.775242 0.861380
0.000000 0.732173 1.000000
0.000000 0.990000 0.000000
0.000000 0.990000 0.338565
0.000000 0.935000 0.732316
0.000000 0.935000 1.000000
0.000000 0.935000 1.000000
0.440134 0.000000 0.000000
0.440134 0.000000 0.270852
0.440134 0.000000 0.488211
0.440134 0.000000 0.689104
0.389349 0.000000 1.000000
0.440134 0.236995 0.000000
0.440134 0.236995 0.270852
0.389349 0.304708 0.610263
0.389349 0.304708 0.861380
0.389349 0.304708 1.000000
0.389349 0.549237 0.000000
0.389349 0.549237 0.338565
0.389349 0.549237 0.610263
0.389349 0.549237 0.861380
0.389349 0.549237 1.000000
0.389349 0.775242 0.000000
0.389349 0.775242 0.338565
0.389349 0.775242 0.610263
0.389349 0.775242 0.861380
0.372421 0.732173 1.000000
0.389349 0.990000 0.000000
0.389349 0.990000 0.338565
0.372421 0.935000 0.732316
0.372421 0.935000 1.000000
0.372421 0.935000 1.000000
0.793342 0.000000 0.000000
0.793342 0.000000 0.270852
0.793342 0.000000 0.488211
0.793342 0.000000 0.689104
0.701803 0.000000 1.000000
0.793342 0.236995 0.000000
0.793342 0.236995 0.270852
0.701803 0.304708 0.610263
0.701803 0.304708 0.861380
0.701803 0.304708 1.000000
0.701803 0.549237 0.000000
0.701803 0.549237 0.338565
0.701803 0.549237 0.610263
0.701803 0.549237 0.861380
0.701803 0.549237 1.000000
0.701803 0.775242 0.000000
0.701803 0.775242 0.338565
0.701803 0.775242 0.610263
0.671290 0.732173 1.000000
0.671290 0.732173 1.000000
0.701803 0.990000 0.000000
0.671290 0.935000 0.406278
0.671290 0.935000 0.732316
0.671290 0.935000 1.000000
0.671290 0.935000 1.000000
1.000000 0.000000 0.000000
1.000000 0.000000 0.270852
1.000000 0.000000 0.488211
0.990587 0.000000 0.861380
0.990587 0.000000 1.000000
1.000000 0.236995 0.000000
0.990587 0.304708 0.338565
0.990587 0.304708 0.610263
0.990587 0.304708 0.861380
0.990587 0.304708 1.000000
0.990587 0.549237 0.000000
0.990587 0.549237 0.338565
0.990587 0.549237 0.610263
0.990587 0.549237 0.861380
0.990587 0.549237 1.000000
0.990587 0.775242 0.000000
0.990587 0.775242 0.338565
0.990587 0.775242 0.610263
0.947518 0.732173 1.000000
0.947518 0.732173 1.000000
0.990587 0.990000 0.000000
0.947518 0.935000 0.406278
0.947518 0.935000 0.732316
0.947518 0.935000 1.000000
0.947518 0.935000 1.000000
1.000000 0.000000 0.000000
1.000000 0.000000 0.270852
1.000000 0.000000 0.488211
1.000000 0.000000 0.861380
1.000000 0.000000 1.000000
1.000000 0.236995 0.000000
1.000000 0.304708 0.338565
1.000000 0.304708 0.610263
1.000000 0.304708 0.861380
1.000000 0.304708 1.000000
1.000000 0.549237 0.000000
1.000000 0.549237 0.338565
1.000000 0.549237 0.610263
1.000000 0.549237 0.861380
1.000000 0.518724 1.000000
1.000000 0.775242 0.000000
1.000000 0.775242 0.338565
1.000000 0.732173 0.732316
1.000000 0.732173 1.000000
1.000000 0.732173 1.000000
1.000000 0.935000 0.000000
1.000000 0.935000 0.406278
1.000000 0.935000 0.732316
1.000000 0.935000 1.000000
1.000000 0.935000 1.000000
