app/src/main/assets/luts/08_Cyberpunk.cube
TITLE "Cyberpunk Style"
LUT_3D_SIZE 33
0.000000 0.000000 0.000000
0.000000 0.000000 0.046249
0.000000 0.000000 0.083364
0.000000 0.000000 0.117668
0.000000 0.000000 0.150264
0.000000 0.000000 0.181648
0.000000 0.000000 0.212097
0.000000 0.000000 0.241790
0.000000 0.000000 0.270852
0.000000 0.000000 0.299372
0.000000 0.000000 0.327420
0.000000 0.000000 0.355050
0.000000 0.000000 0.382304
0.000000 0.000000 0.409220
0.000000 0.000000 0.435827
0.000000 0.000000 0.462150
0.000000 0.000000 0.488211
0.000000 0.000000 0.514028
0.000000 0.000000 0.539618
0.000000 0.000000 0.564996
0.000000 0.000000 0.590175
0.000000 0.000000 0.615165
0.000000 0.000000 0.639977
0.000000 0.000000 0.664621
0.000000 0.000000 0.689104
0.000000 0.000000 0.713435
0.000000 0.000000 0.737620
0.000000 0.000000 0.761666
0.000000 0.000000 0.785578
0.000000 0.000000 0.809363
0.000000 0.000000 0.833025
0.000000 0.000000 0.856570
0.000000 0.000000 0.880000
0.000000 0.040468 0.000000
0.000000 0.040468 0.046249
0.000000 0.040468 0.083364
0.000000 0.040468 0.117668
0.000000 0.040468 0.150264
0.000000 0.040468 0.181648
0.000000 0.040468 0.212097
0.000000 0.040468 0.241790
0.000000 0.040468 0.270852
0.000000 0.040468 0.299372
0.000000 0.040468 0.327420
0.000000 0.040468 0.355050
0.000000 0.040468 0.382304
0.000000 0.040468 0.409220
0.000000 0.040468 0.435827
0.000000 0.040468 0.462150
0.000000 0.040468 0.488211
0.000000 0.040468 0.514028
0.000000 0.040468 0.539618
0.000000 0.040468 0.564996
0.000000 0.040468 0.590175
0.000000 0.040468 0.615165
0.000000 0.040468 0.639977
0.000000 0.040468 0.664621
0.000000 0.040468 0.689104
0.000000 0.040468 0.713435
0.000000 0.040468 0.737620
0.000000 0.040468 0.761666
0.000000 0.040468 0.785578
0.000000 0.040468 0.809363
0.000000 0.040468 0.833025
0.000000 0.052030 1.000000
0.000000 0.052030 1.000000
0.000000 0.072944 0.000000
0.000000 0.072944 0.046249
0.000000 0.072944 0.083364
0.000000 0.072944 0.117668
0.000000 0.072944 0.150264
0.000000 0.072944 0.181648
0.000000 0.072944 0.212097
0.000000 0.072944 0.241790
0.000000 0.072944 0.270852
0.000000 0.072944 0.299372
0.000000 0.072944 0.327420
0.000000 0.072944 0.355050
0.000000 0.072944 0.382304
0.000000 0.072944 0.409220
0.000000 0.072944 0.435827
0.000000 0.072944 0.462150
0.000000 0.072944 0.488211
0.000000 0.072944 0.514028
0.000000 0.072944 0.539618
0.000000 0.072944 0.564996
0.000000 0.072944 0.590175
0.000000 0.072944 0.615165
0.000000 0.072944 0.639977
0.000000 0.072944 0.664621
0.000000 0.072944 0.689104
0.000000 0.072944 0.713435
0.000000 0.072944 0.737620
0.000000 0.072944 0.761666
0.000000 0.072944 0.785578
0.000000 0.093785 1.000000
0.000000 0.093785 1.000000
0.000000 0.093785 1.000000
0.000000 0.093785 1.000000
0.000000 0.102959 0.000000
0.000000 0.102959 0.046249
0.000000 0.102959 0.083364
0.000000 0.102959 0.117668
0.000000 0.102959 0.150264
0.000000 0.102959 0.181648
0.000000 0.102959 0.212097
0.000000 0.102959 0.241790
0.000000 0.102959 0.270852
0.000000 0.102959 0.299372
0.000000 0.102959 0.327420
0.000000 0.102959 0.355050
0.000000 0.102959 0.382304
0.000000 0.102959 0.409220
0.000000 0.102959 0.435827
0.000000 0.102959 0.462150
0.000000 0.102959 0.488211
0.000000 0.102959 0.514028
0.000000 0.102959 0.539618
0.000000 0.102959 0.564996
0.000000 0.102959 0.590175
0.000000 0.102959 0.615165
0.000000 0.102959 0.639977
0.000000 0.102959 0.664621
0.000000 0.102959 0.689104
0.000000 0.102959 0.713435
0.000000 0.102959 0.737620
0.000000 0.132376 0.952082
0.000000 0.132376 0.981973
0.000000 0.132376 1.000000
0.000000 0.132376 1.000000
0.000000 0.132376 1.000000
0.000000 0.132376 1.000000
0.000000 0.131481 0.000000
0.000000 0.131481 0.046249
0.000000 0.131481 0.083364
0.000000 0.131481 0.117668
0.000000 0.131481 0.150264
0.000000 0.131481 0.181648
0.000000 0.131481 0.212097
0.000000 0.131481 0.241790
0.000000 0.131481 0.270852
0.000000 0.131481 0.299372
0.000000 0.131481 0.327420
0.000000 0.131481 0.355050
0.000000 0.131481 0.382304
0.000000 0.131481 0.409220
0.000000 0.131481 0.435827
0.000000 0.131481 0.462150
0.000000 0.131481 0.488211
0.000000 0.131481 0.514028
0.000000 0.131481 0.539618
0.000000 0.131481 0.564996
0.000000 0.131481 0.590175
0.000000 0.131481 0.615165
0.000000 0.131481 0.639977
0.000000 0.131481 0.664621
0.000000 0.131481 0.689104
0.000000 0.169047 0.891793
0.000000 0.169047 0.922025
0.000000 0.169047 0.952082
0.000000 0.169047 0.981973
0.000000 0.169047 1.000000
0.000000 0.169047 1.000000
0.000000 0.169047 1.000000
0.000000 0.169047 1.000000
0.000000 0.158942 0.000000
0.000000 0.158942 0.046249
0.000000 0.158942 0.083364
0.000000 0.158942 0.117668
0.000000 0.158942 0.150264
0.000000 0.158942 0.181648
0.000000 0.158942 0.212097
0.000000 0.158942 0.241790
0.000000 0.158942 0.270852
0.000000 0.158942 0.299372
0.000000 0.158942 0.327420
0.000000 0.158942 0.355050
0.000000 0.158942 0.382304
0.000000 0.158942 0.409220
0.000000 0.158942 0.435827
0.000000 0.158942 0.462150
0.000000 0.158942 0.488211
0.000000 0.158942 0.514028
0.000000 0.158942 0.539618
0.000000 0.158942 0.564996
0.000000 0.158942 0.590175
0.000000 0.158942 0.615165
0.000000 0.158942 0.639977
0.000000 0.204354 0.830776
0.000000 0.204354 0.861380
0.000000 0.204354 0.891793
0.000000 0.204354 0.922025
0.000000 0.204354 0.952082
0.000000 0.204354 0.981973
0.000000 0.204354 1.000000
0.000000 0.204354 1.000000
0.000000 0.204354 1.000000
0.000000 0.204354 1.000000
0.000000 0.185585 0.000000
0.000000 0.185585 0.046249
0.000000 0.185585 0.083364
0.000000 0.185585 0.117668
0.000000 0.185585 0.150264
0.000000 0.185585 0.181648
0.000000 0.185585 0.212097
0.000000 0.185585 0.241790
0.000000 0.185585 0.270852
0.000000 0.185585 0.299372
0.000000 0.185585 0.327420
0.000000 0.185585 0.355050
0.000000 0.185585 0.382304
0.000000 0.185585 0.409220
0.000000 0.185585 0.435827
0.000000 0.185585 0.462150
0.000000 0.185585 0.488211
0.000000 0.185585 0.514028
0.000000 0.185585 0.539618
0.000000 0.185585 0.564996
0.000000 0.185585 0.590175
0.000000 0.238609 0.768956
0.000000 0.238609 0.799971
0.000000 0.238609 0.830776
0.000000 0.238609 0.861380
0.000000 0.238609 0.891793
0.000000 0.238609 0.922025
0.000000 0.238609 0.952082
0.000000 0.238609 0.981973
0.000000 0.238609 1.000000
0.000000 0.238609 1.000000
0.000000 0.238609 1.000000
0.000000 0.238609 1.000000
0.000000 0.211566 0.000000
0.000000 0.211566 0.046249
0.000000 0.211566 0.083364
0.000000 0.211566 0.117668
0.000000 0.211566 0.150264
0.000000 0.211566 0.181648
0.000000 0.211566 0.212097
0.000000 0.211566 0.241790
0.000000 0.211566 0.270852
0.000000 0.211566 0.299372
0.000000 0.211566 0.327420
0.000000 0.211566 0.355050
0.000000 0.211566 0.382304
0.000000 0.211566 0.409220
0.000000 0.211566 0.435827
0.000000 0.211566 0.462150
0.000000 0.211566 0.488211
0.000000 0.211566 0.514028
0.000000 0.211566 0.539618
0.000000 0.272014 0.706246
0.000000 0.272014 0.737719
0.000000 0.272014 0.768956
0.000000 0.272014 0.799971
0.000000 0.272014 0.830776
0.000000 0.272014 0.861380
0.000000 0.272014 0.891793
0.000000 0.272014 0.922025
0.000000 0.272014 0.952082
0.000000 0.272014 0.981973
0.000000 0.272014 1.000000
0.000000 0.272014 1.000000
0.000000 0.272014 1.000000
0.000000 0.272014 1.000000
0.000000 0.236995 0.000000
0.000000 0.236995 0.046249
0.000000 0.236995 0.083364
0.000000 0.236995 0.117668
0.000000 0.236995 0.150264
0.000000 0.236995 0.181648
0.000000 0.236995 0.212097
0.000000 0.236995 0.241790
0.000000 0.236995 0.270852
0.000000 0.236995 0.299372
0.000000 0.236995 0.327420
0.000000 0.236995 0.355050
0.000000 0.236995 0.382304
0.000000 0.236995 0.409220
0.000000 0.236995 0.435827
0.000000 0.236995 0.462150
0.000000 0.236995 0.488211
0.000000 0.304708 0.642535
0.000000 0.304708 0.674523
0.000000 0.304708 0.706246
0.000000 0.304708 0.737719
0.000000 0.304708 0.768956
0.000000 0.304708 0.799971
0.000000 0.304708 0.830776
0.000000 0.304708 0.861380
0.000000 0.304708 0.891793
0.000000 0.304708 0.922025
0.000000 0.304708 0.952082
0.000000 0.304708 0.981973
0.000000 0.304708 1.000000
0.000000 0.304708 1.000000
0.000000 0.304708 1.000000
0.000000 0.304708 1.000000
0.000000 0.261951 0.000000
0.000000 0.261951 0.046249
0.000000 0.261951 0.083364
0.000000 0.261951 0.117668
0.000000 0.261951 0.150264
0.000000 0.261951 0.181648
0.000000 0.261951 0.212097
0.000000 0.261951 0.241790
0.000000 0.261951 0.270852
0.000000 0.261951 0.299372
0.000000 0.261951 0.327420
0.000000 0.261951 0.355050
0.000000 0.261951 0.382304
0.000000 0.261951 0.409220
0.000000 0.261951 0.435827
0.000000 0.336794 0.577687
0.000000 0.336794 0.610263
0.000000 0.336794 0.642535
0.000000 0.336794 0.674523
0.000000 0.336794 0.706246
0.000000 0.336794 0.737719
0.000000 0.336794 0.768956
0.000000 0.336794 0.799971
0.000000 0.336794 0.830776
0.000000 0.336794 0.861380
0.000000 0.336794 0.891793
0.000000 0.336794 0.922025
0.000000 0.336794 0.952082
0.000000 0.336794 0.981973
0.000000 0.336794 1.000000
0.000000 0.336794 1.000000
0.000000 0.336794 1.000000
0.000000 0.336794 1.000000
0.000000 0.286492 0.000000
0.000000 0.286492 0.046249
0.000000 0.286492 0.083364
0.000000 0.286492 0.117668
0.000000 0.286492 0.150264
0.000000 0.286492 0.181648
0.000000 0.286492 0.212097
0.000000 0.286492 0.241790
0.000000 0.286492 0.270852
0.000000 0.286492 0.299372
0.000000 0.286492 0.327420
0.000000 0.286492 0.355050
0.000000 0.286492 0.382304
0.000000 0.368347 0.511525
0.000000 0.368347 0.544784
0.000000 0.368347 0.577687
0.000000 0.368347 0.610263
0.000000 0.368347 0.642535
0.000000 0.368347 0.674523
0.000000 0.368347 0.706246
0.000000 0.368347 0.737719
0.000000 0.368347 0.768956
0.000000 0.368347 0.799971
0.000000 0.368347 0.830776
0.000000 0.368347 0.861380
0.000000 0.368347 0.891793
0.000000 0.368347 0.922025
0.000000 0.368347 0.952082
0.000000 0.368347 0.981973
0.000000 0.368347 1.000000
0.000000 0.368347 1.000000
0.000000 0.368347 1.000000
0.000000 0.368347 1.000000
0.000000 0.310668 0.000000
0.000000 0.310668 0.046249
0.000000 0.310668 0.083364
0.000000 0.310668 0.117668
0.000000 0.310668 0.150264
0.000000 0.310668 0.181648
0.000000 0.310668 0.212097
0.000000 0.310668 0.241790
0.000000 0.310668 0.270852
0.000000 0.310668 0.299372
0.000000 0.310668 0.327420
0.000000 0.399431 0.443812
0.000000 0.399431 0.477880
0.000000 0.399431 0.511525
0.000000 0.399431 0.544784
0.000000 0.399431 0.577687
0.000000 0.399431 0.610263
0.000000 0.399431 0.642535
0.000000 0.399431 0.674523
0.000000 0.399431 0.706246
0.000000 0.399431 0.737719
0.000000 0.399431 0.768956
0.000000 0.399431 0.799971
0.000000 0.399431 0.830776
0.000000 0.399431 0.861380
0.000000 0.399431 0.891793
0.000000 0.399431 0.922025
0.000000 0.399431 0.952082
0.000000 0.399431 0.981973
0.000000 0.399431 1.000000
0.000000 0.399431 1.000000
0.000000 0.399431 1.000000
0.000000 0.399431 1.000000
0.000000 0.334516 0.000000
0.000000 0.334516 0.046249
0.000000 0.334516 0.083364
0.000000 0.334516 0.117668
0.000000 0.334516 0.150264
0.000000 0.334516 0.181648
0.000000 0.334516 0.212097
0.000000 0.334516 0.241790
0.000000 0.334516 0.270852
0.000000 0.430092 0.374215
0.000000 0.430092 0.409275
0.000000 0.430092 0.443812
0.000000 0.430092 0.477880
0.000000 0.430092 0.511525
0.000000 0.430092 0.544784
0.000000 0.430092 0.577687
0.000000 0.430092 0.610263
0.000000 0.430092 0.642535
0.000000 0.430092 0.674523
0.000000 0.430092 0.706246
0.000000 0.430092 0.737719
0.000000 0.430092 0.768956
0.000000 0.430092 0.799971
0.000000 0.430092 0.830776
0.000000 0.430092 0.861380
0.000000 0.430092 0.891793
0.000000 0.430092 0.922025
0.000000 0.430092 0.952082
0.000000 0.430092 0.981973
0.000000 0.430092 1.000000
0.000000 0.430092 1.000000
0.000000 0.430092 1.000000
0.000000 0.430092 1.000000
0.000000 0.358068 0.000000
0.000000 0.358068 0.046249
0.000000 0.358068 0.083364
0.000000 0.358068 0.117668
0.000000 0.358068 0.150264
0.000000 0.358068 0.181648
0.000000 0.358068 0.212097
0.000000 0.460373 0.302238
0.000000 0.460373 0.338565
0.000000 0.460373 0.374215
0.000000 0.460373 0.409275
0.000000 0.460373 0.443812
0.000000 0.460373 0.477880
0.000000 0.460373 0.511525
0.000000 0.460373 0.544784
0.000000 0.460373 0.577687
0.000000 0.460373 0.610263
0.000000 0.460373 0.642535
0.000000 0.460373 0.674523
0.000000 0.460373 0.706246
0.000000 0.460373 0.737719
0.000000 0.460373 0.768956
0.000000 0.460373 0.799971
0.000000 0.460373 0.830776
0.000000 0.460373 0.861380
0.000000 0.460373 0.891793
0.000000 0.460373 0.922025
0.000000 0.460373 0.952082
0.000000 0.460373 0.981973
0.000000 0.460373 1.000000
0.000000 0.460373 1.000000
0.000000 0.460373 1.000000
0.000000 0.460373 1.000000
0.000000 0.381349 0.000000
0.000000 0.381349 0.046249
0.000000 0.381349 0.083364
0.000000 0.381349 0.117668
0.000000 0.381349 0.150264
0.000000 0.490305 0.227060
0.000000 0.490305 0.265121
0.000000 0.490305 0.302238
0.000000 0.490305 0.338565
0.000000 0.490305 0.374215
0.000000 0.490305 0.409275
0.000000 0.490305 0.443812
0.000000 0.490305 0.477880
0.000000 0.490305 0.511525
0.000000 0.490305 0.544784
0.000000 0.490305 0.577687
0.000000 0.490305 0.610263
0.000000 0.490305 0.642535
0.000000 0.490305 0.674523
0.000000 0.490305 0.706246
0.000000 0.490305 0.737719
0.000000 0.490305 0.768956
0.000000 0.490305 0.799971
0.000000 0.490305 0.830776
0.000000 0.490305 0.861380
0.000000 0.490305 0.891793
0.000000 0.490305 0.922025
0.000000 0.490305 0.952082
0.000000 0.490305 0.981973
0.000000 0.490305 1.000000
0.000000 0.490305 1.000000
0.000000 0.490305 1.000000
0.000000 0.490305 1.000000
0.000000 0.404381 0.000000
0.000000 0.404381 0.046249
0.000000 0.404381 0.083364
0.000000 0.519919 0.147085
0.000000 0.519919 0.187831
0.000000 0.519919 0.227060
0.000000 0.519919 0.265121
0.000000 0.519919 0.302238
0.000000 0.519919 0.338565
0.000000 0.519919 0.374215
0.000000 0.519919 0.409275
0.000000 0.519919 0.443812
0.000000 0.519919 0.477880
0.000000 0.519919 0.511525
0.000000 0.519919 0.544784
0.000000 0.519919 0.577687
0.000000 0.519919 0.610263
0.000000 0.519919 0.642535
0.000000 0.519919 0.674523
0.000000 0.519919 0.706246
0.000000 0.519919 0.737719
0.000000 0.519919 0.768956
0.000000 0.519919 0.799971
0.000000 0.519919 0.830776
0.000000 0.519919 0.861380
0.000000 0.519919 0.891793
0.000000 0.519919 0.922025
0.000000 0.519919 0.952082
0.000000 0.519919 0.981973
0.000000 0.519919 1.000000
0.000000 0.519919 1.000000
0.000000 0.519919 1.000000
0.000000 0.519919 1.000000
0.000000 0.427184 0.000000
0.000000 0.549237 0.057812
0.000000 0.549237 0.104206
0.000000 0.549237 0.147085
0.000000 0.549237 0.187831
0.000000 0.549237 0.227060
0.000000 0.549237 0.265121
0.000000 0.549237 0.302238
0.000000 0.549237 0.338565
0.000000 0.549237 0.374215
0.000000 0.549237 0.409275
0.000000 0.549237 0.443812
0.000000 0.549237 0.477880
0.000000 0.549237 0.511525
0.000000 0.549237 0.544784
0.000000 0.549237 0.577687
0.000000 0.549237 0.610263
0.000000 0.549237 0.642535
0.000000 0.549237 0.674523
0.000000 0.549237 0.706246
0.000000 0.549237 0.737719
0.000000 0.549237 0.768956
0.000000 0.549237 0.799971
0.000000 0.549237 0.830776
0.000000 0.549237 0.861380
0.000000 0.549237 0.891793
0.000000 0.549237 0.922025
0.000000 0.549237 0.952082
0.000000 0.549237 0.981973
0.000000 0.549237 1.000000
0.000000 0.549237 1.000000
0.000000 0.549237 1.000000
0.000000 0.549237 1.000000
0.000000 0.578281 0.000000
0.000000 0.578281 0.057812
0.000000 0.578281 0.104206
0.000000 0.578281 0.147085
0.000000 0.578281 0.187831
0.000000 0.578281 0.227060
0.000000 0.578281 0.265121
0.000000 0.578281 0.302238
0.000000 0.578281 0.338565
0.000000 0.578281 0.374215
0.000000 0.578281 0.409275
0.000000 0.578281 0.443812
0.000000 0.578281 0.477880
0.000000 0.578281 0.511525
0.000000 0.578281 0.544784
0.000000 0.578281 0.577687
0.000000 0.578281 0.610263
0.000000 0.578281 0.642535
0.000000 0.578281 0.674523
0.000000 0.578281 0.706246
0.000000 0.578281 0.737719
0.000000 0.578281 0.768956
0.000000 0.578281 0.799971
0.000000 0.578281 0.830776
0.000000 0.578281 0.861380
0.000000 0.578281 0.891793
0.000000 0.578281 0.922025
0.000000 0.578281 0.952082
0.000000 0.578281 0.981973
0.000000 0.578281 1.000000
0.000000 0.578281 1.000000
0.000000 0.578281 1.000000
0.000000 0.578281 1.000000
0.000000 0.607071 0.000000
0.000000 0.607071 0.057812
0.000000 0.607071 0.104206
0.000000 0.607071 0.147085
0.000000 0.607071 0.187831
0.000000 0.607071 0.227060
0.000000 0.607071 0.265121
0.000000 0.607071 0.302238
0.000000 0.607071 0.338565
0.000000 0.607071 0.374215
0.000000 0.607071 0.409275
0.000000 0.607071 0.443812
0.000000 0.607071 0.477880
0.000000 0.607071 0.511525
0.000000 0.607071 0.544784
0.000000 0.607071 0.577687
0.000000 0.607071 0.610263
0.000000 0.607071 0.642535
0.000000 0.607071 0.674523
0.000000 0.607071 0.706246
0.000000 0.607071 0.737719
0.000000 0.607071 0.768956
0.000000 0.607071 0.799971
0.000000 0.607071 0.830776
0.000000 0.607071 0.861380
0.000000 0.607071 0.891793
0.000000 0.607071 0.922025
0.000000 0.607071 0.952082
0.000000 0.607071 0.981973
0.000000 0.607071 1.000000
0.000000 0.607071 1.000000
0.000000 0.607071 1.000000
0.000000 0.607071 1.000000
0.000000 0.635621 0.000000
0.000000 0.635621 0.057812
0.000000 0.635621 0.104206
0.000000 0.635621 0.147085
0.000000 0.635621 0.187831
0.000000 0.635621 0.227060
0.000000 0.635621 0.265121
0.000000 0.635621 0.302238
0.000000 0.635621 0.338565
0.000000 0.635621 0.374215
0.000000 0.635621 0.409275
0.000000 0.635621 0.443812
0.000000 0.635621 0.477880
0.000000 0.635621 0.511525
0.000000 0.635621 0.544784
0.000000 0.635621 0.577687
0.000000 0.635621 0.610263
0.000000 0.635621 0.642535
0.000000 0.635621 0.674523
0.000000 0.635621 0.706246
0.000000 0.635621 0.737719
0.000000 0.635621 0.768956
0.000000 0.635621 0.799971
0.000000 0.635621 0.830776
0.000000 0.635621 0.861380
0.000000 0.635621 0.891793
0.000000 0.635621 0.922025
0.000000 0.635621 0.952082
0.000000 0.635621 0.981973
0.000000 0.635621 1.000000
0.000000 0.635621 1.000000
0.000000 0.635621 1.000000
0.000000 0.635621 1.000000
0.000000 0.663947 0.000000
0.000000 0.663947 0.057812
0.000000 0.663947 0.104206
0.000000 0.663947 0.147085
0.000000 0.663947 0.187831
0.000000 0.663947 0.227060
0.000000 0.663947 0.265121
0.000000 0.663947 0.302238
0.000000 0.663947 0.338565
0.000000 0.663947 0.374215
0.000000 0.663947 0.409275
0.000000 0.663947 0.443812
0.000000 0.663947 0.477880
0.000000 0.663947 0.511525
0.000000 0.663947 0.544784
0.000000 0.663947 0.577687
0.000000 0.663947 0.610263
0.000000 0.663947 0.642535
0.000000 0.663947 0.674523
0.000000 0.663947 0.706246
0.000000 0.663947 0.737719
0.000000 0.663947 0.768956
0.000000 0.663947 0.799971
0.000000 0.663947 0.830776
0.000000 0.663947 0.861380
0.000000 0.663947 0.891793
0.000000 0.663947 0.922025
0.000000 0.663947 0.952082
0.000000 0.663947 0.981973
0.000000 0.663947 1.000000
0.000000 0.663947 1.000000
0.000000 0.663947 1.000000
0.000000 0.663947 1.000000
0.000000 0.692061 0.000000
0.000000 0.692061 0.057812
0.000000 0.692061 0.104206
0.000000 0.692061 0.147085
0.000000 0.692061 0.187831
0.000000 0.692061 0.227060
0.000000 0.692061 0.265121
0.000000 0.692061 0.302238
0.000000 0.692061 0.338565
0.000000 0.692061 0.374215
0.000000 0.692061 0.409275
0.000000 0.692061 0.443812
0.000000 0.692061 0.477880
0.000000 0.692061 0.511525
0.000000 0.692061 0.544784
0.000000 0.692061 0.577687
0.000000 0.692061 0.610263
0.000000 0.692061 0.642535
0.000000 0.692061 0.674523
0.000000 0.692061 0.706246
0.000000 0.692061 0.737719
0.000000 0.692061 0.768956
0.000000 0.692061 0.799971
0.000000 0.692061 0.830776
0.000000 0.692061 0.861380
0.000000 0.692061 0.891793
0.000000 0.692061 0.922025
0.000000 0.692061 0.952082
0.000000 0.692061 0.981973
0.000000 0.692061 1.000000
0.000000 0.692061 1.000000
0.000000 0.692061 1.000000
0.000000 0.692061 1.000000
0.000000 0.719974 0.000000
0.000000 0.719974 0.057812
0.000000 0.719974 0.104206
0.000000 0.719974 0.147085
0.000000 0.719974 0.187831
0.000000 0.719974 0.227060
0.000000 0.719974 0.265121
0.000000 0.719974 0.302238
0.000000 0.719974 0.338565
0.000000 0.719974 0.374215
0.000000 0.719974 0.409275
0.000000 0.719974 0.443812
0.000000 0.719974 0.477880
0.000000 0.719974 0.511525
0.000000 0.719974 0.544784
0.000000 0.719974 0.577687
0.000000 0.719974 0.610263
0.000000 0.719974 0.642535
0.000000 0.719974 0.674523
0.000000 0.719974 0.706246
0.000000 0.719974 0.737719
0.000000 0.719974 0.768956
0.000000 0.719974 0.799971
0.000000 0.719974 0.830776
0.000000 0.719974 0.861380
0.000000 0.719974 0.891793
0.000000 0.719974 0.922025
0.000000 0.719974 0.952082
0.000000 0.719974 0.981973
0.000000 0.719974 1.000000
0.000000 0.719974 1.000000
0.000000 0.719974 1.000000
0.000000 0.679976 1.000000
0.000000 0.747698 0.000000
0.000000 0.747698 0.057812
0.000000 0.747698 0.104206
0.000000 0.747698 0.147085
0.000000 0.747698 0.187831
0.000000 0.747698 0.227060
0.000000 0.747698 0.265121
0.000000 0.747698 0.302238
0.000000 0.747698 0.338565
0.000000 0.747698 0.374215
0.000000 0.747698 0.409275
0.000000 0.747698 0.443812
0.000000 0.747698 0.477880
0.000000 0.747698 0.511525
0.000000 0.747698 0.544784
0.000000 0.747698 0.577687
0.000000 0.747698 0.610263
0.000000 0.747698 0.642535
0.000000 0.747698 0.674523
0.000000 0.747698 0.706246
0.000000 0.747698 0.737719
0.000000 0.747698 0.768956
0.000000 0.747698 0.799971
0.000000 0.747698 0.830776
0.000000 0.747698 0.861380
0.000000 0.747698 0.891793
0.000000 0.747698 0.922025
0.000000 0.747698 0.952082
0.000000 0.747698 0.981973
0.000000 0.747698 1.000000
0.000000 0.706159 1.000000
0.000000 0.706159 1.000000
0.000000 0.706159 1.000000
0.000000 0.775242 0.000000
0.000000 0.775242 0.057812
0.000000 0.775242 0.104206
0.000000 0.775242 0.147085
0.000000 0.775242 0.187831
0.000000 0.775242 0.227060
0.000000 0.775242 0.265121
0.000000 0.775242 0.302238
0.000000 0.775242 0.338565
0.000000 0.775242 0.374215
0.000000 0.775242 0.409275
0.000000 0.775242 0.443812
0.000000 0.775242 0.477880
0.000000 0.775242 0.511525
0.000000 0.775242 0.544784
0.000000 0.775242 0.577687
0.000000 0.775242 0.610263
0.000000 0.775242 0.642535
0.000000 0.775242 0.674523
0.000000 0.775242 0.706246
0.000000 0.775242 0.737719
0.000000 0.775242 0.768956
0.000000 0.775242 0.799971
0.000000 0.775242 0.830776
0.000000 0.775242 0.861380
0.000000 0.775242 0.891793
0.000000 0.775242 0.922025
0.000000 0.775242 0.952082
0.000000 0.732173 1.000000
0.000000 0.732173 1.000000
0.000000 0.732173 1.000000
0.000000 0.732173 1.000000
0.000000 0.732173 1.000000
0.000000 0.802614 0.000000
0.000000 0.802614 0.057812
0.000000 0.802614 0.104206
0.000000 0.802614 0.147085
0.000000 0.802614 0.187831
0.000000 0.802614 0.227060
0.000000 0.802614 0.265121
0.000000 0.802614 0.302238
0.000000 0.802614 0.338565
0.000000 0.802614 0.374215
0.000000 0.802614 0.409275
0.000000 0.802614 0.443812
0.000000 0.802614 0.477880
0.000000 0.802614 0.511525
0.000000 0.802614 0.544784
0.000000 0.802614 0.577687
0.000000 0.802614 0.610263
0.000000 0.802614 0.642535
0.000000 0.802614 0.674523
0.000000 0.802614 0.706246
0.000000 0.802614 0.737719
0.000000 0.802614 0.768956
0.000000 0.802614 0.799971
0.000000 0.802614 0.830776
0.000000 0.802614 0.861380
0.000000 0.802614 0.891793
0.000000 0.758024 1.000000
0.000000 0.758024 1.000000
0.000000 0.758024 1.000000
0.000000 0.758024 1.000000
0.000000 0.758024 1.000000
0.000000 0.758024 1.000000
0.000000 0.758024 1.000000
0.000000 0.829822 0.000000
0.000000 0.829822 0.057812
0.000000 0.829822 0.104206
0.000000 0.829822 0.147085
0.000000 0.829822 0.187831
0.000000 0.829822 0.227060
0.000000 0.829822 0.265121
0.000000 0.829822 0.302238
0.000000 0.829822 0.338565
0.000000 0.829822 0.374215
0.000000 0.829822 0.409275
0.000000 0.829822 0.443812
0.000000 0.829822 0.477880
0.000000 0.829822 0.511525
0.000000 0.829822 0.544784
0.000000 0.829822 0.577687
0.000000 0.829822 0.610263
0.000000 0.829822 0.642535
0.000000 0.829822 0.674523
0.000000 0.829822 0.706246
0.000000 0.829822 0.737719
0.000000 0.829822 0.768956
0.000000 0.829822 0.799971
0.000000 0.829822 0.830776
0.000000 0.783721 1.000000
0.000000 0.783721 1.000000
0.000000 0.783721 1.000000
0.000000 0.783721 1.000000
0.000000 0.783721 1.000000
