app/src/main/assets/luts/08_Cyberpunk.cube
TITLE "Cyberpunk Style"
LUT_3D_SIZE 9
0.000000 0.000000 0.000000
0.000000 0.000000 0.150264
0.000000 0.000000 0.270852
0.000000 0.000000 0.382304
0.000000 0.000000 0.488211
0.000000 0.000000 0.590175
0.000000 0.000000 0.689104
0.000000 0.000000 0.785578
0.000000 0.000000 0.880000
0.000000 0.131481 0.000000
0.000000 0.131481 0.150264
0.000000 0.131481 0.270852
0.000000 0.131481 0.382304
0.000000 0.131481 0.488211
0.000000 0.131481 0.590175
0.000000 0.131481 0.689104
0.000000 0.169047 0.981973
0.000000 0.169047 1.000000
0.000000 0.236995 0.000000
0.000000 0.236995 0.150264
0.000000 0.236995 0.270852
0.000000 0.236995 0.382304
0.000000 0.236995 0.488211
0.000000 0.304708 0.737719
0.000000 0.304708 0.861380
0.000000 0.304708 0.981973
0.000000 0.304708 1.000000
0.000000 0.334516 0.000000
0.000000 0.334516 0.150264
0.000000 0.334516 0.270852
0.000000 0.430092 0.477880
0.000000 0.430092 0.610263
0.000000 0.430092 0.737719
0.000000 0.430092 0.861380
0.000000 0.430092 0.981973
0.000000 0.430092 1.000000
0.000000 0.427184 0.000000
0.000000 0.549237 0.187831
0.000000 0.549237 0.338565
0.000000 0.549237 0.477880
0.000000 0.549237 0.610263
0.000000 0.549237 0.737719
0.000000 0.549237 0.861380
0.000000 0.549237 0.981973
0.000000 0.549237 1.000000
0.000000 0.663947 0.000000
0.000000 0.663947 0.187831
0.000000 0.663947 0.338565
0.000000 0.663947 0.477880
0.000000 0.663947 0.610263
0.000000 0.663947 0.737719
0.000000 0.663947 0.861380
0.000000 0.663947 0.981973
0.000000 0.663947 1.000000
0.000000 0.775242 0.000000
0.000000 0.775242 0.187831
0.000000 0.775242 0.338565
0.000000 0.775242 0.477880
0.000000 0.775242 0.610263
0.000000 0.775242 0.737719
0.000000 0.775242 0.861380
0.000000 0.732173 1.000000
0.000000 0.732173 1.000000
0.000000 0.883776 0.000000
0.000000 0.883776 0.187831
0.000000 0.883776 0.338565
0.000000 0.883776 0.477880
0.000000 0.883776 0.610263
0.000000 0.834677 0.885262
0.000000 0.834677 1.000000
0.000000 0.834677 1.000000
0.000000 0.834677 1.000000
0.000000 0.990000 0.000000
0.000000 0.990000 0.187831
0.000000 0.990000 0.338565
0.000000 0.990000 0.477880
0.000000 0.935000 0.732316
0.000000 0.935000 0.885262
0.000000 0.935000 1.000000
0.000000 0.935000 1.000000
0.000000 0.935000 1.000000
0.244180 0.000000 0.000000
0.244180 0.000000 0.150264
0.244180 0.000000 0.270852
0.244180 0.000000 0.382304
0.244180 0.000000 0.488211
0.244180 0.000000 0.590175
0.244180 0.000000 0.689104
0.244180 0.000000 0.785578
0.216005 0.000000 1.000000
0.244180 0.131481 0.000000
0.244180 0.131481 0.150264
0.244180 0.131481 0.270852
0.244180 0.131481 0.382304
0.244180 0.131481 0.488211
0.244180 0.131481 0.590175
0.216005 0.169047 0.861380
0.216005 0.169047 0.981973
0.216005 0.169047 1.000000
0.244180 0.236995 0.000000
0.244180 0.236995 0.150264
0.244180 0.236995 0.270852
0.244180 0.236995 0.382304
0.216005 0.304708 0.610263
0.216005 0.304708 0.737719
0.216005 0.304708 0.861380
0.216005 0.304708 0.981973
0.216005 0.304708 1.000000
0.244180 0.334516 0.000000
0.244180 0.334516 0.150264
0.216005 0.430092 0.338565
0.216005 0.430092 0.477880
0.216005 0.430092 0.610263
0.216005 0.430092 0.737719
0.216005 0.430092 0.861380
0.216005 0.430092 0.981973
0.216005 0.430092 1.000000
0.216005 0.549237 0.000000
0.216005 0.549237 0.187831
0.216005 0.549237 0.338565
0.216005 0.549237 0.477880
0.216005 0.549237 0.610263
0.216005 0.549237 0.737719
0.216005 0.549237 0.861380
0.216005 0.549237 0.981973
0.216005 0.549237 1.000000
0.216005 0.663947 0.000000
0.216005 0.663947 0.187831
0.216005 0.663947 0.338565
0.216005 0.663947 0.477880
0.216005 0.663947 0.610263
0.216005 0.663947 0.737719
0.216005 0.663947 0.861380
0.216005 0.663947 0.981973
0.216005 0.663947 1.000000
0.216005 0.775242 0.000000
0.216005 0.775242 0.187831
0.216005 0.775242 0.338565
0.216005 0.775242 0.477880
0.216005 0.775242 0.610263
0.216005 0.775242 0.737719
0.216005 0.775242 0.861380
0.206614 0.732173 1.000000
0.206614 0.732173 1.000000
0.216005 0.883776 0.000000
0.216005 0.883776 0.187831
0.216005 0.883776 0.338565
0.216005 0.883776 0.477880
0.216005 0.883776 0.610263
0.206614 0.834677 0.885262
0.206614 0.834677 1.000000
0.206614 0.834677 1.000000
0.206614 0.834677 1.000000
0.216005 0.990000 0.000000
0.216005 0.990000 0.187831
0.216005 0.990000 0.338565
0.206614 0.935000 0.573457
0.206614 0.935000 0.732316
0.206614 0.935000 0.885262
0.206614 0.935000 1.000000
0.206614 0.935000 1.000000
0.206614 0.935000 1.000000
0.440134 0.000000 0.000000
0.440134 0.000000 0.150264
0.440134 0.000000 0.270852
0.440134 0.000000 0.382304
0.440134 0.000000 0.488211
0.440134 0.000000 0.590175
0.440134 0.000000 0.689104
0.440134 0.000000 0.785578
0.389349 0.000000 1.000000
0.440134 0.131481 0.000000
0.440134 0.131481 0.150264
0.440134 0.131481 0.270852
0.440134 0.131481 0.382304
0.440134 0.131481 0.488211
0.440134 0.131481 0.590175
0.389349 0.169047 0.861380
0.389349 0.169047 0.981973
0.389349 0.169047 1.000000
0.440134 0.236995 0.000000
0.440134 0.236995 0.150264
0.440134 0.236995 0.270852
0.440134 0.236995 0.382304
0.389349 0.304708 0.610263
0.389349 0.304708 0.737719
0.389349 0.304708 0.861380
0.389349 0.304708 0.981973
0.389349 0.304708 1.000000
0.440134 0.334516 0.000000
0.440134 0.334516 0.150264
0.389349 0.430092 0.338565
0.389349 0.430092 0.477880
0.389349 0.430092 0.610263
0.389349 0.430092 0.737719
0.389349 0.430092 0.861380
0.389349 0.430092 0.981973
0.389349 0.430092 1.000000
0.389349 0.549237 0.000000
0.389349 0.549237 0.187831
0.389349 0.549237 0.338565
0.389349 0.549237 0.477880
0.389349 0.549237 0.610263
0.389349 0.549237 0.737719
0.389349 0.549237 0.861380
0.389349 0.549237 0.981973
0.389349 0.549237 1.000000
0.389349 0.663947 0.000000
0.389349 0.663947 0.187831
0.389349 0.663947 0.338565
0.389349 0.663947 0.477880
0.389349 0.663947 0.610263
0.389349 0.663947 0.737719
0.389349 0.663947 0.861380
0.389349 0.663947 0.981973
0.389349 0.663947 1.000000
0.389349 0.775242 0.000000
0.389349 0.775242 0.187831
0.389349 0.775242 0.338565
0.389349 0.775242 0.477880
0.389349 0.775242 0.610263
0.389349 0.775242 0.737719
0.389349 0.775242 0.861380
0.372421 0.732173 1.000000
0.372421 0.732173 1.000000
0.389349 0.883776 0.000000
0.389349 0.883776 0.187831
0.389349 0.883776 0.338565
0.389349 0.883776 0.477880
0.389349 0.883776 0.610263
0.372421 0.834677 0.885262
0.372421 0.834677 1.000000
0.372421 0.834677 1.000000
0.372421 0.834677 1.000000
0.389349 0.990000 0.000000
0.389349 0.990000 0.187831
0.389349 0.990000 0.338565
0.372421 0.935000 0.573457
0.372421 0.935000 0.732316
0.372421 0.935000 0.885262
0.372421 0.935000 1.000000
0.372421 0.935000 1.000000
0.372421 0.935000 1.000000
0.621245 0.000000 0.000000
0.621245 0.000000 0.150264
0.621245 0.000000 0.270852
0.621245 0.000000 0.382304
0.621245 0.000000 0.488211
0.621245 0.000000 0.590175
0.621245 0.000000 0.689104
0.549563 0.000000 0.981973
0.549563 0.000000 1.000000
0.621245 0.131481 0.000000
0.621245 0.131481 0.150264
0.621245 0.131481 0.270852
0.621245 0.131481 0.382304
0.621245 0.131481 0.488211
0.549563 0.169047 0.737719
0.549563 0.169047 0.861380
0.549563 0.169047 0.981973
0.549563 0.169047 1.000000
0.621245 0.236995 0.000000
0.621245 0.236995 0.150264
0.621245 0.236995 0.270852
0.549563 0.304708 0.477880
0.549563 0.304708 0.610263
0.549563 0.304708 0.737719
0.549563 0.304708 0.861380
0.549563 0.304708 0.981973
0.549563 0.304708 1.000000
0.621245 0.334516 0.000000
0.549563 0.430092 0.187831
0.549563 0.430092 0.338565
0.549563 0.430092 0.477880
0.549563 0.430092 0.610263
0.549563 0.430092 0.737719
0.549563 0.430092 0.861380
0.549563 0.430092 0.981973
0.549563 0.430092 1.000000
0.549563 0.549237 0.000000
0.549563 0.549237 0.187831
0.549563 0.549237 0.338565
0.549563 0.549237 0.477880
0.549563 0.549237 0.610263
0.549563 0.549237 0.737719
0.549563 0.549237 0.861380
0.549563 0.549237 0.981973
0.549563 0.549237 1.000000
0.549563 0.663947 0.000000
0.549563 0.663947 0.187831
0.549563 0.663947 0.338565
0.549563 0.663947 0.477880
0.549563 0.663947 0.610263
0.549563 0.663947 0.737719
0.549563 0.663947 0.861380
0.549563 0.663947 0.981973
0.525668 0.627061 1.000000
0.549563 0.775242 0.000000
0.549563 0.775242 0.187831
0.549563 0.775242 0.338565
0.549563 0.775242 0.477880
0.549563 0.775242 0.610263
0.549563 0.775242 0.737719
0.525668 0.732173 1.000000
0.525668 0.732173 1.000000
0.525668 0.732173 1.000000
0.549563 0.883776 0.000000
0.549563 0.883776 0.187831
0.549563 0.883776 0.338565
0.549563 0.883776 0.477880
0.525668 0.834677 0.732316
0.525668 0.834677 0.885262
0.525668 0.834677 1.000000
0.525668 0.834677 1.000000
0.525668 0.834677 1.000000
0.549563 0.990000 0.000000
0.549563 0.990000 0.187831
0.525668 0.935000 0.406278
0.525668 0.935000 0.573457
0.525668 0.935000 0.732316
0.525668 0.935000 0.885262
0.525668 0.935000 1.000000
0.525668 0.935000 1.000000
0.525668 0.935000 1.000000
0.793342 0.000000 0.000000
0.793342 0.000000 0.150264
0.793342 0.000000 0.270852
0.793342 0.000000 0.382304
0.793342 0.000000 0.488211
0.793342 0.000000 0.590175
0.793342 0.000000 0.689104
0.701803 0.000000 0.981973
0.701803 0.000000 1.000000
0.793342 0.131481 0.000000
0.793342 0.131481 0.150264
0.793342 0.131481 0.270852
0.793342 0.131481 0.382304
0.793342 0.131481 0.488211
0.701803 0.169047 0.737719
0.701803 0.169047 0.861380
0.701803 0.169047 0.981973
0.701803 0.169047 1.000000
0.793342 0.236995 0.000000
0.793342 0.236995 0.150264
0.793342 0.236995 0.270852
0.701803 0.304708 0.477880
0.701803 0.304708 0.610263
0.701803 0.304708 0.737719
0.701803 0.304708 0.861380
0.701803 0.304708 0.981973
0.701803 0.304708 1.000000
0.793342 0.334516 0.000000
0.701803 0.430092 0.187831
0.701803 0.430092 0.338565
0.701803 0.430092 0.477880
0.701803 0.430092 0.610263
0.701803 0.430092 0.737719
0.701803 0.430092 0.861380
0.701803 0.430092 0.981973
0.701803 0.430092 1.000000
0.701803 0.549237 0.000000
0.701803 0.549237 0.187831
0.701803 0.549237 0.338565
0.701803 0.549237 0.477880
0.701803 0.549237 0.610263
0.701803 0.549237 0.737719
0.701803 0.549237 0.861380
0.701803 0.549237 0.981973
0.701803 0.549237 1.000000
0.701803 0.663947 0.000000
0.701803 0.663947 0.187831
0.701803 0.663947 0.338565
0.701803 0.663947 0.477880
0.701803 0.663947 0.610263
0.701803 0.663947 0.737719
0.701803 0.663947 0.861380
0.701803 0.663947 0.981973
0.671290 0.627061 1.000000
0.701803 0.775242 0.000000
0.701803 0.775242 0.187831
0.701803 0.775242 0.338565
0.701803 0.775242 0.477880
0.701803 0.775242 0.610263
0.701803 0.775242 0.737719
0.671290 0.732173 1.000000
0.671290 0.732173 1.000000
0.671290 0.732173 1.000000
0.701803 0.883776 0.000000
0.701803 0.883776 0.187831
0.701803 0.883776 0.338565
0.701803 0.883776 0.477880
0.671290 0.834677 0.732316
0.671290 0.834677 0.885262
0.671290 0.834677 1.000000
0.671290 0.834677 1.000000
0.671290 0.834677 1.000000
0.701803 0.990000 0.000000
0.701803 0.990000 0.187831
0.671290 0.935000 0.406278
0.671290 0.935000 0.573457
0.671290 0.935000 0.732316
0.671290 0.935000 0.885262
0.671290 0.935000 1.000000
0.671290 0.935000 1.000000
0.671290 0.935000 1.000000
0.959034 0.000000 0.000000
0.959034 0.000000 0.150264
0.959034 0.000000 0.270852
0.959034 0.000000 0.382304
0.959034 0.000000 0.488211
0.959034 0.000000 0.590175
0.959034 0.000000 0.689104
0.848376 0.000000 0.981973
0.848376 0.000000 1.000000
0.959034 0.131481 0.000000
0.959034 0.131481 0.150264
0.959034 0.131481 0.270852
0.959034 0.131481 0.382304
0.959034 0.131481 0.488211
0.848376 0.169047 0.737719
0.848376 0.169047 0.861380
0.848376 0.169047 0.981973
0.848376 0.169047 1.000000
0.959034 0.236995 0.000000
0.959034 0.236995 0.150264
0.959034 0.236995 0.270852
0.848376 0.304708 0.477880
0.848376 0.304708 0.610263
0.848376 0.304708 0.737719
0.848376 0.304708 0.861380
0.848376 0.304708 0.981973
0.848376 0.304708 1.000000
0.959034 0.334516 0.000000
0.848376 0.430092 0.187831
0.848376 0.430092 0.338565
0.848376 0.430092 0.477880
0.848376 0.430092 0.610263
0.848376 0.430092 0.737719
0.848376 0.430092 0.861380
0.848376 0.430092 0.981973
0.848376 0.430092 1.000000
0.848376 0.549237 0.000000
0.848376 0.549237 0.187831
0.848376 0.549237 0.338565
0.848376 0.549237 0.477880
0.848376 0.549237 0.610263
0.848376 0.549237 0.737719
0.848376 0.549237 0.861380
0.848376 0.549237 0.981973
0.848376 0.549237 1.000000
0.848376 0.663947 0.000000
0.848376 0.663947 0.187831
0.848376 0.663947 0.338565
0.848376 0.663947 0.477880
0.848376 0.663947 0.610263
0.848376 0.663947 0.737719
0.848376 0.663947 0.861380
0.848376 0.663947 0.981973
0.811490 0.627061 1.000000
0.848376 0.775242 0.000000
0.848376 0.775242 0.187831
0.848376 0.775242 0.338565
0.848376 0.775242 0.477880
0.848376 0.775242 0.610263
0.848376 0.775242 0.737719
0.811490 0.732173 1.000000
0.811490 0.732173 1.000000
0.811490 0.732173 1.000000
0.848376 0.883776 0.000000
0.848376 0.883776 0.187831
0.848376 0.883776 0.338565
0.848376 0.883776 0.477880
0.811490 0.834677 0.732316
0.811490 0.834677 0.885262
0.811490 0.834677 1.000000
0.811490 0.834677 1.000000
0.811490 0.834677 1.000000
0.848376 0.990000 0.000000
0.848376 0.990000 0.187831
0.811490 0.935000 0.406278
0.811490 0.935000 0.573457
0.811490 0.935000 0.732316
0.811490 0.935000 0.885262
0.811490 0.935000 1.000000
0.811490 0.935000 1.000000
0.811490 0.935000 1.000000
1.000000 0.000000 0.000000
1.000000 0.000000 0.150264
1.000000 0.000000 0.270852
1.000000 0.000000 0.382304
1.000000 0.000000 0.488211
1.000000 0.000000 0.590175
0.990587 0.000000 0.861380
0.990587 0.000000 0.981973
0.990587 0.000000 1.000000
1.000000 0.131481 0.000000
1.000000 0.131481 0.150264
1.000000 0.131481 0.270852
1.000000 0.131481 0.382304
0.990587 0.169047 0.610263
0.990587 0.169047 0.737719
0.990587 0.169047 0.861380
0.990587 0.169047 0.981973
0.990587 0.169047 1.000000
1.000000 0.236995 0.000000
1.000000 0.236995 0.150264
0.990587 0.304708 0.338565
0.990587 0.304708 0.477880
0.990587 0.304708 0.610263
0.990587 0.304708 0.737719
0.990587 0.304708 0.861380
0.990587 0.304708 0.981973
0.990587 0.304708 1.000000
0.990587 0.430092 0.000000
0.990587 0.430092 0.187831
0.990587 0.430092 0.338565
0.990587 0.430092 0.477880
0.990587 0.430092 0.610263
0.990587 0.430092 0.737719
0.990587 0.430092 0.861380
0.990587 0.430092 0.981973
0.990587 0.430092 1.000000
0.990587 0.549237 0.000000
0.990587 0.549237 0.187831
0.990587 0.549237 0.338565
0.990587 0.549237 0.477880
0.990587 0.549237 0.610263
0.990587 0.549237 0.737719
0.990587 0.549237 0.861380
0.990587 0.549237 0.981973
0.990587 0.549237 1.000000
0.990587 0.663947 0.000000
0.990587 0.663947 0.187831
0.990587 0.663947 0.338565
0.990587 0.663947 0.477880
0.990587 0.663947 0.610263
0.990587 0.663947 0.737719
0.990587 0.663947 0.861380
0.947518 0.627061 1.000000
0.947518 0.627061 1.000000
0.990587 0.775242 0.000000
0.990587 0.775242 0.187831
0.990587 0.775242 0.338565
0.990587 0.775242 0.477880
0.990587 0.775242 0.610263
0.947518 0.732173 0.885262
0.947518 0.732173 1.000000
0.947518 0.732173 1.000000
0.947518 0.732173 1.000000
0.990587 0.883776 0.000000
0.990587 0.883776 0.187831
0.990587 0.883776 0.338565
0.947518 0.834677 0.573457
0.947518 0.834677 0.732316
0.947518 0.834677 0.885262
0.947518 0.834677 1.000000
0.947518 0.834677 1.000000
0.947518 0.834677 1.000000
0.990587 0.990000 0.000000
0.947518 0.935000 0.225397
0.947518 0.935000 0.406278
0.947518 0.935000 0.573457
0.947518 0.935000 0.732316
0.947518 0.935000 0.885262
0.947518 0.935000 1.000000
0.947518 0.935000 1.000000
0.947518 0.935000 1.000000
1.000000 0.000000 0.000000
1.000000 0.000000 0.150264
1.000000 0.000000 0.270852
1.000000 0.000000 0.382304
1.000000 0.000000 0.488211
1.000000 0.000000 0.590175
1.000000 0.000000 0.861380
1.000000 0.000000 0.981973
1.000000 0.000000 1.000000
1.000000 0.131481 0.000000
1.000000 0.131481 0.150264
1.000000 0.131481 0.270852
1.000000 0.131481 0.382304
1.000000 0.169047 0.610263
1.000000 0.169047 0.737719
1.000000 0.169047 0.861380
1.000000 0.169047 0.981973
1.000000 0.169047 1.000000
1.000000 0.236995 0.000000
1.000000 0.236995 0.150264
1.000000 0.304708 0.338565
1.000000 0.304708 0.477880
1.000000 0.304708 0.610263
1.000000 0.304708 0.737719
1.000000 0.304708 0.861380
1.000000 0.304708 0.981973
1.000000 0.304708 1.000000
1.000000 0.430092 0.000000
1.000000 0.430092 0.187831
1.000000 0.430092 0.338565
1.000000 0.430092 0.477880
1.000000 0.430092 0.610263
1.000000 0.430092 0.737719
1.000000 0.430092 0.861380
1.000000 0.430092 0.981973
1.000000 0.430092 1.000000
1.000000 0.549237 0.000000
1.000000 0.549237 0.187831
1.000000 0.549237 0.338565
1.000000 0.549237 0.477880
1.000000 0.549237 0.610263
1.000000 0.549237 0.737719
1.000000 0.549237 0.861380
1.000000 0.549237 0.981973
1.000000 0.549237 1.000000
1.000000 0.663947 0.000000
1.000000 0.663947 0.187831
1.000000 0.663947 0.338565
1.000000 0.663947 0.477880
1.000000 0.663947 0.610263
1.000000 0.663947 0.737719
1.000000 0.663947 0.861380
1.000000 0.627061 1.000000
1.000000 0.627061 1.000000
1.000000 0.775242 0.000000
1.000000 0.775242 0.187831
1.000000 0.775242 0.338565
1.000000 0.775242 0.477880
1.000000 0.775242 0.610263
1.000000 0.732173 0.885262
1.000000 0.732173 1.000000
1.000000 0.732173 1.000000
1.000000 0.732173 1.000000
1.000000 0.883776 0.000000
1.000000 0.883776 0.187831
1.000000 0.883776 0.338565
1.000000 0.834677 0.573457
1.000000 0.834677 0.732316
1.000000 0.834677 0.885262
1.000000 0.834677 1.000000
1.000000 0.834677 1.000000
1.000000 0.834677 1.000000
1.000000 0.990000 0.000000
1.000000 0.935000 0.225397
1.000000 0.935000 0.406278
1.000000 0.935000 0.573457
1.000000 0.935000 0.732316
1.000000 0.935000 0.885262
1.000000 0.935000 1.000000
1.000000 0.935000 1.000000
1.000000 0.935000 1.000000
1.000000 0.000000 0.000000
1.000000 0.000000 0.150264
1.000000 0.000000 0.270852
1.000000 0.000000 0.382304
1.000000 0.000000 0.488211
1.000000 0.000000 0.737719
1.000000 0.000000 0.861380
1.000000 0.000000 0.981973
1.000000 0.000000 1.000000
1.000000 0.131481 0.000000
1.000000 0.131481 0.150264
1.000000 0.131481 0.270852
1.000000 0.131481 0.382304
1.000000 0.169047 0.610263
1.000000 0.169047 0.737719
1.000000 0.169047 0.861380
1.000000 0.169047 0.981973
1.000000 0.169047 1.000000
1.000000 0.236995 0.000000
1.000000 0.236995 0.150264
1.000000 0.304708 0.338565
1.000000 0.304708 0.477880
1.000000 0.304708 0.610263
1.000000 0.304708 0.737719
1.000000 0.304708 0.861380
1.000000 0.304708 0.981973
1.000000 0.304708 1.000000
1.000000 0.430092 0.000000
1.000000 0.430092 0.187831
1.000000 0.430092 0.338565
1.000000 0.430092 0.477880
1.000000 0.430092 0.610263
1.000000 0.430092 0.737719
1.000000 0.430092 0.861380
1.000000 0.430092 0.981973
1.000000 0.430092 1.000000
1.000000 0.549237 0.000000
1.000000 0.549237 0.187831
1.000000 0.549237 0.338565
1.000000 0.549237 0.477880
1.000000 0.549237 0.610263
1.000000 0.549237 0.737719
1.000000 0.549237 0.861380
1.000000 0.549237 0.981973
1.000000 0.518724 1.000000
1.000000 0.663947 0.000000
1.000000 0.663947 0.187831
1.000000 0.663947 0.338565
1.000000 0.663947 0.477880
1.000000 0.663947 0.610263
1.000000 0.663947 0.737719
1.000000 0.627061 1.000000
1.000000 0.627061 1.000000
1.000000 0.627061 1.000000
1.000000 0.775242 0.000000
1.000000 0.775242 0.187831
1.000000 0.775242 0.338565
1.000000 0.775242 0.477880
1.000000 0.732173 0.732316
1.000000 0.732173 0.885262
1.000000 0.732173 1.000000
1.000000 0.732173 1.000000
1.000000 0.732173 1.000000
1.000000 0.883776 0.000000
1.000000 0.883776 0.187831
1.000000 0.834677 0.406278
1.000000 0.834677 0.573457
1.000000 0.834677 0.732316
1.000000 0.834677 0.885262
1.000000 0.834677 1.000000
1.000000 0.834677 1.000000
1.000000 0.834677 1.000000
1.000000 0.935000 0.000000
1.000000 0.935000 0.225397
1.000000 0.935000 0.406278
1.000000 0.935000 0.573457
1.000000 0.935000 0.732316
1.000000 0.935000 0.885262
1.000000 0.935000 1.000000
1.000000 0.935000 1.000000
1.000000 0.935000 1.000000
