app/src/main/assets/luts/09_Black_White_Cinema.cube
TITLE "Black White Cinema Style"
LUT_3D_SIZE 33
0.050000 0.050000 0.050000
0.064419 0.064164 0.063909
0.076907 0.076431 0.075955
0.088756 0.088072 0.087386
0.100210 0.099323 0.098434
0.111377 0.110293 0.109206
0.122322 0.121044 0.119764
0.133085 0.131617 0.130146
0.143694 0.142039 0.140381
0.154172 0.152332 0.150488
0.164534 0.162510 0.160483
0.174792 0.172587 0.170379
0.184957 0.182573 0.180185
0.195038 0.192476 0.189909
0.205042 0.202303 0.199559
0.214974 0.212060 0.209140
0.224840 0.221752 0.218657
0.234645 0.231383 0.228115
0.244392 0.240958 0.237517
0.254085 0.250480 0.246868
0.263727 0.259952 0.256169
0.273321 0.269376 0.265424
0.282870 0.278756 0.274635
0.292375 0.288094 0.283804
0.301839 0.297390 0.292933
0.311264 0.306648 0.302024
0.320651 0.315870 0.311079
0.330001 0.325055 0.320099
0.339318 0.334207 0.329086
0.348601 0.343326 0.338041
0.357852 0.352414 0.346965
0.367072 0.361471 0.355859
0.376263 0.370500 0.364725
0.076461 0.075993 0.075525
0.088328 0.087651 0.086973
0.099794 0.098914 0.098033
0.110970 0.109893 0.108814
0.121923 0.120652 0.119379
0.132692 0.131231 0.129767
0.143307 0.141658 0.140007
0.153789 0.151955 0.150118
0.164154 0.162138 0.160117
0.174416 0.172218 0.170016
0.184585 0.182207 0.179825
0.194669 0.192113 0.189552
0.204675 0.201943 0.199205
0.214610 0.211702 0.208788
0.224478 0.221396 0.218308
0.234285 0.231030 0.227768
0.244034 0.240607 0.237172
0.253729 0.250131 0.246525
0.263373 0.259604 0.255828
0.272969 0.269031 0.265084
0.282519 0.278412 0.274296
0.292026 0.287751 0.283467
0.301492 0.297049 0.292598
0.310918 0.306309 0.301690
0.320306 0.315531 0.310747
0.329658 0.324718 0.319768
0.338976 0.333871 0.328756
0.348260 0.342991 0.337712
0.357512 0.352080 0.346637
0.366734 0.361139 0.355533
0.375925 0.370168 0.364399
0.385088 0.379169 0.373238
0.394224 0.388143 0.382050
0.099378 0.098505 0.097631
0.110564 0.109494 0.108422
0.121523 0.120260 0.118994
0.132298 0.130845 0.129388
0.142919 0.141277 0.139633
0.153405 0.151579 0.149748
0.163775 0.161765 0.159751
0.174040 0.171849 0.169654
0.184212 0.181841 0.179466
0.194299 0.191750 0.189196
0.204308 0.201582 0.198851
0.214245 0.211344 0.208437
0.224116 0.221041 0.217959
0.233925 0.230676 0.227421
0.243677 0.240255 0.236827
0.253374 0.249781 0.246181
0.263019 0.259257 0.255486
0.272617 0.268685 0.264744
0.282169 0.278068 0.273958
0.291677 0.287408 0.283130
0.301144 0.296708 0.292262
0.310571 0.305969 0.301356
0.319961 0.315192 0.310414
0.329315 0.324381 0.319437
0.338633 0.333535 0.328426
0.347919 0.342656 0.337383
0.357172 0.351746 0.346309
0.366395 0.360806 0.355206
0.375588 0.369836 0.364074
0.384752 0.378839 0.372914
0.393888 0.387813 0.381727
0.402997 0.396762 0.390514
0.412081 0.405685 0.399276
0.121123 0.119867 0.118608
0.131905 0.130458 0.129008
0.142530 0.140896 0.139258
0.153022 0.151202 0.149378
0.163395 0.161392 0.159385
0.173664 0.171480 0.169291
0.183840 0.181475 0.179106
0.193929 0.191387 0.188839
0.203941 0.201222 0.198497
0.213881 0.210986 0.208085
0.223754 0.220685 0.217609
0.233565 0.230323 0.227074
0.243319 0.239904 0.236482
0.253018 0.249432 0.245838
0.262665 0.258909 0.255145
0.272265 0.268339 0.264404
0.281818 0.277723 0.273620
0.291328 0.287065 0.282794
0.300796 0.296366 0.291927
0.310225 0.305629 0.301023
0.319616 0.314854 0.310081
0.328971 0.324043 0.319105
0.338291 0.333199 0.328096
0.347578 0.342321 0.337054
0.356833 0.351412 0.345982
0.366056 0.360473 0.354879
0.375250 0.369505 0.363748
0.384415 0.378508 0.372589
0.393552 0.387484 0.381403
0.402663 0.396433 0.390191
0.411747 0.405357 0.398954
0.420806 0.414256 0.407693
0.429840 0.423131 0.416408
0.142142 0.140514 0.138883
0.152638 0.150825 0.149008
0.163016 0.161019 0.159019
0.173288 0.171111 0.168928
0.183467 0.181109 0.178747
0.193560 0.191024 0.188483
0.203574 0.200861 0.198143
0.213516 0.210628 0.207734
0.223392 0.220329 0.217260
0.233206 0.229969 0.226727
0.242961 0.239552 0.236137
0.252662 0.249082 0.245495
0.262311 0.258561 0.254803
0.271912 0.267992 0.264065
0.281467 0.277379 0.273282
0.290979 0.286722 0.282457
0.300449 0.296025 0.291592
0.309879 0.305288 0.300689
0.319271 0.314515 0.309749
0.328628 0.323706 0.318774
0.337949 0.332862 0.327766
0.347237 0.341986 0.336725
0.356493 0.351079 0.345654
0.365717 0.360140 0.354552
0.374912 0.369173 0.363422
0.384078 0.378177 0.372264
0.393217 0.387154 0.381079
0.402328 0.396104 0.389868
0.411413 0.405029 0.398632
0.420473 0.413929 0.407372
0.429508 0.422805 0.416087
0.438520 0.431657 0.424780
0.447508 0.440487 0.433451
0.162636 0.160646 0.158652
0.172912 0.170741 0.168565
0.183094 0.180743 0.178387
0.193190 0.190660 0.188126
0.203207 0.200501 0.197789
0.213152 0.210270 0.207382
0.223030 0.219973 0.216911
0.232846 0.229616 0.226379
0.242603 0.239201 0.235792
0.252306 0.248732 0.245151
0.261957 0.258213 0.254462
0.271560 0.267646 0.263725
0.281117 0.277034 0.272943
0.290630 0.286379 0.282120
0.300101 0.295683 0.291256
0.309533 0.304948 0.300355
0.318927 0.314176 0.309416
0.328284 0.323368 0.318443
0.337607 0.332526 0.327436
0.346896 0.341651 0.336396
0.356153 0.350745 0.345326
0.365379 0.359808 0.354225
0.374575 0.368841 0.363096
0.383742 0.377846 0.371939
0.392881 0.386824 0.380755
0.401993 0.395776 0.389545
0.411079 0.404701 0.398310
0.420140 0.413602 0.407051
0.429177 0.422479 0.415767
0.438189 0.431332 0.424461
0.447178 0.440162 0.433132
0.456145 0.448970 0.441782
0.465089 0.457757 0.450410
0.182721 0.180376 0.178027
0.192820 0.190297 0.187769
0.202840 0.200140 0.197435
0.212787 0.209912 0.207030
0.222668 0.219618 0.216561
0.232486 0.229262 0.226032
0.242245 0.238849 0.235446
0.251950 0.248383 0.244808
0.261603 0.257865 0.254120
0.271208 0.267300 0.263385
0.280766 0.276690 0.272605
0.290281 0.286036 0.281783
0.299753 0.295342 0.290921
0.309187 0.304608 0.300021
0.318582 0.313837 0.309083
0.327940 0.323031 0.318111
0.337264 0.332190 0.327105
0.346555 0.341316 0.336067
0.355813 0.350411 0.344998
0.365040 0.359475 0.353899
0.374237 0.368509 0.362770
0.383405 0.377516 0.371614
0.392545 0.386494 0.380431
0.401659 0.395447 0.389222
0.410746 0.404373 0.397988
0.419807 0.413275 0.406729
0.428845 0.422152 0.415447
0.437858 0.431006 0.424141
0.446848 0.439838 0.432813
0.455815 0.448647 0.441464
0.464761 0.457434 0.450093
0.473685 0.466201 0.458701
0.482588 0.474947 0.467290
0.202472 0.199779 0.197080
0.212423 0.209553 0.206679
0.222305 0.219262 0.216212
0.232125 0.228908 0.225685
0.241887 0.238497 0.235101
0.251594 0.248033 0.244465
0.261249 0.257517 0.253778
0.270855 0.266954 0.263045
0.280415 0.276345 0.272267
0.289931 0.285693 0.281446
0.299406 0.295000 0.290586
0.308840 0.304268 0.299686
0.318237 0.313498 0.308751
0.327597 0.322693 0.317780
0.336922 0.331853 0.326775
0.346213 0.340981 0.335738
0.355473 0.350077 0.344670
0.364701 0.359142 0.353572
0.373899 0.368177 0.362444
0.383068 0.377185 0.371289
0.392210 0.386165 0.380108
0.401324 0.395118 0.388899
0.410412 0.404045 0.397666
0.419474 0.412948 0.406408
0.428512 0.421826 0.415127
0.437527 0.430681 0.423822
0.446517 0.439513 0.432495
0.455486 0.448323 0.441146
0.464432 0.457111 0.449776
0.473357 0.465878 0.458385
0.482261 0.474625 0.466974
0.491144 0.483352 0.475544
0.500008 0.492059 0.484094
0.221943 0.218906 0.215862
0.231765 0.228554 0.225337
0.241529 0.238146 0.234756
0.251238 0.247683 0.244121
0.260894 0.257169 0.253436
0.270502 0.266607 0.262705
0.280064 0.276000 0.271928
0.289582 0.285350 0.281109
0.299058 0.294658 0.290250
0.308494 0.303928 0.299352
0.317892 0.313159 0.308418
0.327253 0.322355 0.317448
0.336579 0.331517 0.326445
0.345872 0.340646 0.335409
0.355133 0.349742 0.344342
0.364362 0.358809 0.353245
0.373561 0.367846 0.362119
0.382731 0.376854 0.370965
0.391874 0.385835 0.379784
0.400989 0.394789 0.388576
0.410078 0.403717 0.397344
0.419141 0.412621 0.406087
0.428180 0.421500 0.414806
0.437195 0.430356 0.423502
0.446187 0.439189 0.432176
0.455156 0.447999 0.440828
0.464103 0.456788 0.449459
0.473029 0.465556 0.458069
0.481934 0.474304 0.466659
0.490818 0.483031 0.475229
0.499683 0.491739 0.483780
0.508528 0.500428 0.492312
0.517354 0.509098 0.500826
0.241171 0.237794 0.234410
0.250881 0.247333 0.243777
0.260540 0.256821 0.253094
0.270150 0.266261 0.262364
0.279713 0.275655 0.271590
0.289233 0.285007 0.280772
0.298710 0.294317 0.289914
0.308147 0.303587 0.299018
0.317547 0.312820 0.308085
0.326909 0.322018 0.317116
0.336237 0.331181 0.326114
0.345531 0.340310 0.335080
0.354792 0.349408 0.344014
0.364023 0.358476 0.352918
0.373223 0.367514 0.361793
0.382395 0.376523 0.370640
0.391538 0.385505 0.379460
0.400654 0.394460 0.388253
0.409744 0.403389 0.397022
0.418808 0.412294 0.405766
0.427848 0.421174 0.414486
0.436864 0.430030 0.423183
0.445857 0.438864 0.431857
0.454827 0.447676 0.440510
0.463774 0.456465 0.449142
0.472701 0.465234 0.457752
0.481606 0.473982 0.466343
0.490492 0.482710 0.474914
0.499357 0.491419 0.483466
0.508203 0.500109 0.491999
0.517030 0.508780 0.500513
0.525838 0.517433 0.509010
0.534628 0.526068 0.517490
0.260186 0.256473 0.252753
0.269797 0.265915 0.262024
0.279362 0.275311 0.271251
0.288883 0.284663 0.280435
0.298362 0.293975 0.289579
0.307801 0.303247 0.298684
0.317201 0.312481 0.307752
0.326565 0.321680 0.316785
0.335894 0.330844 0.325784
0.345189 0.339975 0.334750
0.354452 0.349074 0.343685
0.363684 0.358143 0.352591
0.372885 0.367182 0.361467
0.382058 0.376192 0.370315
0.391202 0.385175 0.379136
0.400319 0.394131 0.387930
0.409410 0.403061 0.396700
0.418475 0.411967 0.405445
0.427516 0.420848 0.414166
0.436533 0.429705 0.422863
0.445526 0.438539 0.431539
0.454497 0.447352 0.440192
0.463446 0.456142 0.448824
0.472373 0.464912 0.457436
0.481279 0.473661 0.466027
0.490165 0.482390 0.474599
0.499031 0.491099 0.483151
0.507878 0.499789 0.491685
0.516705 0.508461 0.500201
0.525514 0.517115 0.508698
0.534305 0.525750 0.517178
0.543079 0.534369 0.525641
0.551835 0.542970 0.534088
0.279011 0.274966 0.270912
0.288534 0.284320 0.280098
0.298014 0.293633 0.289243
0.307454 0.302906 0.298350
0.316856 0.312142 0.307419
0.326222 0.321342 0.316453
0.335552 0.330508 0.325453
0.344848 0.339640 0.334421
0.354112 0.348740 0.343357
0.363345 0.357810 0.352263
0.372547 0.366850 0.361141
0.381721 0.375861 0.369990
0.390866 0.384845 0.378812
0.399984 0.393802 0.387607
0.409076 0.402733 0.396378
0.418142 0.411639 0.405123
0.427184 0.420521 0.413845
0.436202 0.429379 0.422544
0.445196 0.438215 0.431220
0.454167 0.447028 0.439874
0.463117 0.455819 0.448507
0.472045 0.464590 0.457119
0.480952 0.473339 0.465711
0.489838 0.482069 0.474284
0.498705 0.490779 0.482837
0.507552 0.499470 0.491371
0.516381 0.508142 0.499888
0.525191 0.516797 0.508386
0.533982 0.525433 0.516867
0.542756 0.534052 0.525330
0.551513 0.542654 0.533777
0.560253 0.551239 0.542208
0.568976 0.559808 0.550622
0.297666 0.293291 0.288907
0.307108 0.302566 0.298015
0.316511 0.311803 0.307086
0.325878 0.321004 0.316121
0.335209 0.330171 0.325123
0.344507 0.339304 0.334092
0.353772 0.348406 0.343029
0.363006 0.357476 0.351936
0.372209 0.366518 0.360814
0.381384 0.375530 0.369665
0.390530 0.384515 0.378487
0.399649 0.393473 0.387284
0.408742 0.402405 0.396055
0.417809 0.411312 0.404802
0.426852 0.420195 0.413525
0.435870 0.429054 0.422224
0.444865 0.437890 0.430901
0.453838 0.446704 0.439556
0.462788 0.455496 0.448190
0.471717 0.464267 0.456803
0.480624 0.473018 0.465396
0.489512 0.481748 0.473969
0.498379 0.490459 0.482523
0.507227 0.499151 0.491058
0.516056 0.507824 0.499575
0.524867 0.516479 0.508073
0.533659 0.525116 0.516555
0.542434 0.533735 0.525019
0.551191 0.542338 0.533467
0.559931 0.550924 0.541898
0.568655 0.559493 0.550313
0.577362 0.568047 0.558713
0.586054 0.576585 0.567097
0.316166 0.311464 0.306753
0.325534 0.320666 0.315790
0.334866 0.329834 0.324792
0.344165 0.338969 0.333762
0.353431 0.348071 0.342701
0.362666 0.357143 0.351609
0.371871 0.366185 0.360488
0.381047 0.375199 0.369339
0.390194 0.384185 0.378163
0.399314 0.393144 0.386961
0.408408 0.402077 0.395733
0.417476 0.410985 0.404481
0.426520 0.419869 0.413204
0.435539 0.428729 0.421905
0.444535 0.437566 0.430582
0.453508 0.446380 0.439238
0.462459 0.455173 0.447873
0.471389 0.463945 0.456486
0.480297 0.472696 0.465080
0.489185 0.481427 0.473654
0.498053 0.490139 0.482208
0.506902 0.498831 0.490744
0.515732 0.507505 0.499262
0.524543 0.516160 0.507761
0.533336 0.524798 0.516243
0.542111 0.533418 0.524708
0.550869 0.542022 0.533156
0.559610 0.550608 0.541588
0.568334 0.559178 0.550004
0.577042 0.567732 0.558404
0.585734 0.576271 0.566789
0.594411 0.584794 0.575158
0.603072 0.593302 0.583513
0.334524 0.329498 0.324462
0.343824 0.338633 0.333433
0.353091 0.347737 0.342372
0.362327 0.356810 0.351282
0.371533 0.365853 0.360162
0.380710 0.374868 0.369014
0.389858 0.383855 0.377839
0.398979 0.392815 0.386638
0.408074 0.401749 0.395411
0.417143 0.410658 0.404159
0.426187 0.419542 0.412884
0.435207 0.428403 0.421585
0.444204 0.437241 0.430263
0.453178 0.446056 0.438920
0.462130 0.454850 0.447555
0.471060 0.463623 0.456170
0.479970 0.472375 0.464764
0.488859 0.481106 0.473339
0.497728 0.489819 0.481894
0.506577 0.498512 0.490430
0.515407 0.507186 0.498949
0.524219 0.515842 0.507449
0.533013 0.524481 0.515931
0.541789 0.533102 0.524397
0.550547 0.541705 0.532846
0.559289 0.550293 0.541278
0.568014 0.558863 0.549695
0.576722 0.567418 0.558095
0.585415 0.575957 0.566480
0.594092 0.584481 0.574851
0.602754 0.592990 0.583206
0.611400 0.601483 0.591547
0.620032 0.609963 0.599873
0.352751 0.347403 0.342044
0.361988 0.356477 0.350955
0.371195 0.365521 0.359836
0.380373 0.374537 0.368689
0.389522 0.383524 0.377515
0.398644 0.392485 0.386315
0.407740 0.401420 0.395089
0.416810 0.410330 0.403838
0.425855 0.419216 0.412563
0.434876 0.428077 0.421265
0.443874 0.436916 0.429945
0.452848 0.445732 0.438602
0.461801 0.454527 0.447238
0.470732 0.463300 0.455853
0.479642 0.472053 0.464448
0.488532 0.480786 0.473024
0.497402 0.489498 0.481580
0.506252 0.498192 0.490117
0.515083 0.506867 0.498635
0.523895 0.515524 0.507136
0.532690 0.524163 0.515620
0.541466 0.532785 0.524086
0.550225 0.541389 0.532535
0.558968 0.549977 0.540968
0.567693 0.558548 0.549385
0.576402 0.567104 0.557786
0.585095 0.575643 0.566172
0.593773 0.584168 0.574543
0.602435 0.592677 0.582899
0.611082 0.601171 0.591240
0.619715 0.609651 0.599567
0.628333 0.618117 0.607880
0.636936 0.626568 0.616180
0.370857 0.365189 0.359510
0.380035 0.374205 0.368364
0.389186 0.383194 0.377191
0.398309 0.392156 0.385991
0.407406 0.401092 0.394766
0.416477 0.410003 0.403516
0.425523 0.418889 0.412243
0.434545 0.427752 0.420945
0.443543 0.436591 0.429626
0.452519 0.445408 0.438284
0.461472 0.454204 0.446921
0.470404 0.462978 0.455537
0.479315 0.471731 0.464133
0.488205 0.480465 0.472708
0.497076 0.489178 0.481265
0.505926 0.497873 0.489803
0.514758 0.506549 0.498322
0.523571 0.515206 0.506824
0.532366 0.523846 0.515308
0.541144 0.532468 0.523775
0.549903 0.541073 0.532225
0.558646 0.549661 0.540658
0.567372 0.558233 0.549076
0.576082 0.566789 0.557478
0.584776 0.575329 0.565864
0.593454 0.583854 0.574235
0.602117 0.592364 0.582592
0.610764 0.600859 0.590933
0.619397 0.609339 0.599261
0.628016 0.617805 0.607575
0.636620 0.626258 0.615874
0.645210 0.634696 0.624161
0.653786 0.643121 0.632434
0.388850 0.382864 0.376867
0.397974 0.391827 0.385668
0.407071 0.400764 0.394444
0.416143 0.409676 0.403195
0.425190 0.418563 0.411922
0.434213 0.427426 0.420626
0.443212 0.436267 0.429307
0.452189 0.445084 0.437966
0.461143 0.453881 0.446603
0.470076 0.462655 0.455220
0.478987 0.471410 0.463817
0.487879 0.480144 0.472393
0.496750 0.488858 0.480951
0.505601 0.497553 0.489489
0.514434 0.506230 0.498009
0.523248 0.514888 0.506511
0.532043 0.523528 0.514996
0.540821 0.532151 0.523463
0.549581 0.540757 0.531914
0.558325 0.549346 0.540348
0.567052 0.557918 0.548766
0.575762 0.566475 0.557169
0.584456 0.575015 0.565556
0.593135 0.583541 0.573927
0.601798 0.592051 0.582284
0.610447 0.600547 0.590627
0.619080 0.609028 0.598955
0.627699 0.617494 0.607269
0.636304 0.625947 0.615569
0.644894 0.634386 0.623856
0.653471 0.642811 0.632130
0.662034 0.651223 0.640390
0.670584 0.659622 0.648638
0.406737 0.400436 0.394121
0.415810 0.409348 0.402873
0.424858 0.418236 0.411601
0.433882 0.427100 0.420306
0.442882 0.435942 0.428988
0.451859 0.444760 0.437648
0.460814 0.453557 0.446286
0.469748 0.462333 0.454904
0.478660 0.471088 0.463501
0.487552 0.479823 0.472078
0.496424 0.488538 0.480636
0.505276 0.497234 0.489175
0.514109 0.505911 0.497696
0.522924 0.514570 0.506199
0.531720 0.523211 0.514684
0.540498 0.531834 0.523152
0.549259 0.540440 0.531604
0.558004 0.549030 0.540038
0.566731 0.557603 0.548457
0.575442 0.566160 0.556860
0.584137 0.574702 0.565247
0.592816 0.583227 0.573620
0.601480 0.591738 0.581977
0.610129 0.600234 0.590320
0.618763 0.608716 0.598649
0.627382 0.617183 0.606963
0.635987 0.625636 0.615264
0.644578 0.634075 0.623552
0.653156 0.642501 0.631826
0.661720 0.650914 0.640087
0.670270 0.659313 0.648335
0.678808 0.667700 0.656570
0.687332 0.676074 0.664793
0.424525 0.417910 0.411281
0.433550 0.426775 0.419986
0.442551 0.435617 0.428669
0.451529 0.444436 0.437329
0.460485 0.453234 0.445969
0.469419 0.462011 0.454587
0.478332 0.470766 0.463185
0.487225 0.479502 0.471763
0.496098 0.488218 0.480322
0.504951 0.496914 0.488862
0.513784 0.505592 0.497383
0.522600 0.514251 0.505886
0.531397 0.522893 0.514372
0.540176 0.531517 0.522841
0.548937 0.540124 0.531293
0.557682 0.548714 0.539728
0.566410 0.557288 0.548148
0.575122 0.565846 0.556551
0.583817 0.574388 0.564939
0.592497 0.582914 0.573312
0.601161 0.591425 0.581670
0.609811 0.599922 0.590013
0.618445 0.608404 0.598343
0.627065 0.616872 0.606658
0.635671 0.625325 0.614959
0.644263 0.633765 0.623247
0.652840 0.642192 0.631521
0.661405 0.650605 0.639783
0.669956 0.659005 0.648031
0.678494 0.667392 0.656267
0.687019 0.675766 0.664491
0.695531 0.684128 0.672702
0.704031 0.692478 0.680902
0.442220 0.435292 0.428350
0.451199 0.444112 0.437011
0.460156 0.452911 0.445651
0.469091 0.461688 0.454270
0.478005 0.470444 0.462869
0.486898 0.479181 0.471448
0.495772 0.487897 0.480007
0.504625 0.496594 0.488548
0.513460 0.505273 0.497070
0.522276 0.513933 0.505574
0.531073 0.522575 0.514060
0.539853 0.531200 0.522530
0.548615 0.539808 0.530982
0.557361 0.548398 0.539418
0.566089 0.556973 0.547838
0.574801 0.565531 0.556242
0.583498 0.574074 0.564631
0.592178 0.582601 0.573004
0.600843 0.591113 0.581363
0.609493 0.599610 0.589707
0.618128 0.608092 0.598036
0.626748 0.616560 0.606352
0.635355 0.625015 0.614654
0.643947 0.633455 0.622942
0.652525 0.641882 0.631217
0.661090 0.650295 0.639479
0.669641 0.658696 0.647728
0.678180 0.667083 0.655965
0.686705 0.675458 0.664189
0.695218 0.683821 0.672401
0.703719 0.692171 0.680600
0.712207 0.700509 0.688788
0.720683 0.708836 0.696965
0.459827 0.452587 0.445334
0.468763 0.461365 0.453953
0.477677 0.470123 0.462553
0.486571 0.478860 0.471132
0.495445 0.487577 0.479693
0.504300 0.496275 0.488234
0.513135 0.504954 0.496757
0.521952 0.513615 0.505261
0.530750 0.522258 0.513749
0.539530 0.530883 0.522218
0.548293 0.539491 0.530672
0.557039 0.548083 0.539108
0.565768 0.556658 0.547529
0.574481 0.565217 0.555933
0.583178 0.573760 0.564322
0.591859 0.582287 0.572696
0.600524 0.590800 0.581056
0.609175 0.599297 0.589400
0.617810 0.607780 0.597730
0.626432 0.616249 0.606046
0.635038 0.624704 0.614349
0.643631 0.633145 0.622638
0.652210 0.641572 0.630913
0.660775 0.649986 0.639175
0.669327 0.658387 0.647425
0.677866 0.666775 0.655662
0.686392 0.675150 0.663886
0.694905 0.683513 0.672099
0.703406 0.691864 0.680299
0.711895 0.700203 0.688487
0.720371 0.708529 0.696664
0.728836 0.716845 0.704829
0.737289 0.725148 0.712983
0.477350 0.469801 0.462237
0.486245 0.478539 0.470817
0.495119 0.487257 0.479378
0.503974 0.495955 0.487920
0.512810 0.504635 0.496443
0.521628 0.513297 0.504949
0.530427 0.521940 0.513437
0.539208 0.530566 0.521907
0.547971 0.539175 0.530361
0.556718 0.547767 0.538798
0.565448 0.556342 0.547219
0.574161 0.564902 0.555624
0.582858 0.573446 0.564014
0.591540 0.581974 0.572389
0.600206 0.590487 0.580748
0.608857 0.598985 0.589093
0.617493 0.607469 0.597424
0.626115 0.615938 0.605741
0.634722 0.624393 0.614044
0.643315 0.632834 0.622333
0.651894 0.641262 0.630609
0.660460 0.649677 0.638872
0.669013 0.658078 0.647122
0.677552 0.666467 0.655359
0.686079 0.674843 0.663584
0.694592 0.683206 0.671797
0.703094 0.691557 0.679997
0.711583 0.699896 0.688186
0.720060 0.708223 0.696363
0.728525 0.716539 0.704529
0.736978 0.724843 0.712683
0.745420 0.733136 0.720827
0.753850 0.741417 0.728959
0.494793 0.486936 0.479063
0.503649 0.495636 0.487606
0.512486 0.504316 0.496130
0.521304 0.512978 0.504636
0.530103 0.521622 0.513125
0.538885 0.530249 0.521596
0.547649 0.538858 0.530050
0.556396 0.547451 0.538488
0.565127 0.556027 0.546910
0.573841 0.564587 0.555315
0.582539 0.573132 0.563706
0.591221 0.581660 0.572081
0.599887 0.590174 0.580441
0.608539 0.598673 0.588787
0.617176 0.607157 0.597118
0.625798 0.615627 0.605435
0.634405 0.624082 0.613738
0.642999 0.632524 0.622028
0.651579 0.640952 0.630305
0.660145 0.649367 0.638568
0.668698 0.657769 0.646818
0.677238 0.666158 0.655056
0.685765 0.674535 0.663282
0.694279 0.682898 0.671495
0.702781 0.691250 0.679696
0.711271 0.699590 0.687885
0.719748 0.707917 0.696063
0.728213 0.716233 0.704229
0.736667 0.724538 0.712384
0.745109 0.732831 0.720527
0.753540 0.741113 0.728660
0.761960 0.749383 0.736782
0.770368 0.757643 0.744893
0.512161 0.503997 0.495817
0.520979 0.512660 0.504324
0.529780 0.521305 0.512813
0.538562 0.529932 0.521285
0.547327 0.538542 0.529739
0.556075 0.547135 0.538178
0.564806 0.555712 0.546600
0.573520 0.564273 0.555006
0.582219 0.572817 0.563397
0.590902 0.581347 0.571773
0.599569 0.589861 0.580134
0.608221 0.598360 0.588480
0.616858 0.606845 0.596812
0.625481 0.615315 0.605129
0.634089 0.623771 0.613433
0.642683 0.632214 0.621723
0.651264 0.640643 0.630000
0.659830 0.649058 0.638264
0.668384 0.657460 0.646515
0.676924 0.665850 0.654753
0.685452 0.674227 0.662979
0.693966 0.682591 0.671193
0.702469 0.690943 0.679394
0.710958 0.699283 0.687584
0.719436 0.707611 0.695762
0.727902 0.715927 0.703929
0.736356 0.724232 0.712084
0.744799 0.732526 0.720228
0.753230 0.740808 0.728361
0.761650 0.749079 0.736483
0.770059 0.757340 0.744595
0.778457 0.765590 0.752696
0.786845 0.773829 0.760787
0.529456 0.520987 0.512501
0.538239 0.529615 0.520973
0.547005 0.538226 0.529429
0.555753 0.546819 0.537868
0.564485 0.555397 0.546290
0.573200 0.563958 0.554697
0.581899 0.572503 0.563089
0.590582 0.581033 0.571465
0.599250 0.589548 0.579826
0.607903 0.598048 0.588173
0.616541 0.606533 0.596505
0.625164 0.615004 0.604823
0.633773 0.623461 0.613128
0.642367 0.631903 0.621419
0.650948 0.640333 0.629696
0.659515 0.648749 0.637960
0.668069 0.657152 0.646212
0.676610 0.665541 0.654451
0.685138 0.673919 0.662677
0.693653 0.682283 0.670891
0.702156 0.690636 0.679093
0.710646 0.698976 0.687283
0.719125 0.707305 0.695461
0.727591 0.715622 0.703628
0.736046 0.723927 0.711784
0.744489 0.732221 0.719928
0.752920 0.740504 0.728062
0.761341 0.748775 0.736185
0.769750 0.757036 0.744297
0.778149 0.765286 0.752398
0.786536 0.773526 0.760489
0.794913 0.781755 0.768570
0.803280 0.789974 0.776641
0.546683 0.537909 0.529118
0.555432 0.546504 0.537558
0.564164 0.555082 0.545981
0.572880 0.563643 0.554388
0.581579 0.572189 0.562780
0.590263 0.580720 0.571157
0.598932 0.589235 0.579519
0.607585 0.597735 0.587866
0.616223 0.606221 0.596199
0.624847 0.614692 0.604518
0.633456 0.623150 0.612823
0.642051 0.631593 0.621114
0.650633 0.640023 0.629392
0.659201 0.648439 0.637657
0.667755 0.656843 0.645908
0.676296 0.665233 0.654148
0.684825 0.673611 0.662374
0.693340 0.681976 0.670589
0.701843 0.690329 0.678791
0.710334 0.698670 0.686982
0.718813 0.706999 0.695161
0.727280 0.715316 0.703328
0.735735 0.723622 0.711484
0.744178 0.731916 0.719629
0.752610 0.740199 0.727763
0.761031 0.748471 0.735886
0.769441 0.756732 0.743998
0.777840 0.764983 0.752100
0.786228 0.773223 0.760192
