app/src/main/assets/luts/09_Black_White_Cinema.cube
TITLE "Black White Cinema Style"
LUT_3D_SIZE 5
0.050000 0.050000 0.050000
0.143694 0.142039 0.140381
0.224840 0.221752 0.218657
0.301839 0.297390 0.292933
0.376263 0.370500 0.364725
0.221943 0.218906 0.215862
0.299058 0.294658 0.290250
0.373561 0.367846 0.362119
0.446187 0.439189 0.432176
0.517354 0.509098 0.500826
0.370857 0.365189 0.359510
0.443543 0.436591 0.429626
0.514758 0.506549 0.498322
0.584776 0.575329 0.565864
0.653786 0.643121 0.632434
0.512161 0.503997 0.495817
0.582219 0.572817 0.563397
0.651264 0.640643 0.630000
0.719436 0.707611 0.695762
0.786845 0.773829 0.760787
0.648740 0.638163 0.627566
0.716942 0.705161 0.693356
0.784377 0.771405 0.758407
0.851130 0.836978 0.822799
0.917270 0.901950 0.886599
0.089339 0.088644 0.087948
0.175304 0.173091 0.170873
0.254570 0.250956 0.247335
0.330470 0.325515 0.320551
0.404123 0.397867 0.391600
0.251723 0.248160 0.244589
0.327722 0.322816 0.317900
0.401446 0.395237 0.389017
0.473476 0.465996 0.458500
0.544163 0.535434 0.526687
0.398766 0.392605 0.386432
0.470852 0.463417 0.455968
0.541583 0.532900 0.524199
0.611198 0.601285 0.591352
0.679863 0.668737 0.657588
0.539002 0.530364 0.521709
0.608655 0.598786 0.588898
0.677352 0.666270 0.655166
0.745222 0.732942 0.720636
0.812363 0.798896 0.785402
0.674840 0.663803 0.652743
0.742739 0.730502 0.718241
0.809905 0.796481 0.783031
0.876416 0.861818 0.847190
0.942337 0.926575 0.910780
0.123409 0.122113 0.120813
0.206041 0.203285 0.200523
0.283825 0.279695 0.275556
0.358778 0.353324 0.347859
0.431741 0.424998 0.418241
0.281021 0.276940 0.272851
0.356060 0.350654 0.345236
0.429086 0.422390 0.415680
0.500571 0.492612 0.484637
0.570812 0.561612 0.552393
0.426429 0.419779 0.413117
0.497965 0.490051 0.482123
0.568247 0.559092 0.549920
0.637482 0.627105 0.616706
0.705821 0.694236 0.682628
0.565681 0.556572 0.547444
0.634952 0.624619 0.614266
0.703321 0.691780 0.680217
0.770902 0.758168 0.745408
0.837786 0.823870 0.809926
0.700820 0.689324 0.677804
0.768429 0.755738 0.743022
0.835337 0.821464 0.807564
0.901617 0.886573 0.871500
0.967327 0.951123 0.934887
0.155739 0.153871 0.151999
0.236115 0.232828 0.229533
0.312679 0.308039 0.303389
0.386801 0.380852 0.374891
0.459139 0.451911 0.444670
0.309911 0.305319 0.300719
0.384109 0.378207 0.372294
0.456504 0.449323 0.442128
0.527486 0.519051 0.510600
0.597309 0.587641 0.577954
0.453868 0.446734 0.439585
0.524896 0.516507 0.508102
0.594759 0.585136 0.575494
0.663637 0.652797 0.641936
0.731664 0.719623 0.707558
0.592207 0.582629 0.573032
0.661119 0.650323 0.639507
0.729175 0.717178 0.705157
0.796481 0.783295 0.770082
0.863119 0.848755 0.834363
0.726685 0.714732 0.702755
0.794017 0.780875 0.767706
0.860678 0.846358 0.832009
0.926734 0.911247 0.895729
0.992242 0.975597 0.958920
0.186987 0.184567 0.182142
0.265656 0.261847 0.258030
0.341183 0.336040 0.330886
0.414567 0.408127 0.401675
0.486334 0.478626 0.470903
0.338447 0.333351 0.328246
0.411899 0.405506 0.399100
0.483718 0.476057 0.468380
0.554233 0.545326 0.536401
0.623665 0.613532 0.603378
0.481101 0.473485 0.465855
0.551659 0.542798 0.533918
0.621128 0.611039 0.600930
0.689668 0.678368 0.667046
0.757399 0.744904 0.732383
0.618590 0.608546 0.598482
0.687161 0.675906 0.664628
0.754921 0.742469 0.729992
0.821963 0.808327 0.794663
0.888364 0.873554 0.858715
0.752441 0.740033 0.727600
0.819508 0.805915 0.792295
0.885931 0.871165 0.856369
0.951772 0.935843 0.919882
1.017083 1.000000 0.982883
