app/src/main/assets/luts/09_Black_White_Cinema.cube
TITLE "Black White Cinema Style"
LUT_3D_SIZE 9
0.050000 0.050000 0.050000
0.100210 0.099323 0.098434
0.143694 0.142039 0.140381
0.184957 0.182573 0.180185
0.224840 0.221752 0.218657
0.263727 0.259952 0.256169
0.301839 0.297390 0.292933
0.339318 0.334207 0.329086
0.376263 0.370500 0.364725
0.142142 0.140514 0.138883
0.183467 0.181109 0.178747
0.223392 0.220329 0.217260
0.262311 0.258561 0.254803
0.300449 0.296025 0.291592
0.337949 0.332862 0.327766
0.374912 0.369173 0.363422
0.411413 0.405029 0.398632
0.447508 0.440487 0.433451
0.221943 0.218906 0.215862
0.260894 0.257169 0.253436
0.299058 0.294658 0.290250
0.336579 0.331517 0.326445
0.373561 0.367846 0.362119
0.410078 0.403717 0.397344
0.446187 0.439189 0.432176
0.481934 0.474304 0.466659
0.517354 0.509098 0.500826
0.297666 0.293291 0.288907
0.335209 0.330171 0.325123
0.372209 0.366518 0.360814
0.408742 0.402405 0.396055
0.444865 0.437890 0.430901
0.480624 0.473018 0.465396
0.516056 0.507824 0.499575
0.551191 0.542338 0.533467
0.586054 0.576585 0.567097
0.370857 0.365189 0.359510
0.407406 0.401092 0.394766
0.443543 0.436591 0.429626
0.479315 0.471731 0.464133
0.514758 0.506549 0.498322
0.549903 0.541073 0.532225
0.584776 0.575329 0.565864
0.619397 0.609339 0.599261
0.653786 0.643121 0.632434
0.442220 0.435292 0.428350
0.478005 0.470444 0.462869
0.513460 0.505273 0.497070
0.548615 0.539808 0.530982
0.583498 0.574074 0.564631
0.618128 0.608092 0.598036
0.652525 0.641882 0.631217
0.686705 0.675458 0.664189
0.720683 0.708836 0.696965
0.512161 0.503997 0.495817
0.547327 0.538542 0.529739
0.582219 0.572817 0.563397
0.616858 0.606845 0.596812
0.651264 0.640643 0.630000
0.685452 0.674227 0.662979
0.719436 0.707611 0.695762
0.753230 0.740808 0.728361
0.786845 0.773829 0.760787
0.580940 0.571561 0.562163
0.615588 0.605597 0.595586
0.650002 0.639403 0.628783
0.684198 0.672995 0.661770
0.718189 0.706386 0.694559
0.751990 0.739590 0.727165
0.785611 0.772617 0.759597
0.819062 0.805477 0.791865
0.852352 0.838179 0.823977
0.648740 0.638163 0.627566
0.682943 0.671763 0.660560
0.716942 0.705161 0.693356
0.750750 0.738372 0.725968
0.784377 0.771405 0.758407
0.817834 0.804271 0.790680
0.851130 0.836978 0.822799
0.884273 0.869536 0.854769
0.917270 0.901950 0.886599
0.071081 0.070709 0.070336
0.117149 0.115963 0.114774
0.159626 0.157690 0.155749
0.200300 0.197645 0.194985
0.239770 0.236418 0.233059
0.278341 0.274307 0.270266
0.316197 0.311495 0.306783
0.353462 0.348102 0.342731
0.390225 0.384215 0.378193
0.158101 0.156191 0.154278
0.198827 0.196198 0.193564
0.238335 0.235008 0.231675
0.276935 0.272927 0.268910
0.314815 0.310138 0.305450
0.352101 0.346764 0.341417
0.388880 0.382894 0.376896
0.425220 0.418592 0.411951
0.461173 0.453910 0.446632
0.236899 0.233598 0.230289
0.275529 0.271545 0.267553
0.313433 0.308780 0.304117
0.350739 0.345426 0.340103
0.387535 0.381573 0.375599
0.423891 0.417286 0.410668
0.459857 0.452617 0.445362
0.495475 0.487606 0.479721
0.530779 0.522287 0.513777
0.312050 0.307421 0.302783
0.349376 0.344087 0.338788
0.386190 0.380251 0.374301
0.422560 0.415979 0.409385
0.458540 0.451323 0.444092
0.494170 0.486324 0.478463
0.529486 0.521016 0.512529
0.564514 0.555425 0.546319
0.599279 0.589576 0.579854
0.384844 0.378929 0.373002
0.421230 0.414672 0.408101
0.457223 0.450029 0.442822
0.492865 0.485042 0.477204
0.528192 0.519745 0.511281
0.563230 0.554164 0.545080
0.598005 0.588324 0.578625
0.632535 0.622245 0.611934
0.666840 0.655944 0.645026
0.455905 0.448735 0.441550
0.491560 0.483760 0.475944
0.526897 0.518473 0.510032
0.561946 0.552903 0.543841
0.596730 0.587072 0.577395
0.631269 0.621001 0.610713
0.665582 0.654708 0.643812
0.699683 0.688207 0.676708
0.733587 0.721512 0.709412
0.525603 0.517201 0.508783
0.560661 0.551641 0.542602
0.595455 0.585819 0.576165
0.630003 0.619757 0.609491
0.664323 0.653472 0.642598
0.698432 0.686978 0.675501
0.732343 0.720290 0.708212
0.766067 0.753418 0.740744
0.799616 0.786374 0.773106
0.594179 0.584566 0.574934
0.628736 0.618513 0.608269
0.663065 0.652235 0.641384
0.697181 0.685749 0.674294
0.731099 0.719067 0.707012
0.764830 0.752202 0.739550
0.798384 0.785165 0.771918
0.831773 0.817963 0.804126
0.865004 0.850607 0.836182
0.661805 0.650998 0.640169
0.695929 0.684519 0.673087
0.729854 0.717845 0.705812
0.763592 0.750987 0.738356
0.797153 0.783955 0.770730
0.830548 0.816760 0.802944
0.863784 0.849409 0.835005
0.896870 0.881911 0.866921
0.929813 0.914272 0.898699
0.089339 0.088644 0.087948
0.133620 0.132143 0.130663
0.175304 0.173091 0.170873
0.215470 0.212547 0.209619
0.254570 0.250956 0.247335
0.292851 0.288561 0.284263
0.330470 0.325515 0.320551
0.367534 0.361925 0.356305
0.404123 0.397867 0.391600
0.173801 0.171614 0.169423
0.214013 0.211116 0.208213
0.253147 0.249559 0.245963
0.291455 0.287190 0.282916
0.329096 0.324166 0.319226
0.366179 0.360594 0.354998
0.402784 0.396553 0.390308
0.438971 0.432100 0.425216
0.474788 0.467284 0.459765
0.251723 0.248160 0.244589
0.290058 0.285818 0.281569
0.327722 0.322816 0.317900
0.364824 0.359263 0.353690
0.401446 0.395237 0.389017
0.437647 0.430799 0.423938
0.473476 0.465996 0.458500
0.508971 0.500864 0.492740
0.544163 0.535434 0.526687
0.326347 0.321465 0.316574
0.363468 0.357931 0.352382
0.400106 0.393922 0.387725
0.436322 0.429498 0.422660
0.472164 0.464707 0.457235
0.507671 0.499586 0.491485
0.542874 0.534167 0.525443
0.577799 0.568476 0.559134
0.612469 0.602533 0.592578
0.398766 0.392605 0.386432
0.434997 0.428196 0.421381
0.470852 0.463417 0.455968
0.506370 0.498308 0.490231
0.541583 0.532900 0.524199
0.576519 0.567218 0.557899
0.611198 0.601285 0.591352
0.645641 0.635119 0.624576
0.679863 0.668737 0.657588
0.469539 0.462128 0.454702
0.505069 0.497030 0.488976
0.540293 0.531632 0.522954
0.575238 0.565960 0.556663
0.609926 0.600036 0.590125
0.644377 0.633878 0.623358
0.678608 0.667504 0.656378
0.712632 0.700927 0.689199
0.746464 0.734161 0.721834
0.539002 0.530364 0.521709
0.573957 0.564702 0.555428
0.608655 0.598786 0.588898
0.643114 0.632637 0.622139
0.677352 0.666270 0.655166
0.711384 0.699701 0.687995
0.745222 0.732942 0.720636
0.778878 0.766003 0.753102
0.812363 0.798896 0.785402
0.607382 0.597537 0.587671
0.641850 0.631396 0.620920
0.676096 0.665037 0.653955
0.710136 0.698475 0.686790
0.743981 0.731722 0.719439
0.777643 0.764790 0.751911
0.811134 0.797689 0.784217
0.844461 0.830427 0.816366
0.877634 0.863014 0.848365
0.674840 0.663803 0.652743
0.708887 0.697248 0.685586
0.742739 0.730502 0.718241
0.776408 0.763576 0.750719
0.809905 0.796481 0.783031
0.843238 0.829226 0.815185
0.876416 0.861818 0.847190
0.909447 0.894265 0.879053
0.942337 0.926575 0.910780
0.106664 0.105663 0.104660
0.149737 0.147975 0.146210
0.190766 0.188279 0.185788
0.230487 0.227299 0.224105
0.269252 0.265379 0.261498
0.307265 0.302721 0.298167
0.344662 0.339457 0.334241
0.381537 0.375680 0.369812
0.417961 0.411461 0.404948
0.189283 0.186822 0.184357
0.229045 0.225882 0.222713
0.267840 0.263992 0.260136
0.305878 0.301358 0.296829
0.343296 0.338115 0.332924
0.380189 0.374356 0.368512
0.416628 0.410152 0.403662
0.452669 0.445556 0.438429
0.488354 0.480610 0.472852
0.266427 0.262604 0.258773
0.304491 0.299995 0.295491
0.341929 0.336772 0.331605
0.378840 0.373031 0.367211
0.415295 0.408842 0.402376
0.451349 0.444260 0.437156
0.487047 0.479327 0.471591
0.522423 0.514078 0.505716
0.557507 0.548542 0.539559
0.340562 0.335429 0.330286
0.377490 0.371705 0.365909
0.413961 0.407532 0.401090
0.450029 0.442963 0.435883
0.485739 0.478042 0.470330
0.521127 0.512805 0.504466
0.556221 0.547279 0.538319
0.591047 0.581489 0.571913
0.625625 0.615457 0.605268
0.412627 0.406221 0.399803
0.448709 0.441666 0.434609
0.484432 0.476758 0.469068
0.519830 0.511531 0.503215
0.554935 0.546015 0.537078
0.589770 0.580235 0.570681
0.624357 0.614211 0.604045
0.658714 0.647961 0.637187
0.692856 0.681501 0.670122
0.483123 0.475472 0.467806
0.518533 0.510257 0.501964
0.553648 0.544752 0.535837
0.588493 0.578981 0.569449
0.623089 0.612965 0.602822
0.657454 0.646723 0.635971
0.691604 0.680270 0.668914
0.725553 0.713620 0.701663
0.759314 0.746784 0.734230
0.552361 0.543487 0.534596
0.587216 0.577726 0.568217
0.621820 0.611719 0.601598
0.656193 0.645485 0.634756
0.690351 0.679040 0.667706
0.724308 0.712396 0.700461
0.758075 0.745567 0.733035
0.791665 0.778564 0.765436
0.825086 0.811394 0.797676
0.620551 0.610473 0.600374
0.654933 0.644247 0.633540
0.689098 0.677809 0.666497
0.723062 0.711173 0.699260
0.756836 0.744350 0.731839
0.790432 0.777353 0.764247
0.823859 0.810189 0.796492
0.857127 0.842869 0.828583
0.890243 0.875400 0.860528
0.687845 0.676578 0.665288
0.721816 0.709949 0.698058
0.755597 0.743133 0.730644
0.789199 0.776142 0.763058
0.822632 0.808984 0.795309
0.855906 0.841670 0.827405
0.889027 0.874206 0.859355
0.922003 0.906600 0.891166
0.954842 0.938858 0.922843
0.123409 0.122113 0.120813
0.165567 0.163526 0.161480
0.206041 0.203285 0.200523
0.245367 0.241916 0.238458
0.283825 0.279695 0.275556
0.321590 0.316793 0.311986
0.358778 0.353324 0.347859
0.395474 0.389372 0.383257
0.431741 0.424998 0.418241
0.204575 0.201844 0.199108
0.243937 0.240511 0.237078
0.282424 0.278318 0.274204
0.320212 0.315439 0.310656
0.357420 0.351989 0.346548
0.394132 0.388053 0.381962
0.430414 0.423694 0.416961
0.466314 0.458960 0.451592
0.501873 0.493891 0.485893
0.281021 0.276940 0.272851
0.318833 0.314084 0.309325
0.356060 0.350654 0.345236
0.392789 0.386734 0.380667
0.429086 0.422390 0.415680
0.465000 0.457669 0.450324
0.500571 0.492612 0.484637
0.535832 0.527250 0.518651
0.570812 0.561612 0.552393
0.354700 0.349317 0.343924
0.391446 0.385415 0.379371
0.427758 0.421085 0.414399
0.463685 0.456377 0.449055
0.499268 0.491332 0.483380
0.534540 0.525981 0.517405
0.569529 0.560352 0.551157
0.604258 0.594468 0.584657
0.638747 0.628347 0.617926
0.426429 0.419779 0.413117
0.462369 0.455085 0.447786
0.497965 0.490051 0.482123
0.533248 0.524712 0.516158
0.568247 0.559092 0.549920
0.602985 0.593217 0.583429
0.637482 0.627105 0.616706
0.671756 0.660773 0.649768
0.705821 0.694236 0.682628
0.496661 0.488771 0.480865
0.531955 0.523442 0.514911
0.566964 0.557832 0.548682
0.601712 0.591966 0.582201
0.636217 0.625862 0.615486
0.670499 0.659538 0.648555
0.704571 0.693008 0.681422
0.738447 0.726286 0.714100
0.772139 0.759383 0.746601
0.565681 0.556572 0.547444
0.600438 0.590714 0.580972
0.634952 0.624619 0.614266
0.669241 0.658303 0.647342
0.703321 0.691780 0.680217
0.737204 0.725065 0.712901
0.770902 0.758168 0.745408
0.804427 0.791100 0.777747
0.837786 0.823870 0.809926
0.633686 0.623376 0.613045
0.667984 0.657067 0.646129
0.702071 0.690552 0.679011
0.735961 0.723844 0.711702
0.769666 0.756953 0.744215
0.803196 0.789891 0.776560
0.836562 0.822667 0.808745
0.869770 0.855289 0.840780
0.902830 0.887765 0.872670
0.700820 0.689324 0.677804
0.734717 0.722622 0.710503
0.768429 0.755738 0.743022
0.801966 0.788683 0.775373
0.835337 0.821464 0.807564
0.868551 0.854092 0.839604
0.901617 0.886573 0.871500
0.934540 0.918915 0.903259
0.967327 0.951123 0.934887
0.139737 0.138152 0.136563
0.181160 0.178843 0.176521
0.221152 0.218128 0.215099
0.260121 0.256410 0.252690
0.298299 0.293913 0.289518
0.335832 0.330783 0.325724
0.372824 0.367121 0.361407
0.409349 0.403002 0.396641
0.445466 0.438480 0.431481
0.219700 0.216703 0.213699
0.258703 0.255016 0.251322
0.296906 0.292545 0.288175
0.334461 0.329436 0.324401
0.371472 0.365793 0.360103
0.408013 0.401689 0.395352
0.444144 0.437182 0.430205
0.479910 0.472316 0.464707
0.515348 0.507128 0.498892
0.295513 0.291176 0.286831
0.333090 0.328089 0.323079
0.370119 0.364464 0.358798
0.406676 0.400376 0.394063
0.442822 0.435883 0.428930
0.478600 0.471029 0.463443
0.514050 0.505853 0.497639
0.549201 0.540383 0.531547
0.584079 0.574644 0.565191
0.368765 0.363134 0.357492
0.405339 0.399062 0.392773
0.441499 0.434583 0.427654
0.477290 0.469742 0.462179
0.512751 0.504577 0.496386
0.547913 0.539117 0.530304
0.582800 0.573388 0.563958
0.617435 0.607412 0.597368
0.651837 0.641206 0.630553
0.440175 0.433283 0.426377
0.475980 0.468455 0.460915
0.511452 0.503301 0.495133
0.546624 0.537852 0.529061
0.581521 0.572132 0.562724
0.616165 0.606164 0.596143
0.650575 0.639967 0.629336
0.684768 0.673555 0.662319
0.718756 0.706943 0.695106
0.510153 0.502024 0.493880
0.545335 0.536585 0.527818
0.580242 0.570876 0.561490
0.614895 0.604917 0.594918
0.649313 0.638727 0.628119
0.683513 0.672323 0.661110
0.717509 0.705718 0.693903
0.751314 0.738925 0.726512
0.784938 0.771956 0.758948
0.578962 0.569619 0.560256
0.613625 0.603668 0.593692
0.648051 0.637487 0.626901
0.682259 0.671090 0.659899
0.716262 0.704493 0.692700
0.750073 0.737707 0.725316
0.783704 0.770744 0.757757
0.817165 0.803613 0.790034
0.850463 0.836324 0.822156
0.646789 0.636247 0.625684
0.681004 0.669858 0.658689
0.715015 0.703267 0.691497
0.748833 0.736488 0.724119
0.782470 0.769531 0.756567
0.815936 0.802407 0.788850
0.849241 0.835123 0.820976
0.882392 0.867688 0.852955
0.915397 0.900110 0.884793
0.713767 0.702042 0.690293
0.747592 0.735269 0.722922
0.781236 0.768319 0.755376
0.814708 0.801200 0.787665
0.848019 0.833922 0.819797
0.881175 0.866493 0.851781
0.914186 0.898920 0.883624
0.947056 0.931210 0.915332
0.979794 0.963369 0.946912
0.155739 0.153871 0.151999
0.196548 0.193960 0.191366
0.236115 0.232828 0.229533
0.274761 0.270791 0.266813
0.312679 0.308039 0.303389
0.349995 0.344696 0.339386
0.386801 0.380852 0.374891
0.423165 0.416573 0.409968
0.459139 0.451911 0.444670
0.234677 0.231415 0.228146
0.273353 0.269408 0.265455
0.311295 0.306679 0.302055
0.348632 0.343357 0.338071
0.385456 0.379530 0.373592
0.421835 0.415266 0.408685
0.457822 0.450618 0.443399
0.493459 0.485625 0.477776
0.528780 0.520323 0.511848
0.309911 0.305319 0.300719
0.347268 0.342017 0.336755
0.384109 0.378207 0.372294
0.420503 0.413959 0.407401
0.456504 0.449323 0.442128
0.492153 0.484343 0.476517
0.527486 0.519051 0.510600
0.562530 0.553476 0.544404
0.597309 0.587641 0.577954
0.382762 0.376884 0.370994
0.419172 0.412651 0.406116
0.455186 0.448029 0.440857
0.490848 0.483060 0.475257
0.526191 0.517780 0.509351
0.561245 0.552214 0.543165
0.596034 0.586389 0.576724
0.630578 0.620323 0.610047
0.664895 0.654034 0.643150
0.453868 0.446734 0.439585
0.489542 0.481777 0.473997
0.524896 0.516507 0.508102
0.559961 0.550952 0.541926
0.594759 0.585136 0.575494
0.629312 0.619078 0.608825
0.663637 0.652797 0.641936
0.697750 0.686308 0.674843
0.731664 0.719623 0.707558
0.523601 0.515235 0.506852
0.558675 0.549690 0.540686
0.593483 0.583883 0.574263
0.628045 0.617834 0.607602
0.662378 0.651560 0.640721
0.696498 0.685078 0.673635
0.730420 0.718401 0.706357
0.764154 0.751539 0.738899
0.797713 0.784505 0.771270
0.592207 0.582629 0.573032
0.626777 0.616589 0.606380
0.661119 0.650323 0.639507
0.695247 0.683849 0.672428
0.729175 0.717178 0.705157
0.762917 0.750323 0.737705
0.796481 0.783295 0.770082
0.829879 0.816103 0.802299
0.863119 0.848755 0.834363
0.659859 0.649086 0.638292
0.693995 0.682619 0.671220
0.727930 0.715955 0.703956
0.761678 0.749107 0.736510
0.795249 0.782085 0.768894
0.828653 0.814899 0.801117
0.861898 0.847557 0.833186
0.894993 0.880067 0.865110
0.927944 0.912436 0.896896
0.726685 0.714732 0.702755
0.760440 0.747891 0.735316
0.794017 0.780875 0.767706
0.827427 0.813694 0.799934
0.860678 0.846358 0.832009
0.893778 0.878873 0.863938
0.926734 0.911247 0.895729
0.959554 0.943487 0.927388
0.992242 0.975597 0.958920
0.171475 0.169329 0.167179
0.211759 0.208902 0.206039
0.250946 0.247397 0.243840
0.289296 0.285069 0.280833
0.326972 0.322079 0.317177
0.364084 0.358536 0.352977
0.400715 0.394520 0.388312
0.436924 0.430090 0.423241
0.472760 0.465293 0.457810
0.249521 0.245996 0.242465
0.287898 0.283696 0.279485
0.325596 0.320728 0.315850
0.362728 0.357204 0.351669
0.399375 0.393204 0.387020
0.435599 0.428788 0.421963
0.471448 0.464004 0.456544
0.506961 0.498889 0.490801
0.542170 0.533476 0.524765
0.324220 0.319376 0.314522
0.361371 0.355871 0.350360
0.398035 0.391887 0.385727
0.434273 0.427485 0.420684
0.470136 0.462714 0.455278
0.505660 0.497611 0.489546
0.540880 0.532209 0.523520
0.575820 0.566532 0.557225
0.610504 0.600603 0.590683
0.396694 0.390570 0.384433
0.432947 0.426183 0.419404
0.468822 0.461424 0.454011
0.504359 0.496333 0.488291
0.539589 0.530941 0.522275
0.574539 0.565274 0.555989
0.609233 0.599354 0.589456
0.643688 0.633201 0.622693
0.677923 0.666831 0.655717
0.467509 0.460134 0.452744
0.503057 0.495054 0.487035
0.538298 0.529673 0.521030
0.573258 0.564015 0.554754
0.607961 0.598105 0.588229
0.642425 0.631960 0.621474
0.676667 0.665598 0.654506
0.710703 0.699032 0.687338
0.744545 0.732276 0.719983
0.537007 0.528404 0.519784
0.571977 0.562756 0.553517
0.606688 0.596855 0.587001
0.641161 0.630718 0.620255
0.675411 0.664364 0.653294
0.709454 0.697806 0.686133
0.743303 0.731056 0.718785
0.776970 0.764128 0.751261
0.810463 0.797030 0.783570
0.605416 0.595605 0.585774
0.639897 0.629476 0.619035
0.674155 0.663130 0.652082
0.708206 0.696579 0.684929
0.742061 0.729836 0.717587
0.775734 0.762914 0.750069
0.809234 0.795823 0.782384
0.842570 0.828570 0.814542
0.875752 0.861165 0.846550
0.672898 0.661895 0.650870
0.706956 0.695352 0.683724
0.740819 0.728616 0.716389
0.774498 0.761701 0.748877
0.808005 0.794615 0.781198
0.841347 0.827368 0.813361
0.874534 0.859969 0.845375
0.907573 0.892424 0.877245
0.940471 0.924741 0.908980
0.739577 0.727396 0.715190
0.773262 0.760486 0.747685
0.806775 0.793407 0.780012
0.840123 0.826166 0.812181
0.873315 0.858772 0.844199
0.906360 0.891233 0.876075
0.939263 0.923555 0.907815
0.972032 0.955744 0.939425
1.004671 0.987808 0.970910
0.186987 0.184567 0.182142
0.226812 0.223689 0.220559
0.265656 0.261847 0.258030
0.303733 0.299251 0.294760
0.341183 0.336040 0.330886
0.378104 0.372308 0.366501
0.414567 0.408127 0.401675
0.450629 0.443552 0.436461
0.486334 0.478626 0.470903
0.264242 0.260457 0.256665
0.302344 0.297887 0.293420
0.339815 0.334696 0.329566
0.376754 0.370982 0.365199
0.413233 0.406817 0.400388
0.449309 0.442256 0.435188
0.485026 0.477342 0.469642
0.520420 0.512110 0.503784
0.555519 0.546590 0.537642
0.338447 0.333351 0.328246
0.375404 0.369655 0.363896
0.411899 0.405506 0.399100
0.447989 0.440958 0.433914
0.483718 0.476057 0.468380
0.519123 0.510836 0.502533
0.554233 0.545326 0.536401
0.589073 0.579551 0.570009
0.623665 0.613532 0.603378
0.410564 0.404194 0.397812
0.446668 0.439661 0.432640
0.482410 0.474771 0.467118
0.517826 0.509562 0.501281
0.552946 0.544062 0.535160
0.587796 0.578296 0.568777
0.622397 0.612286 0.602154
0.656766 0.646048 0.635308
0.690921 0.679599 0.668255
0.481101 0.473485 0.465855
0.516528 0.508287 0.500030
0.551659 0.542798 0.533918
0.586519 0.577041 0.567545
0.621128 0.611039 0.600930
0.655506 0.644810 0.634092
0.689668 0.678368 0.667046
0.723628 0.711729 0.699806
0.757399 0.744904 0.732383
0.550372 0.541533 0.532676
0.585241 0.575786 0.566312
0.619859 0.609793 0.599706
0.654245 0.643571 0.632876
0.688415 0.677137 0.665838
0.722382 0.710505 0.698604
0.756160 0.743686 0.731187
0.789760 0.776692 0.763598
0.823190 0.809532 0.795847
0.618590 0.608546 0.598482
0.652984 0.642332 0.631660
0.687161 0.675906 0.664628
0.721136 0.709281 0.697402
0.754921 0.742469 0.729992
0.788526 0.775481 0.762409
0.821963 0.808327 0.794663
0.855239 0.841015 0.826763
0.888364 0.873554 0.858715
0.685908 0.674675 0.663419
0.719890 0.708056 0.696199
0.753681 0.741251 0.728796
0.787293 0.774269 0.761219
0.820736 0.807121 0.793479
0.854018 0.839815 0.825584
0.887148 0.872360 0.857542
0.920132 0.904762 0.889361
0.952978 0.937028 0.921045
0.752441 0.740033 0.727600
0.786060 0.773058 0.760029
0.819508 0.805915 0.792295
0.852796 0.838615 0.824406
0.885931 0.871165 0.856369
0.918921 0.903572 0.888192
0.951772 0.935843 0.919882
0.984491 0.967984 0.951443
1.017083 1.000000 0.982883
