app/src/main/assets/luts/10_Intense_Cyan_Orange.cube
TITLE "Intense Cyan-Orange Style"
LUT_3D_SIZE 33
0.000000 0.000000 0.000000
0.000000 0.000000 0.039150
0.000000 0.000000 0.072471
0.000000 0.000000 0.104143
0.000000 0.000000 0.134918
0.000000 0.000000 0.165130
0.000000 0.000000 0.194969
0.000000 0.000000 0.224556
0.000000 0.000000 0.253972
0.000000 0.000000 0.283279
0.000000 0.000000 0.312521
0.000000 0.000000 0.341734
0.000000 0.000000 0.370946
0.000000 0.000000 0.400181
0.000000 0.000000 0.429456
0.000000 0.000000 0.458788
0.000000 0.000000 0.488190
0.000000 0.000000 0.517673
0.000000 0.000000 0.547248
0.000000 0.000000 0.576924
0.000000 0.000000 0.606706
0.000000 0.000000 0.636603
0.000000 0.000000 0.666620
0.000000 0.000000 0.696762
0.000000 0.000000 0.727034
0.000000 0.000000 0.757440
0.000000 0.000000 0.787984
0.000000 0.000000 0.818669
0.000000 0.000000 0.849499
0.000000 0.000000 0.880475
0.000000 0.000000 0.911600
0.000000 0.000000 0.942878
0.000000 0.000000 0.974309
0.000000 0.051294 0.000000
0.000000 0.051184 0.039598
0.000000 0.051074 0.073294
0.000000 0.050964 0.105319
0.000000 0.050854 0.136432
0.000000 0.050743 0.166971
0.000000 0.050633 0.197129
0.000000 0.050523 0.227027
0.000000 0.050413 0.256750
0.000000 0.050302 0.286358
0.000000 0.050192 0.315897
0.000000 0.050081 0.345402
0.000000 0.049971 0.374904
0.000000 0.049860 0.404424
0.000000 0.049750 0.433981
0.000000 0.049639 0.463593
0.000000 0.049529 0.493272
0.000000 0.049418 0.523030
0.000000 0.049308 0.552878
0.000000 0.049197 0.582823
0.000000 0.049086 0.612874
0.000000 0.048975 0.643037
0.000000 0.048865 0.673318
0.000000 0.048754 0.703722
0.000000 0.048643 0.734255
0.000000 0.048532 0.764920
0.000000 0.048421 0.795721
0.000000 0.048310 0.826662
0.000000 0.048199 0.857746
0.000000 0.048088 0.888975
0.000000 0.047977 0.920352
0.000000 0.047866 0.951880
0.000000 0.047755 0.983560
0.000000 0.094003 0.000000
0.000000 0.093800 0.040045
0.000000 0.093597 0.074117
0.000000 0.093394 0.106494
0.000000 0.093192 0.137944
0.000000 0.092989 0.168810
0.000000 0.092786 0.199286
0.000000 0.092582 0.229496
0.000000 0.092379 0.259524
0.000000 0.092176 0.289432
0.000000 0.091973 0.319267
0.000000 0.091769 0.349065
0.000000 0.091566 0.378855
0.000000 0.091363 0.408660
0.000000 0.091159 0.438500
0.000000 0.090956 0.468391
0.000000 0.090752 0.498347
0.000000 0.090548 0.528380
0.000000 0.090344 0.558499
0.000000 0.090141 0.588714
0.000000 0.089937 0.619033
0.000000 0.089733 0.649462
0.000000 0.089529 0.680006
0.000000 0.089325 0.710673
0.000000 0.089121 0.741466
0.000000 0.088916 0.772390
0.000000 0.088712 0.803448
0.000000 0.088508 0.834645
0.000000 0.088303 0.865982
0.000000 0.088099 0.897464
0.000000 0.087894 0.929093
0.000000 0.087690 0.960870
0.000000 0.087485 0.992799
0.000000 0.133739 0.000000
0.000000 0.133449 0.040492
0.000000 0.133159 0.074939
0.000000 0.132869 0.107667
0.000000 0.132579 0.139453
0.000000 0.132289 0.170645
0.000000 0.131999 0.201439
0.000000 0.131708 0.231960
0.000000 0.131418 0.262294
0.000000 0.131128 0.292502
0.000000 0.130837 0.322633
0.000000 0.130546 0.352723
0.000000 0.130256 0.382801
0.000000 0.129965 0.412891
0.000000 0.129674 0.443013
0.000000 0.129383 0.473183
0.000000 0.129092 0.503415
0.000000 0.128800 0.533722
0.000000 0.128509 0.564113
0.000000 0.128218 0.594598
0.000000 0.127926 0.625183
0.000000 0.127635 0.655878
0.000000 0.127343 0.686686
0.000000 0.127051 0.717615
0.000000 0.126759 0.748668
0.000000 0.126467 0.779850
0.000000 0.126175 0.811165
0.000000 0.125883 0.842617
0.000000 0.125591 0.874208
0.000000 0.125299 0.905943
0.000000 0.125006 0.937822
0.000000 0.124714 0.969850
0.000000 0.124547 1.000000
0.000000 0.171535 0.000000
0.000000 0.171161 0.040938
0.000000 0.170788 0.075759
0.000000 0.170414 0.108838
0.000000 0.170040 0.140960
0.000000 0.169666 0.172478
0.000000 0.169292 0.203590
0.000000 0.168918 0.234421
0.000000 0.168544 0.265059
0.000000 0.168169 0.295568
0.000000 0.167795 0.325994
0.000000 0.167420 0.356375
0.000000 0.167045 0.386741
0.000000 0.166670 0.417116
0.000000 0.166295 0.447519
0.000000 0.165920 0.477968
0.000000 0.165545 0.508477
0.000000 0.165170 0.539057
0.000000 0.164794 0.569719
0.000000 0.164419 0.600473
0.000000 0.164043 0.631326
0.000000 0.163667 0.662285
0.000000 0.163291 0.693357
0.000000 0.162915 0.724547
0.000000 0.162539 0.755860
0.000000 0.162163 0.787300
0.000000 0.161786 0.818872
0.000000 0.161410 0.850579
0.000000 0.161033 0.882424
0.000000 0.160656 0.914410
0.000000 0.160428 0.944789
0.000000 0.160428 0.972448
0.000000 0.160428 1.000000
0.000000 0.207861 0.000000
0.000000 0.207406 0.041383
0.000000 0.206951 0.076578
0.000000 0.206496 0.110007
0.000000 0.206041 0.142465
0.000000 0.205585 0.174308
0.000000 0.205130 0.205737
0.000000 0.204674 0.236878
0.000000 0.204218 0.267821
0.000000 0.203762 0.298629
0.000000 0.203306 0.329350
0.000000 0.202850 0.360023
0.000000 0.202394 0.390676
0.000000 0.201937 0.421335
0.000000 0.201480 0.452019
0.000000 0.201024 0.482747
0.000000 0.200567 0.513531
0.000000 0.200110 0.544384
0.000000 0.199653 0.575318
0.000000 0.199195 0.606340
0.000000 0.198738 0.637460
0.000000 0.198280 0.668684
0.000000 0.197822 0.700019
0.000000 0.197364 0.731470
0.000000 0.196906 0.763042
0.000000 0.196448 0.794741
0.000000 0.195990 0.826569
0.000000 0.195531 0.858530
0.000000 0.195237 0.889134
0.000000 0.195237 0.917019
0.000000 0.195237 0.944789
0.000000 0.195237 0.972448
0.000000 0.195237 1.000000
0.000000 0.242986 0.000000
0.000000 0.242452 0.041828
0.000000 0.241918 0.077396
0.000000 0.241383 0.111175
0.000000 0.240848 0.143968
0.000000 0.240313 0.176136
0.000000 0.239778 0.207881
0.000000 0.239243 0.239332
0.000000 0.238707 0.270579
0.000000 0.238172 0.301686
0.000000 0.237636 0.332702
0.000000 0.237100 0.363665
0.000000 0.236564 0.394605
0.000000 0.236028 0.425548
0.000000 0.235491 0.456514
0.000000 0.234955 0.487519
0.000000 0.234418 0.518578
0.000000 0.233881 0.549705
0.000000 0.233344 0.580909
0.000000 0.232807 0.612200
0.000000 0.232269 0.643586
0.000000 0.231732 0.675075
0.000000 0.231194 0.706672
0.000000 0.230656 0.738384
0.000000 0.230118 0.770216
0.000000 0.229580 0.802172
0.000000 0.229214 0.832999
0.000000 0.229214 0.861129
0.000000 0.229214 0.889134
0.000000 0.229214 0.917019
0.000000 0.229214 0.944789
0.000000 0.229214 0.972448
0.000000 0.229214 1.000000
0.000000 0.277087 0.000000
0.000000 0.276475 0.042272
0.000000 0.275862 0.078212
0.000000 0.275249 0.112341
0.000000 0.274637 0.145469
0.000000 0.274024 0.177961
0.000000 0.273410 0.210022
0.000000 0.272797 0.241783
0.000000 0.272183 0.273333
0.000000 0.271570 0.304739
0.000000 0.270956 0.336049
0.000000 0.270341 0.367302
0.000000 0.269727 0.398529
0.000000 0.269113 0.429756
0.000000 0.268498 0.461002
0.000000 0.267883 0.492285
0.000000 0.267268 0.523619
0.000000 0.266652 0.555019
0.000000 0.266037 0.586493
0.000000 0.265421 0.618052
0.000000 0.264805 0.649705
0.000000 0.264189 0.681458
0.000000 0.263573 0.713317
0.000000 0.262956 0.745290
0.000000 0.262515 0.776343
0.000000 0.262515 0.804739
0.000000 0.262515 0.832999
0.000000 0.262515 0.861129
0.000000 0.262515 0.889134
0.000000 0.262515 0.917019
0.000000 0.262515 0.944789
0.000000 0.262515 0.972448
0.000000 0.262515 1.000000
0.000000 0.310285 0.000000
0.000000 0.309596 0.042716
0.000000 0.308906 0.079028
0.000000 0.308217 0.113505
0.000000 0.307527 0.146968
0.000000 0.306837 0.179784
0.000000 0.306147 0.212160
0.000000 0.305457 0.244230
0.000000 0.304766 0.276084
0.000000 0.304076 0.307787
0.000000 0.303385 0.339391
0.000000 0.302694 0.370935
0.000000 0.302002 0.402448
0.000000 0.301311 0.433958
0.000000 0.300619 0.465484
0.000000 0.299927 0.497044
0.000000 0.299235 0.528654
0.000000 0.298542 0.560325
0.000000 0.297849 0.592070
0.000000 0.297157 0.623897
0.000000 0.296463 0.655815
0.000000 0.295770 0.687832
0.000000 0.295248 0.719118
0.000000 0.295248 0.747805
0.000000 0.295248 0.776343
0.000000 0.295248 0.804739
0.000000 0.295248 0.832999
0.000000 0.295248 0.861129
0.000000 0.295248 0.889134
0.000000 0.295248 0.917019
0.000000 0.295248 0.944789
0.000000 0.295248 0.972448
0.000000 0.295248 1.000000
0.000000 0.342671 0.000000
0.000000 0.341906 0.043158
0.000000 0.341141 0.079842
0.000000 0.340376 0.114668
0.000000 0.339610 0.148464
0.000000 0.338844 0.181604
0.000000 0.338079 0.214296
0.000000 0.337312 0.246674
0.000000 0.336546 0.278830
0.000000 0.335779 0.310832
0.000000 0.335012 0.342729
0.000000 0.334245 0.374562
0.000000 0.333478 0.406362
0.000000 0.332710 0.438154
0.000000 0.331943 0.469960
0.000000 0.331174 0.501618
0.000000 0.330406 0.530313
0.000000 0.329638 0.559062
0.000000 0.328869 0.587875
0.000000 0.328100 0.616761
0.000000 0.327493 0.645137
0.000000 0.327493 0.671246
0.000000 0.327493 0.697206
0.000000 0.327493 0.723025
0.000000 0.327493 0.748709
0.000000 0.327493 0.774265
0.000000 0.327493 0.799699
0.000000 0.327493 0.825016
0.000000 0.327493 0.850220
0.000000 0.327493 0.875317
0.000000 0.327493 0.900310
0.000000 0.327493 0.925203
0.000000 0.327493 0.950000
0.000000 0.374314 0.000000
0.000000 0.373475 0.043601
0.000000 0.372635 0.080655
0.000000 0.371795 0.115829
0.000000 0.370954 0.149959
0.000000 0.370114 0.183421
0.000000 0.369273 0.216428
0.000000 0.368432 0.249114
0.000000 0.367590 0.281573
0.000000 0.366749 0.313872
0.000000 0.365907 0.346063
0.000000 0.365065 0.378185
0.000000 0.364222 0.410270
0.000000 0.363380 0.442345
0.000000 0.362537 0.474430
0.000000 0.361693 0.505890
0.000000 0.360850 0.534832
0.000000 0.360006 0.563826
0.000000 0.359309 0.592438
0.000000 0.359309 0.618871
0.000000 0.359309 0.645137
0.000000 0.359309 0.671246
0.000000 0.359309 0.697206
0.000000 0.359309 0.723025
0.000000 0.359309 0.748709
0.000000 0.359309 0.774265
0.000000 0.359309 0.799699
0.000000 0.359309 0.825016
0.000000 0.359309 0.850220
0.000000 0.359309 0.875317
0.000000 0.359309 0.900310
0.000000 0.359309 0.925203
0.000000 0.359309 0.950000
0.000000 0.405270 0.000000
0.000000 0.404357 0.044042
0.000000 0.403443 0.081468
0.000000 0.402529 0.116988
0.000000 0.401614 0.151451
0.000000 0.400700 0.185236
0.000000 0.399785 0.218558
0.000000 0.398870 0.251552
0.000000 0.397954 0.284313
0.000000 0.397038 0.316909
0.000000 0.396122 0.349392
0.000000 0.395206 0.381803
0.000000 0.394289 0.414174
0.000000 0.393372 0.446531
0.000000 0.392455 0.478895
0.000000 0.391537 0.510157
0.000000 0.390745 0.539031
0.000000 0.390745 0.565829
0.000000 0.390745 0.592438
0.000000 0.390745 0.618871
0.000000 0.390745 0.645137
0.000000 0.390745 0.671246
0.000000 0.390745 0.697206
0.000000 0.390745 0.723025
0.000000 0.390745 0.748709
0.000000 0.390745 0.774265
0.000000 0.390745 0.799699
0.000000 0.390745 0.825016
0.000000 0.390745 0.850220
0.000000 0.390745 0.875317
0.000000 0.390745 0.900310
0.000000 0.390745 0.925203
0.000000 0.390745 0.950000
0.000000 0.435584 0.000000
0.000000 0.434598 0.044483
0.000000 0.433610 0.082279
0.000000 0.432623 0.118146
0.000000 0.431635 0.152942
0.000000 0.430647 0.187049
0.000000 0.429659 0.220684
0.000000 0.428670 0.253986
0.000000 0.427681 0.287048
0.000000 0.426692 0.319941
0.000000 0.425702 0.352717
0.000000 0.424712 0.385417
0.000000 0.423722 0.418072
0.000000 0.422731 0.450711
0.000000 0.421840 0.483126
0.000000 0.421840 0.512031
0.000000 0.421840 0.539031
0.000000 0.421840 0.565829
0.000000 0.421840 0.592438
0.000000 0.421840 0.618871
0.000000 0.421840 0.645137
0.000000 0.421840 0.671246
0.000000 0.421840 0.697206
0.000000 0.421840 0.723025
0.000000 0.421840 0.748709
0.000000 0.421840 0.774265
0.000000 0.421840 0.799699
0.000000 0.421840 0.825016
0.000000 0.421840 0.850220
0.000000 0.421840 0.875317
0.000000 0.421840 0.900310
0.000000 0.421840 0.925203
0.000000 0.421840 0.950000
0.000000 0.465293 0.000000
0.000000 0.464234 0.044923
0.000000 0.463174 0.083088
0.000000 0.462114 0.119303
0.000000 0.461053 0.154430
0.000000 0.459992 0.188859
0.000000 0.458931 0.222808
0.000000 0.457870 0.256417
0.000000 0.456808 0.289780
0.000000 0.455746 0.322970
0.000000 0.454683 0.356038
0.000000 0.453620 0.389025
0.000000 0.452625 0.421840
0.000000 0.452625 0.452625
0.000000 0.452625 0.483126
0.000000 0.452625 0.512031
0.000000 0.452625 0.539031
0.000000 0.452625 0.565829
0.000000 0.452625 0.592438
0.000000 0.452625 0.618871
0.000000 0.452625 0.645137
0.000000 0.452625 0.671246
0.000000 0.452625 0.697206
0.000000 0.452625 0.723025
0.000000 0.452625 0.748709
0.000000 0.452625 0.774265
0.000000 0.452625 0.799699
0.000000 0.452625 0.825016
0.000000 0.452625 0.850220
0.000000 0.452625 0.875317
0.000000 0.452625 0.900310
0.000000 0.452625 0.925203
0.000000 0.452625 0.950000
0.000000 0.494428 0.000000
0.000000 0.493296 0.045363
0.000000 0.492164 0.083897
0.000000 0.491032 0.120457
0.000000 0.489900 0.155917
0.000000 0.488766 0.190667
0.000000 0.487633 0.224929
0.000000 0.486499 0.258844
0.000000 0.485365 0.292509
0.000000 0.484231 0.325995
0.000000 0.483126 0.359309
0.000000 0.483126 0.390745
0.000000 0.483126 0.421840
0.000000 0.483126 0.452625
0.000000 0.483126 0.483126
0.000000 0.483126 0.512031
0.000000 0.483126 0.539031
0.000000 0.483126 0.565829
0.000000 0.483126 0.592438
0.000000 0.483126 0.618871
0.000000 0.483126 0.645137
0.000000 0.483126 0.671246
0.000000 0.483126 0.697206
0.000000 0.483126 0.723025
0.000000 0.483126 0.748709
0.000000 0.483126 0.774265
0.000000 0.483126 0.799699
0.000000 0.483126 0.825016
0.000000 0.483126 0.850220
0.000000 0.483126 0.875317
0.000000 0.483126 0.900310
0.000000 0.483126 0.925203
0.000000 0.483126 0.950000
0.000000 0.523016 0.000000
0.000000 0.521812 0.045802
0.000000 0.520609 0.084705
0.000000 0.519405 0.121611
0.000000 0.518201 0.157402
0.000000 0.516996 0.192473
0.000000 0.515791 0.227048
0.000000 0.514585 0.261269
0.000000 0.513380 0.295234
0.000000 0.513367 0.327493
0.000000 0.513367 0.359309
0.000000 0.513367 0.390745
0.000000 0.513367 0.421840
0.000000 0.513367 0.452625
0.000000 0.513367 0.483126
0.000000 0.513367 0.512031
0.000000 0.513367 0.539031
0.000000 0.513367 0.565829
0.000000 0.513367 0.592438
0.000000 0.513367 0.618871
0.000000 0.513367 0.645137
0.000000 0.513367 0.671246
0.000000 0.513367 0.697206
0.000000 0.513367 0.723025
0.000000 0.513367 0.748709
0.000000 0.513367 0.774265
0.000000 0.513367 0.799699
0.000000 0.513367 0.825016
0.000000 0.513367 0.850220
0.000000 0.513367 0.875317
0.000000 0.513367 0.900310
0.000000 0.513367 0.925203
0.000000 0.513367 0.950000
0.000000 0.551079 0.000000
0.000000 0.549805 0.046241
0.000000 0.548530 0.085512
0.000000 0.547255 0.122763
0.000000 0.545979 0.158884
0.000000 0.544704 0.194276
0.000000 0.543427 0.229164
0.000000 0.543367 0.262515
0.000000 0.543367 0.295248
0.000000 0.543367 0.327493
0.000000 0.543367 0.359309
0.000000 0.543367 0.390745
0.000000 0.543367 0.421840
0.000000 0.543367 0.452625
0.000000 0.543367 0.483126
0.000000 0.543367 0.512031
0.000000 0.543367 0.539031
0.000000 0.543367 0.565829
0.000000 0.543367 0.592438
0.000000 0.543367 0.618871
0.000000 0.543367 0.645137
0.000000 0.543367 0.671246
0.000000 0.543367 0.697206
0.000000 0.543367 0.723025
0.000000 0.543367 0.748709
0.000000 0.543367 0.774265
0.000000 0.543367 0.799699
0.000000 0.543367 0.825016
0.000000 0.543367 0.850220
0.000000 0.543367 0.875317
0.000000 0.543367 0.900310
0.000000 0.543367 0.925203
0.000000 0.543367 0.950000
0.000000 0.578638 0.000000
0.000000 0.577293 0.046679
0.000000 0.575948 0.086317
0.000000 0.574602 0.123913
0.000000 0.573256 0.160365
0.000000 0.573143 0.195237
0.000000 0.573143 0.229214
0.000000 0.573143 0.262515
0.000000 0.573143 0.295248
0.000000 0.573143 0.327493
0.000000 0.573143 0.359309
0.000000 0.573143 0.390745
0.000000 0.573143 0.421840
0.000000 0.573143 0.452625
0.000000 0.573143 0.483126
0.000000 0.573143 0.512031
0.000000 0.573143 0.539031
0.000000 0.573143 0.565829
0.000000 0.573143 0.592438
0.000000 0.573143 0.618871
0.000000 0.573143 0.645137
0.000000 0.573143 0.671246
0.000000 0.573143 0.697206
0.000000 0.573143 0.723025
0.000000 0.573143 0.748709
0.000000 0.573143 0.774265
0.000000 0.573143 0.799699
0.000000 0.573143 0.825016
0.000000 0.573143 0.850220
0.000000 0.573143 0.875317
0.000000 0.573143 0.900310
0.000000 0.573143 0.925203
0.000000 0.573143 0.950000
0.000000 0.605711 0.000000
0.000000 0.604295 0.047117
0.000000 0.602880 0.087122
0.000000 0.602709 0.124547
0.000000 0.602709 0.160428
0.000000 0.602709 0.195237
0.000000 0.602709 0.229214
0.000000 0.602709 0.262515
0.000000 0.602709 0.295248
0.000000 0.602709 0.327493
0.000000 0.602709 0.359309
0.000000 0.602709 0.390745
0.000000 0.602709 0.421840
0.000000 0.602709 0.452625
0.000000 0.602709 0.483126
0.000000 0.602709 0.512031
0.000000 0.602709 0.539031
0.000000 0.602709 0.565829
0.000000 0.602709 0.592438
0.000000 0.602709 0.618871
0.000000 0.602709 0.645137
0.000000 0.602709 0.671246
0.000000 0.602709 0.697206
0.000000 0.602709 0.723025
0.000000 0.602709 0.748709
0.000000 0.602709 0.774265
0.000000 0.602709 0.799699
0.000000 0.602709 0.825016
0.000000 0.602709 0.850220
0.000000 0.602709 0.875317
0.000000 0.602709 0.900310
0.000000 0.602709 0.925203
0.000000 0.602709 0.950000
0.000000 0.632312 0.000000
0.000000 0.632079 0.047366
0.000000 0.632079 0.087171
0.000000 0.632079 0.124547
0.000000 0.632079 0.160428
0.000000 0.632079 0.195237
0.000000 0.632079 0.229214
0.000000 0.632079 0.262515
0.000000 0.632079 0.295248
0.000000 0.632079 0.327493
0.000000 0.632079 0.359309
0.000000 0.632079 0.390745
0.000000 0.632079 0.421840
0.000000 0.632079 0.452625
0.000000 0.632079 0.483126
0.000000 0.632079 0.512031
0.000000 0.632079 0.539031
0.000000 0.632079 0.565829
0.000000 0.632079 0.592438
0.000000 0.632079 0.618871
0.000000 0.632079 0.645137
0.000000 0.632079 0.671246
0.000000 0.632079 0.697206
0.000000 0.632079 0.723025
0.000000 0.632079 0.748709
0.000000 0.632079 0.774265
0.000000 0.632079 0.799699
0.000000 0.632079 0.825016
0.000000 0.632079 0.850220
0.000000 0.632079 0.875317
0.000000 0.632079 0.900310
0.000000 0.632079 0.925203
0.000000 0.632079 0.950000
0.000000 0.661263 0.000000
0.000000 0.661263 0.047366
0.000000 0.661263 0.087171
0.000000 0.661263 0.124547
0.000000 0.661263 0.160428
0.000000 0.661263 0.195237
0.000000 0.661263 0.229214
0.000000 0.661263 0.262515
0.000000 0.661263 0.295248
0.000000 0.661263 0.327493
0.000000 0.661263 0.359309
0.000000 0.661263 0.390745
0.000000 0.661263 0.421840
0.000000 0.661263 0.452625
0.000000 0.661263 0.483126
0.000000 0.661263 0.512031
0.000000 0.661263 0.539031
0.000000 0.661263 0.565829
0.000000 0.661263 0.592438
0.000000 0.661263 0.618871
0.000000 0.661263 0.645137
0.000000 0.661263 0.671246
0.000000 0.661263 0.697206
0.000000 0.661263 0.723025
0.000000 0.661263 0.748709
0.000000 0.661263 0.774265
0.000000 0.661263 0.799699
0.000000 0.661263 0.825016
0.000000 0.661263 0.850220
0.000000 0.661263 0.875317
0.000000 0.661263 0.900310
0.000000 0.662240 0.929082
0.000000 0.663638 0.959692
0.000000 0.690273 0.000000
0.000000 0.690273 0.047366
0.000000 0.690273 0.087171
0.000000 0.690273 0.124547
0.000000 0.690273 0.160428
0.000000 0.690273 0.195237
0.000000 0.690273 0.229214
0.000000 0.690273 0.262515
0.000000 0.690273 0.295248
0.000000 0.690273 0.327493
0.000000 0.690273 0.359309
0.000000 0.690273 0.390745
0.000000 0.690273 0.421840
0.000000 0.690273 0.452625
0.000000 0.690273 0.483126
0.000000 0.690273 0.512031
0.000000 0.690273 0.539031
0.000000 0.690273 0.565829
0.000000 0.690273 0.592438
0.000000 0.690273 0.618871
0.000000 0.690273 0.645137
0.000000 0.690273 0.671246
0.000000 0.690273 0.697206
0.000000 0.690273 0.723025
0.000000 0.690273 0.748709
0.000000 0.690273 0.774265
0.000000 0.690273 0.799699
0.000000 0.690273 0.825016
0.000000 0.690273 0.850220
0.000000 0.691240 0.878783
0.000000 0.692699 0.909269
0.000000 0.694157 0.939965
0.000000 0.695615 0.970874
0.000000 0.719118 0.000000
0.000000 0.719118 0.047366
0.000000 0.719118 0.087171
0.000000 0.719118 0.124547
0.000000 0.719118 0.160428
0.000000 0.719118 0.195237
0.000000 0.719118 0.229214
0.000000 0.719118 0.262515
0.000000 0.719118 0.295248
0.000000 0.719118 0.327493
0.000000 0.719118 0.359309
0.000000 0.719118 0.390745
0.000000 0.719118 0.421840
0.000000 0.719118 0.452625
0.000000 0.719118 0.483126
0.000000 0.719118 0.512031
0.000000 0.719118 0.539031
0.000000 0.719118 0.565829
0.000000 0.719118 0.592438
0.000000 0.719118 0.618871
0.000000 0.719118 0.645137
0.000000 0.719118 0.671246
0.000000 0.719118 0.697206
0.000000 0.719118 0.723025
0.000000 0.719118 0.748709
0.000000 0.719118 0.774265
0.000000 0.719118 0.799699
0.000000 0.720069 0.828090
0.000000 0.721589 0.858465
0.000000 0.723108 0.889046
0.000000 0.724627 0.919833
0.000000 0.726146 0.950830
0.000000 0.727664 1.035597
0.000000 0.747805 0.000000
0.000000 0.747805 0.047366
0.000000 0.747805 0.087171
0.000000 0.747805 0.124547
0.000000 0.747805 0.160428
0.000000 0.747805 0.195237
0.000000 0.747805 0.229214
0.000000 0.747805 0.262515
0.000000 0.747805 0.295248
0.000000 0.747805 0.327493
0.000000 0.747805 0.359309
0.000000 0.747805 0.390745
0.000000 0.747805 0.421840
0.000000 0.747805 0.452625
0.000000 0.747805 0.483126
0.000000 0.747805 0.512031
0.000000 0.747805 0.539031
0.000000 0.747805 0.565829
0.000000 0.747805 0.592438
0.000000 0.747805 0.618871
0.000000 0.747805 0.645137
0.000000 0.747805 0.671246
0.000000 0.747805 0.697206
0.000000 0.747805 0.723025
0.000000 0.747805 0.748709
0.000000 0.748736 0.776969
0.000000 0.750317 0.807249
0.000000 0.751897 0.837727
0.000000 0.753476 0.868408
0.000000 0.755056 0.899292
0.000000 0.756635 0.978201
0.000000 0.758213 1.012975
0.000000 0.759791 1.047980
0.000000 0.776343 0.000000
0.000000 0.776343 0.047366
0.000000 0.776343 0.087171
0.000000 0.776343 0.124547
0.000000 0.776343 0.160428
0.000000 0.776343 0.195237
0.000000 0.776343 0.229214
0.000000 0.776343 0.262515
0.000000 0.776343 0.295248
0.000000 0.776343 0.327493
0.000000 0.776343 0.359309
0.000000 0.776343 0.390745
0.000000 0.776343 0.421840
0.000000 0.776343 0.452625
0.000000 0.776343 0.483126
0.000000 0.776343 0.512031
0.000000 0.776343 0.539031
0.000000 0.776343 0.565829
0.000000 0.776343 0.592438
0.000000 0.776343 0.618871
0.000000 0.776343 0.645137
0.000000 0.776343 0.671246
0.000000 0.776343 0.697206
0.000000 0.777249 0.725380
0.000000 0.778890 0.755582
0.000000 0.780531 0.785976
0.000000 0.782171 0.816564
0.000000 0.783810 0.847349
0.000000 0.785449 0.920371
0.000000 0.787088 0.955023
0.000000 0.788726 0.989901
0.000000 0.790364 1.025007
0.000000 0.792001 1.060344
0.000000 0.804739 0.000000
0.000000 0.804739 0.047366
0.000000 0.804739 0.087171
0.000000 0.804739 0.124547
0.000000 0.804739 0.160428
0.000000 0.804739 0.195237
0.000000 0.804739 0.229214
0.000000 0.804739 0.262515
0.000000 0.804739 0.295248
0.000000 0.804739 0.327493
0.000000 0.804739 0.359309
0.000000 0.804739 0.390745
0.000000 0.804739 0.421840
0.000000 0.804739 0.452625
0.000000 0.804739 0.483126
0.000000 0.804739 0.512031
0.000000 0.804739 0.539031
0.000000 0.804739 0.565829
0.000000 0.804739 0.592438
0.000000 0.804739 0.618871
0.000000 0.804739 0.645137
0.000000 0.805616 0.673275
0.000000 0.807317 0.703422
0.000000 0.809017 0.733750
0.000000 0.810717 0.764264
0.000000 0.812417 0.794968
0.000000 0.814116 0.862071
0.000000 0.815814 0.896617
0.000000 0.817512 0.931382
0.000000 0.819210 0.966370
0.000000 0.820907 1.001582
0.000000 0.822604 1.037021
0.000000 0.824300 1.072688
0.000000 0.832999 0.000000
0.000000 0.832999 0.047366
0.000000 0.832999 0.087171
0.000000 0.832999 0.124547
0.000000 0.832999 0.160428
0.000000 0.832999 0.195237
0.000000 0.832999 0.229214
0.000000 0.832999 0.262515
0.000000 0.832999 0.295248
0.000000 0.832999 0.327493
0.000000 0.832999 0.359309
0.000000 0.832999 0.390745
0.000000 0.832999 0.421840
0.000000 0.832999 0.452625
0.000000 0.832999 0.483126
0.000000 0.832999 0.512031
0.000000 0.832999 0.539031
0.000000 0.832999 0.565829
0.000000 0.832999 0.592438
0.000000 0.833841 0.620596
0.000000 0.835602 0.650714
0.000000 0.837362 0.681001
0.000000 0.839122 0.711464
0.000000 0.840881 0.742106
0.000000 0.842640 0.803258
0.000000 0.844398 0.837717
0.000000 0.846156 0.872387
0.000000 0.847913 0.907273
0.000000 0.849670 0.942376
