app/src/main/assets/luts/10_Intense_Cyan_Orange.cube
TITLE "Intense Cyan-Orange Style"
LUT_3D_SIZE 9
0.000000 0.000000 0.000000
0.000000 0.000000 0.134918
0.000000 0.000000 0.253972
0.000000 0.000000 0.370946
0.000000 0.000000 0.488190
0.000000 0.000000 0.606706
0.000000 0.000000 0.727034
0.000000 0.000000 0.849499
0.000000 0.000000 0.974309
0.000000 0.171535 0.000000
0.000000 0.170040 0.140960
0.000000 0.168544 0.265059
0.000000 0.167045 0.386741
0.000000 0.165545 0.508477
0.000000 0.164043 0.631326
0.000000 0.162539 0.755860
0.000000 0.161033 0.882424
0.000000 0.160428 1.000000
0.000000 0.310285 0.000000
0.000000 0.307527 0.146968
0.000000 0.304766 0.276084
0.000000 0.302002 0.402448
0.000000 0.299235 0.528654
0.000000 0.296463 0.655815
0.000000 0.295248 0.776343
0.000000 0.295248 0.889134
0.000000 0.295248 1.000000
0.000000 0.435584 0.000000
0.000000 0.431635 0.152942
0.000000 0.427681 0.287048
0.000000 0.423722 0.418072
0.000000 0.421840 0.539031
0.000000 0.421840 0.645137
0.000000 0.421840 0.748709
0.000000 0.421840 0.850220
0.000000 0.421840 0.950000
0.000000 0.551079 0.000000
0.000000 0.545979 0.158884
0.000000 0.543367 0.295248
0.000000 0.543367 0.421840
0.000000 0.543367 0.539031
0.000000 0.543367 0.645137
0.000000 0.543367 0.748709
0.000000 0.543367 0.850220
0.000000 0.543367 0.950000
0.000000 0.661263 0.000000
0.000000 0.661263 0.160428
0.000000 0.661263 0.295248
0.000000 0.661263 0.421840
0.000000 0.661263 0.539031
0.000000 0.661263 0.645137
0.000000 0.661263 0.748709
0.000000 0.661263 0.850220
0.000000 0.663638 0.959692
0.000000 0.776343 0.000000
0.000000 0.776343 0.160428
0.000000 0.776343 0.295248
0.000000 0.776343 0.421840
0.000000 0.776343 0.539031
0.000000 0.776343 0.645137
0.000000 0.778890 0.755582
0.000000 0.785449 0.920371
0.000000 0.792001 1.060344
0.000000 0.889134 0.000000
0.000000 0.889134 0.160428
0.000000 0.889134 0.295248
0.000000 0.889134 0.421840
0.000000 0.891774 0.543385
0.000000 0.899286 0.683881
0.000000 0.906790 0.822472
0.000000 0.914286 0.964311
0.000000 0.921773 1.109605
0.000000 1.000000 0.000000
0.000000 1.000000 0.160428
0.000000 1.002658 0.297602
0.000000 1.011108 0.435876
0.000000 1.019548 0.575150
0.000000 1.027978 0.716563
0.000000 1.036399 0.860720
0.000000 1.044811 1.007979
0.000000 1.053213 1.158569
0.187223 0.000000 0.000000
0.184267 0.000000 0.136094
0.181305 0.000000 0.256130
0.178336 0.000000 0.374021
0.175361 0.000000 0.492139
0.172379 0.000000 0.611498
0.169390 0.000000 0.732645
0.166393 0.000000 0.855906
0.163389 0.000000 0.981497
0.181414 0.170965 0.000000
0.178446 0.169470 0.142130
0.175471 0.167972 0.267205
0.172489 0.166473 0.389798
0.169500 0.164972 0.512404
0.166503 0.163470 0.636092
0.163500 0.161965 0.761440
0.160489 0.160458 0.888798
0.160428 0.160428 1.000000
0.175580 0.309234 0.000000
0.172599 0.306475 0.148131
0.169610 0.303713 0.278218
0.166614 0.300947 0.405489
0.163611 0.298178 0.532560
0.160600 0.295406 0.660557
0.160428 0.295248 0.776343
0.160428 0.295248 0.889134
0.160428 0.295248 1.000000
0.169720 0.434079 0.000000
0.166724 0.430128 0.154098
0.163721 0.426172 0.289171
0.160711 0.422211 0.421097
0.160428 0.421840 0.539031
0.160428 0.421840 0.645137
0.160428 0.421840 0.748709
0.160428 0.421840 0.850220
0.160428 0.421840 0.950000
0.163832 0.549135 0.000000
0.160821 0.544033 0.160035
0.160428 0.543367 0.295248
0.160428 0.543367 0.421840
0.160428 0.543367 0.539031
0.160428 0.543367 0.645137
0.160428 0.543367 0.748709
0.160428 0.543367 0.850220
0.160428 0.543367 0.950000
0.160428 0.661263 0.000000
0.160428 0.661263 0.160428
0.160428 0.661263 0.295248
0.160428 0.661263 0.421840
0.160428 0.661263 0.539031
0.160428 0.661263 0.645137
0.160428 0.661263 0.748709
0.160428 0.661263 0.850220
0.156777 0.665769 0.968380
0.160428 0.776343 0.000000
0.160428 0.776343 0.160428
0.160428 0.776343 0.295248
0.160428 0.776343 0.421840
0.160428 0.776343 0.539031
0.160428 0.776343 0.645137
0.156944 0.781392 0.762328
0.152399 0.787948 0.928927
0.147835 0.794497 1.069935
0.160428 0.889134 0.000000
0.160428 0.889134 0.160428
0.160428 0.889134 0.295248
0.160428 0.889134 0.421840
0.157111 0.894639 0.548107
0.152566 0.902148 0.690244
0.148003 0.909649 0.829919
0.143421 0.917141 0.972812
0.138818 0.924625 1.119137
0.160428 1.000000 0.000000
0.160428 1.000000 0.160428
0.157278 1.005881 0.300453
0.152734 1.014327 0.439936
0.148171 1.022763 0.580362
0.143590 1.031190 0.722887
0.138988 1.039607 0.868121
0.134365 1.048016 1.016429
0.129721 1.056414 1.168045
0.342487 0.000000 0.000000
0.337044 0.000000 0.137269
0.331588 0.000000 0.258286
0.326120 0.000000 0.377092
0.320639 0.000000 0.496083
0.315146 0.000000 0.616285
0.309639 0.000000 0.738249
0.304120 0.000000 0.862308
0.298586 0.000000 0.988677
0.331789 0.170395 0.000000
0.326321 0.168899 0.143298
0.320841 0.167401 0.269349
0.315348 0.165901 0.392852
0.309842 0.164400 0.516326
0.304323 0.162896 0.640853
0.298790 0.161391 0.767015
0.295248 0.160428 0.889134
0.295248 0.160428 1.000000
0.321043 0.308182 0.000000
0.315551 0.305422 0.149292
0.310045 0.302659 0.280349
0.304526 0.299892 0.408527
0.298994 0.297122 0.536462
0.295248 0.295248 0.661263
0.295248 0.295248 0.776343
0.295248 0.295248 0.889134
0.295248 0.295248 1.000000
0.310248 0.432573 0.000000
0.304730 0.428620 0.155254
0.299198 0.424662 0.291292
0.295248 0.421840 0.421840
0.295248 0.421840 0.539031
0.295248 0.421840 0.645137
0.295248 0.421840 0.748709
0.295248 0.421840 0.850220
0.295248 0.421840 0.950000
0.299401 0.547191 0.000000
0.295248 0.543367 0.160428
0.295248 0.543367 0.295248
0.295248 0.543367 0.421840
0.295248 0.543367 0.539031
0.295248 0.543367 0.645137
0.295248 0.543367 0.748709
0.295248 0.543367 0.850220
0.295248 0.543367 0.950000
0.295248 0.661263 0.000000
0.295248 0.661263 0.160428
0.295248 0.661263 0.295248
0.295248 0.661263 0.421840
0.295248 0.661263 0.539031
0.295248 0.661263 0.645137
0.295248 0.661263 0.748709
0.293689 0.662311 0.854022
0.285343 0.667899 0.977057
0.295248 0.776343 0.000000
0.295248 0.776343 0.160428
0.295248 0.776343 0.295248
0.295248 0.776343 0.421840
0.295248 0.776343 0.539031
0.293995 0.777332 0.647409
0.285651 0.783893 0.769065
0.277273 0.790446 0.937471
0.268860 0.796992 1.079514
0.295248 0.889134 0.000000
0.295248 0.889134 0.160428
0.295248 0.889134 0.295248
0.294301 0.889989 0.423057
0.285958 0.897503 0.552823
0.277581 0.905009 0.696600
0.269170 0.912507 0.837356
0.260723 0.919996 0.981304
0.252238 0.927476 1.128657
0.295248 1.000000 0.000000
0.294608 1.000651 0.160741
0.286266 1.009102 0.303301
0.277890 1.017545 0.443991
0.269480 1.025977 0.585569
0.261034 1.034400 0.729202
0.252551 1.042814 0.875513
0.244028 1.051219 1.024870
0.235465 1.059614 1.177511
0.486370 0.000000 0.000000
0.478586 0.000000 0.138443
0.470784 0.000000 0.260440
0.462965 0.000000 0.380160
0.455127 0.000000 0.500023
0.447272 0.000000 0.621066
0.439397 0.000000 0.743847
0.431503 0.000000 0.868702
0.423589 0.000000 0.995850
0.471071 0.169825 0.000000
0.463253 0.168328 0.144465
0.455416 0.166830 0.271490
0.447561 0.165329 0.395903
0.439687 0.163827 0.520245
0.431794 0.162323 0.645609
0.423881 0.160816 0.772585
0.421840 0.160428 0.889134
0.421840 0.160428 1.000000
0.455705 0.307130 0.000000
0.447850 0.304369 0.150452
0.439977 0.301604 0.282479
0.432084 0.298836 0.411561
0.424172 0.296065 0.540361
0.421840 0.295248 0.661263
0.421840 0.295248 0.776343
0.421840 0.295248 0.889134
0.421840 0.295248 1.000000
0.440267 0.431067 0.000000
0.432375 0.427112 0.156408
0.424464 0.423152 0.293410
0.421840 0.421840 0.421840
0.421840 0.421840 0.543367
0.421840 0.421840 0.661263
0.421840 0.421840 0.776343
0.421840 0.421840 0.889134
0.421840 0.421840 1.000000
0.424755 0.545245 0.000000
0.421840 0.543367 0.160428
0.421840 0.543367 0.295248
0.421840 0.543367 0.421840
0.421840 0.543367 0.543367
0.421840 0.543367 0.661263
0.421840 0.543367 0.776343
0.421840 0.543367 0.889134
0.421840 0.543367 1.000000
0.421840 0.661263 0.000000
0.421840 0.661263 0.160428
0.421840 0.661263 0.295248
0.421840 0.661263 0.421840
0.421840 0.661263 0.543367
0.421840 0.661263 0.661263
0.421840 0.661263 0.776343
0.415071 0.664442 0.901948
0.403129 0.670028 1.039692
0.421840 0.776343 0.000000
0.421840 0.776343 0.160428
0.421840 0.776343 0.295248
0.421840 0.776343 0.421840
0.421840 0.776343 0.543367
0.415509 0.779834 0.670177
0.403569 0.786392 0.806437
0.391580 0.792943 0.946005
0.379541 0.799486 1.089081
0.421840 0.889134 0.000000
0.421840 0.889134 0.160428
0.421840 0.889134 0.295248
0.415948 0.892855 0.427133
0.404009 0.900366 0.563926
0.392022 0.907869 0.702948
0.379985 0.915363 0.844785
0.367895 0.922849 0.989785
0.355752 0.930326 1.138167
0.421840 1.000000 0.000000
0.416386 1.003874 0.162292
0.404449 1.012322 0.306145
0.392464 1.020761 0.448041
0.380429 1.029190 0.590769
0.368341 1.037609 0.735511
0.356199 1.046020 0.882897
0.344001 1.054421 1.033302
0.331743 1.062813 1.186966
0.622668 0.000000 0.000000
0.612632 0.000000 0.139615
0.602575 0.000000 0.262591
0.592494 0.000000 0.383224
0.582390 0.000000 0.503959
0.572261 0.000000 0.625843
0.562109 0.000000 0.749440
0.551931 0.000000 0.875091
0.543367 0.000000 1.000000
0.602945 0.169254 0.000000
0.592865 0.167757 0.145630
0.582762 0.166258 0.273629
0.572634 0.164756 0.398950
0.562483 0.163253 0.524160
0.552306 0.161749 0.650361
0.543367 0.160428 0.776343
0.543367 0.160428 0.889134
0.543367 0.160428 1.000000
0.583134 0.306078 0.000000
0.573007 0.303315 0.151611
0.562857 0.300549 0.284606
0.552681 0.297780 0.414592
0.543367 0.295248 0.543367
0.543367 0.295248 0.661263
0.543367 0.295248 0.776343
0.543367 0.295248 0.889134
0.543367 0.295248 1.000000
0.563231 0.429559 0.000000
0.553056 0.425603 0.157561
0.543367 0.421840 0.295248
0.543367 0.421840 0.421840
0.543367 0.421840 0.543367
0.543367 0.421840 0.661263
0.543367 0.421840 0.776343
0.543367 0.421840 0.889134
0.543367 0.421840 1.000000
0.543367 0.543367 0.000000
0.543367 0.543367 0.160428
0.543367 0.543367 0.295248
0.543367 0.543367 0.421840
0.543367 0.543367 0.543367
0.543367 0.543367 0.661263
0.543367 0.543367 0.776343
0.543367 0.543367 0.889134
0.543367 0.543367 1.000000
0.543367 0.661263 0.000000
0.543367 0.661263 0.160428
0.543367 0.661263 0.295248
0.543367 0.661263 0.421840
0.543367 0.661263 0.543367
0.543367 0.661263 0.661263
0.543367 0.661263 0.776343
0.528791 0.666572 0.910526
0.513385 0.672156 1.049308
0.543367 0.776343 0.000000
0.543367 0.776343 0.160428
0.543367 0.776343 0.295248
0.543367 0.776343 0.421840
0.543367 0.776343 0.543367
0.529356 0.782335 0.676558
0.513953 0.788891 0.813904
0.498486 0.795438 0.954529
0.482953 0.801979 1.098638
0.543367 0.889134 0.000000
0.543367 0.889134 0.160428
0.543367 0.889134 0.295248
0.529922 0.895720 0.431204
0.514520 0.903228 0.569152
0.499056 0.910727 0.709287
0.483525 0.918218 0.852205
0.467927 0.925701 0.998256
0.452257 0.933175 1.147666
0.543367 1.000000 0.000000
0.530487 1.007096 0.163840
0.515088 1.015541 0.308985
0.499626 1.023976 0.452086
0.484098 1.032401 0.595962
0.468502 1.040817 0.741812
0.452835 1.049224 0.890272
0.437093 1.057622 1.041724
0.421274 1.066010 1.196411
0.753116 0.000000 0.000000
0.740893 0.000000 0.140786
0.728643 0.000000 0.264739
0.716364 0.000000 0.386285
0.704056 0.000000 0.507891
0.691719 0.000000 0.630615
0.679352 0.000000 0.755027
0.666954 0.000000 0.881473
0.661263 0.000000 1.000000
0.729094 0.168684 0.000000
0.716816 0.167186 0.146794
0.704510 0.165686 0.275765
0.692174 0.164184 0.401995
0.679808 0.162680 0.528071
0.667411 0.161174 0.655108
0.661263 0.160428 0.776343
0.661263 0.160428 0.889134
0.661263 0.160428 1.000000
0.704963 0.305025 0.000000
0.692628 0.302261 0.152769
0.680263 0.299494 0.286732
0.667868 0.296723 0.417621
0.661263 0.295248 0.543367
0.661263 0.295248 0.661263
0.661263 0.295248 0.776343
0.661263 0.295248 0.889134
0.661263 0.295248 1.000000
0.680719 0.428051 0.000000
0.668324 0.424093 0.158713
0.661263 0.421840 0.295248
0.661263 0.421840 0.421840
0.661263 0.421840 0.543367
0.661263 0.421840 0.661263
0.661263 0.421840 0.776343
0.661263 0.421840 0.889134
0.661263 0.421840 1.000000
0.661263 0.543367 0.000000
0.661263 0.543367 0.160428
0.661263 0.543367 0.295248
0.661263 0.543367 0.421840
0.661263 0.543367 0.543367
0.661263 0.543367 0.661263
0.661263 0.543367 0.776343
0.661263 0.543367 0.889134
0.654400 0.545058 1.009328
0.661263 0.661263 0.000000
0.661263 0.661263 0.160428
0.661263 0.661263 0.295248
0.661263 0.661263 0.421840
0.661263 0.661263 0.543367
0.661263 0.661263 0.661263
0.655087 0.663115 0.782862
0.636384 0.668702 0.919094
0.617607 0.674283 1.058913
0.661263 0.776343 0.000000
0.661263 0.776343 0.160428
0.661263 0.776343 0.295248
0.661263 0.776343 0.421840
0.655774 0.778276 0.547423
0.637074 0.784835 0.682931
0.618299 0.791388 0.821361
0.599446 0.797933 0.963042
0.580511 0.804471 1.108182
0.661263 0.889134 0.000000
0.661263 0.889134 0.160428
0.656460 0.891070 0.297176
0.637763 0.898583 0.435270
0.618991 0.906088 0.574372
0.600141 0.913584 0.715620
0.581209 0.921072 0.859615
0.562194 0.928552 1.006718
0.543090 0.936023 1.157155
0.657147 1.001867 0.000000
0.638452 1.010317 0.165387
0.619683 1.018758 0.311822
0.600836 1.027189 0.456126
0.581907 1.035611 0.601150
0.562895 1.044024 0.748106
0.543794 1.052427 0.897639
0.524602 1.060821 1.050137
0.505313 1.069206 1.205846
0.878714 0.000000 0.000000
0.864352 0.000000 0.141955
0.849956 0.000000 0.266885
0.835528 0.000000 0.389343
0.821066 0.000000 0.511818
0.806568 0.000000 0.635381
0.792035 0.000000 0.760608
0.777466 0.000000 0.887848
0.776343 0.000000 1.000000
0.850487 0.168113 0.000000
0.836059 0.166614 0.147957
0.821598 0.165113 0.277900
0.807102 0.163611 0.405036
0.792570 0.162106 0.531978
0.778002 0.160600 0.659850
0.776343 0.160428 0.776343
0.776343 0.160428 0.889134
0.776343 0.160428 1.000000
0.822131 0.303972 0.000000
0.807636 0.301207 0.153926
0.793106 0.298438 0.288855
0.778539 0.295666 0.420646
0.776343 0.295248 0.543367
0.776343 0.295248 0.661263
0.776343 0.295248 0.776343
0.776343 0.295248 0.889134
0.776343 0.295248 1.000000
0.793641 0.426543 0.000000
0.779076 0.422582 0.159863
0.776343 0.421840 0.295248
0.776343 0.421840 0.421840
0.776343 0.421840 0.543367
0.776343 0.421840 0.661263
0.776343 0.421840 0.776343
0.776343 0.421840 0.889134
0.776343 0.421840 1.000000
0.776343 0.543367 0.000000
0.776343 0.543367 0.160428
0.776343 0.543367 0.295248
0.776343 0.543367 0.421840
0.776343 0.543367 0.543367
0.776343 0.543367 0.661263
0.776343 0.543367 0.776343
0.776343 0.543367 0.889134
0.759923 0.546809 1.018984
0.776343 0.661263 0.000000
0.776343 0.661263 0.160428
0.776343 0.661263 0.295248
0.776343 0.661263 0.421840
0.776343 0.661263 0.543367
0.776343 0.661263 0.661263
0.760731 0.665246 0.790358
0.738740 0.670830 0.927651
0.716660 0.676409 1.068505
0.776343 0.776343 0.000000
0.776343 0.776343 0.160428
0.776343 0.776343 0.295248
0.776343 0.776343 0.421840
0.761538 0.780778 0.552671
0.739551 0.787335 0.689296
0.717474 0.793884 0.828809
0.695304 0.800426 0.971545
0.673037 0.806961 1.117716
0.776343 0.889134 0.000000
0.776343 0.889134 0.160428
0.762345 0.893936 0.300028
0.740361 0.901446 0.439331
0.718288 0.908947 0.579586
0.696121 0.916440 0.721944
0.673858 0.923925 0.867018
0.651494 0.931401 1.015170
0.629025 0.938869 1.166633
0.763152 1.005090 0.000000
0.741172 1.013536 0.166931
0.719101 1.021974 0.314655
0.696938 1.030401 0.460161
0.674679 1.038820 0.606331
0.652319 1.047229 0.754392
0.629853 1.055628 0.904998
0.607278 1.064019 1.058540
0.584588 1.072401 1.215271
1.000110 0.000000 0.000000
0.983647 0.000000 0.143124
0.967146 0.000000 0.269029
0.950606 0.000000 0.392397
0.934027 0.000000 0.515742
0.917408 0.000000 0.640143
0.900748 0.000000 0.766184
0.889134 0.000000 0.889134
0.889134 0.000000 1.000000
0.967753 0.167541 0.000000
0.951215 0.166042 0.149119
0.934638 0.164540 0.280032
0.918021 0.163037 0.408074
0.901362 0.161532 0.535881
0.889134 0.160428 0.661263
0.889134 0.160428 0.776343
0.889134 0.160428 0.889134
0.889134 0.160428 1.000000
0.935249 0.302918 0.000000
0.918633 0.300151 0.155082
0.901975 0.297381 0.290975
0.889134 0.295248 0.421840
0.889134 0.295248 0.543367
0.889134 0.295248 0.661263
0.889134 0.295248 0.776343
0.889134 0.295248 0.889134
0.889134 0.295248 1.000000
0.902589 0.425033 0.000000
0.889134 0.421840 0.160428
0.889134 0.421840 0.295248
0.889134 0.421840 0.421840
0.889134 0.421840 0.543367
0.889134 0.421840 0.661263
0.889134 0.421840 0.776343
0.889134 0.421840 0.889134
0.889134 0.421840 1.000000
0.889134 0.543367 0.000000
0.889134 0.543367 0.160428
0.889134 0.543367 0.295248
0.889134 0.543367 0.421840
0.889134 0.543367 0.543367
0.889134 0.543367 0.661263
0.889134 0.543367 0.776343
0.885863 0.543967 0.892076
0.860736 0.548559 1.028626
0.889134 0.661263 0.000000
0.889134 0.661263 0.160428
0.889134 0.661263 0.295248
0.889134 0.661263 0.421840
0.889134 0.661263 0.543367
0.886786 0.661787 0.662834
0.861662 0.667376 0.797845
0.836438 0.672958 0.936198
0.811109 0.678534 1.078086
0.889134 0.776343 0.000000
0.889134 0.776343 0.160428
0.889134 0.776343 0.295248
0.887708 0.776717 0.422448
0.862588 0.783278 0.557911
0.837368 0.789833 0.695653
0.812043 0.796379 0.836248
0.786610 0.802919 0.980038
0.761065 0.809451 1.127238
0.889134 0.889134 0.000000
0.888631 0.889285 0.160510
0.863514 0.896800 0.302876
0.838297 0.904307 0.443387
0.812977 0.911805 0.584793
0.787548 0.919295 0.728261
0.762007 0.926776 0.874411
0.736349 0.934249 1.023612
0.710568 0.941715 1.176100
0.864440 1.008311 0.000000
0.839227 1.016754 0.168474
0.813910 1.025188 0.317484
0.788486 1.033612 0.464191
0.762949 1.042027 0.611507
0.737295 1.050432 0.760672
0.711518 1.058828 0.912349
0.685614 1.067216 1.066935
0.659575 1.075594 1.224686
1.117759 0.000000 0.000000
1.099227 0.000000 0.144291
1.080652 0.000000 0.271171
1.062034 0.000000 0.395448
1.043370 0.000000 0.519661
1.024662 0.000000 0.644900
1.005906 0.000000 0.771755
1.000000 0.000000 0.889134
1.000000 0.000000 1.000000
1.081336 0.166970 0.000000
1.062719 0.165470 0.150279
1.044058 0.163967 0.282162
1.025351 0.162463 0.411109
1.006597 0.160958 0.539780
1.000000 0.160428 0.661263
1.000000 0.160428 0.776343
1.000000 0.160428 0.889134
1.000000 0.160428 1.000000
1.044745 0.301863 0.000000
1.026040 0.299096 0.156236
1.007288 0.296324 0.293094
1.000000 0.295248 0.421840
1.000000 0.295248 0.543367
1.000000 0.295248 0.661263
1.000000 0.295248 0.776343
1.000000 0.295248 0.889134
1.000000 0.295248 1.000000
1.007979 0.423523 0.000000
1.000000 0.421840 0.160428
1.000000 0.421840 0.295248
1.000000 0.421840 0.421840
1.000000 0.421840 0.543367
1.000000 0.421840 0.661263
1.000000 0.421840 0.776343
1.000000 0.421840 0.889134
1.000000 0.421840 1.000000
1.000000 0.543367 0.000000
1.000000 0.543367 0.160428
1.000000 0.543367 0.295248
1.000000 0.543367 0.421840
1.000000 0.543367 0.543367
1.000000 0.543367 0.661263
1.000000 0.543367 0.776343
0.985560 0.545718 0.900667
0.957257 0.550308 1.038257
1.000000 0.661263 0.000000
1.000000 0.661263 0.160428
1.000000 0.661263 0.295248
1.000000 0.661263 0.421840
1.000000 0.661263 0.543367
0.986599 0.663919 0.669225
0.958300 0.669505 0.805323
0.929886 0.675085 0.944733
0.901354 0.680659 1.087655
1.000000 0.776343 0.000000
1.000000 0.776343 0.160428
1.000000 0.776343 0.295248
0.987638 0.779219 0.426526
0.959343 0.785778 0.563146
0.930934 0.792330 0.702001
0.902406 0.798874 0.843678
0.873754 0.805410 0.988521
0.844974 0.811940 1.136750
1.000000 0.889134 0.000000
0.988677 0.892151 0.162061
0.960386 0.899663 0.305721
0.931981 0.907166 0.447437
0.903457 0.914661 0.589994
0.874810 0.922148 0.734571
0.846035 0.929627 0.881796
0.817125 0.937097 1.032045
0.788076 0.944559 1.185557
0.961429 1.011532 0.000000
0.933028 1.019971 0.170015
0.904509 1.028401 0.320311
0.875867 1.036821 0.468217
0.847096 1.045233 0.616676
0.818191 1.053635 0.766944
0.789147 1.062027 0.919691
0.759956 1.070411 1.075321
0.730611 1.078786 1.234091
