app/src/main/assets/luts/10_Intense_Cyan_Orange.cube
TITLE "Intense Cyan-Orange Style"
LUT_3D_SIZE 5
0.000000 0.000000 0.000000
0.000000 0.000000 0.253972
0.000000 0.000000 0.488190
0.000000 0.000000 0.727034
0.000000 0.000000 0.974309
0.000000 0.310285 0.000000
0.000000 0.304766 0.276084
0.000000 0.299235 0.528654
0.000000 0.295248 0.776343
0.000000 0.295248 1.000000
0.000000 0.551079 0.000000
0.000000 0.543367 0.295248
0.000000 0.543367 0.539031
0.000000 0.543367 0.748709
0.000000 0.543367 0.950000
0.000000 0.776343 0.000000
0.000000 0.776343 0.295248
0.000000 0.776343 0.539031
0.000000 0.778890 0.755582
0.000000 0.792001 1.060344
0.000000 1.000000 0.000000
0.000000 1.002658 0.297602
0.000000 1.019548 0.575150
0.000000 1.036399 0.860720
0.000000 1.053213 1.158569
0.342487 0.000000 0.000000
0.331588 0.000000 0.258286
0.320639 0.000000 0.496083
0.309639 0.000000 0.738249
0.298586 0.000000 0.988677
0.321043 0.308182 0.000000
0.310045 0.302659 0.280349
0.298994 0.297122 0.536462
0.295248 0.295248 0.776343
0.295248 0.295248 1.000000
0.299401 0.547191 0.000000
0.295248 0.543367 0.295248
0.295248 0.543367 0.539031
0.295248 0.543367 0.748709
0.295248 0.543367 0.950000
0.295248 0.776343 0.000000
0.295248 0.776343 0.295248
0.295248 0.776343 0.539031
0.285651 0.783893 0.769065
0.268860 0.796992 1.079514
0.295248 1.000000 0.000000
0.286266 1.009102 0.303301
0.269480 1.025977 0.585569
0.252551 1.042814 0.875513
0.235465 1.059614 1.177511
0.622668 0.000000 0.000000
0.602575 0.000000 0.262591
0.582390 0.000000 0.503959
0.562109 0.000000 0.749440
0.543367 0.000000 1.000000
0.583134 0.306078 0.000000
0.562857 0.300549 0.284606
0.543367 0.295248 0.543367
0.543367 0.295248 0.776343
0.543367 0.295248 1.000000
0.543367 0.543367 0.000000
0.543367 0.543367 0.295248
0.543367 0.543367 0.543367
0.543367 0.543367 0.776343
0.543367 0.543367 1.000000
0.543367 0.776343 0.000000
0.543367 0.776343 0.295248
0.543367 0.776343 0.543367
0.513953 0.788891 0.813904
0.482953 0.801979 1.098638
0.543367 1.000000 0.000000
0.515088 1.015541 0.308985
0.484098 1.032401 0.595962
0.452835 1.049224 0.890272
0.421274 1.066010 1.196411
0.878714 0.000000 0.000000
0.849956 0.000000 0.266885
0.821066 0.000000 0.511818
0.792035 0.000000 0.760608
0.776343 0.000000 1.000000
0.822131 0.303972 0.000000
0.793106 0.298438 0.288855
0.776343 0.295248 0.543367
0.776343 0.295248 0.776343
0.776343 0.295248 1.000000
0.776343 0.543367 0.000000
0.776343 0.543367 0.295248
0.776343 0.543367 0.543367
0.776343 0.543367 0.776343
0.759923 0.546809 1.018984
0.776343 0.776343 0.000000
0.776343 0.776343 0.295248
0.761538 0.780778 0.552671
0.717474 0.793884 0.828809
0.673037 0.806961 1.117716
0.763152 1.005090 0.000000
0.719101 1.021974 0.314655
0.674679 1.038820 0.606331
0.629853 1.055628 0.904998
0.584588 1.072401 1.215271
1.117759 0.000000 0.000000
1.080652 0.000000 0.271171
1.043370 0.000000 0.519661
1.005906 0.000000 0.771755
1.000000 0.000000 1.000000
1.044745 0.301863 0.000000
1.007288 0.296324 0.293094
1.000000 0.295248 0.543367
1.000000 0.295248 0.776343
1.000000 0.295248 1.000000
1.000000 0.543367 0.000000
1.000000 0.543367 0.295248
1.000000 0.543367 0.543367
1.000000 0.543367 0.776343
0.957257 0.550308 1.038257
1.000000 0.776343 0.000000
1.000000 0.776343 0.295248
0.959343 0.785778 0.563146
0.902406 0.798874 0.843678
0.844974 0.811940 1.136750
0.961429 1.011532 0.000000
0.904509 1.028401 0.320311
0.847096 1.045233 0.616676
0.789147 1.062027 0.919691
0.730611 1.078786 1.234091
