app/src/main/assets/luts/11_Soft_Teal.cube
TITLE "Soft Teal Style"
LUT_3D_SIZE 33
0.000000 0.000000 0.000000
0.000000 0.000000 0.033952
0.000000 0.000000 0.064242
0.000000 0.000000 0.093287
0.000000 0.000000 0.121553
0.000000 0.000000 0.149253
0.000000 0.000000 0.176510
0.000000 0.000000 0.203405
0.000000 0.000000 0.229992
0.000000 0.000000 0.256315
0.000000 0.000000 0.282404
0.000000 0.000000 0.308285
0.000000 0.000000 0.333978
0.000000 0.000000 0.359500
0.000000 0.000000 0.384865
0.000000 0.000000 0.410086
0.000000 0.000000 0.435172
0.000000 0.000000 0.460134
0.000000 0.000000 0.484977
0.000000 0.000000 0.509711
0.000000 0.000000 0.534341
0.000000 0.000000 0.558872
0.000000 0.000000 0.583310
0.000000 0.000000 0.607660
0.000000 0.000000 0.631925
0.000000 0.000000 0.656109
0.000000 0.000000 0.680215
0.000000 0.000000 0.704248
0.000000 0.000000 0.728209
0.000000 0.000000 0.752103
0.000000 0.000000 0.775930
0.000000 0.000000 0.799694
0.000000 0.000000 0.823396
0.000000 0.043921 0.000000
0.000000 0.043921 0.033952
0.000000 0.043921 0.064242
0.000000 0.043921 0.093287
0.000000 0.043921 0.121553
0.000000 0.043921 0.149253
0.000000 0.043921 0.176510
0.000000 0.043921 0.203405
0.000000 0.043921 0.229992
0.000000 0.043921 0.256315
0.000000 0.043921 0.282404
0.000000 0.043921 0.308285
0.000000 0.043921 0.333978
0.000000 0.043921 0.359500
0.000000 0.043921 0.384865
0.000000 0.043921 0.410086
0.000000 0.043921 0.435172
0.000000 0.043921 0.460134
0.000000 0.043921 0.484977
0.000000 0.043921 0.509711
0.000000 0.043921 0.534341
0.000000 0.043921 0.558872
0.000000 0.043921 0.583310
0.000000 0.043921 0.607660
0.000000 0.043921 0.631925
0.000000 0.043921 0.656109
0.000000 0.043921 0.680215
0.000000 0.043921 0.704248
0.000000 0.043921 0.728209
0.000000 0.043921 0.752103
0.000000 0.043921 0.775930
0.000000 0.043921 0.799694
0.000000 0.043921 0.823396
0.000000 0.083103 0.000000
0.000000 0.083103 0.033952
0.000000 0.083103 0.064242
0.000000 0.083103 0.093287
0.000000 0.083103 0.121553
0.000000 0.083103 0.149253
0.000000 0.083103 0.176510
0.000000 0.083103 0.203405
0.000000 0.083103 0.229992
0.000000 0.083103 0.256315
0.000000 0.083103 0.282404
0.000000 0.083103 0.308285
0.000000 0.083103 0.333978
0.000000 0.083103 0.359500
0.000000 0.083103 0.384865
0.000000 0.083103 0.410086
0.000000 0.083103 0.435172
0.000000 0.083103 0.460134
0.000000 0.083103 0.484977
0.000000 0.083103 0.509711
0.000000 0.083103 0.534341
0.000000 0.083103 0.558872
0.000000 0.083103 0.583310
0.000000 0.083103 0.607660
0.000000 0.083103 0.631925
0.000000 0.083103 0.656109
0.000000 0.083103 0.680215
0.000000 0.083103 0.704248
0.000000 0.083103 0.728209
0.000000 0.083103 0.752103
0.000000 0.083103 0.775930
0.000000 0.083103 0.799694
0.000000 0.083103 0.823396
0.000000 0.120676 0.000000
0.000000 0.120676 0.033952
0.000000 0.120676 0.064242
0.000000 0.120676 0.093287
0.000000 0.120676 0.121553
0.000000 0.120676 0.149253
0.000000 0.120676 0.176510
0.000000 0.120676 0.203405
0.000000 0.120676 0.229992
0.000000 0.120676 0.256315
0.000000 0.120676 0.282404
0.000000 0.120676 0.308285
0.000000 0.120676 0.333978
0.000000 0.120676 0.359500
0.000000 0.120676 0.384865
0.000000 0.120676 0.410086
0.000000 0.120676 0.435172
0.000000 0.120676 0.460134
0.000000 0.120676 0.484977
0.000000 0.120676 0.509711
0.000000 0.120676 0.534341
0.000000 0.120676 0.558872
0.000000 0.120676 0.583310
0.000000 0.120676 0.607660
0.000000 0.120676 0.631925
0.000000 0.120676 0.656109
0.000000 0.120676 0.680215
0.000000 0.120676 0.704248
0.000000 0.120676 0.728209
0.000000 0.120676 0.752103
0.000000 0.120676 0.775930
0.000000 0.120676 0.799694
0.000000 0.120676 0.823396
0.000000 0.157240 0.000000
0.000000 0.157240 0.033952
0.000000 0.157240 0.064242
0.000000 0.157240 0.093287
0.000000 0.157240 0.121553
0.000000 0.157240 0.149253
0.000000 0.157240 0.176510
0.000000 0.157240 0.203405
0.000000 0.157240 0.229992
0.000000 0.157240 0.256315
0.000000 0.157240 0.282404
0.000000 0.157240 0.308285
0.000000 0.157240 0.333978
0.000000 0.157240 0.359500
0.000000 0.157240 0.384865
0.000000 0.157240 0.410086
0.000000 0.157240 0.435172
0.000000 0.157240 0.460134
0.000000 0.157240 0.484977
0.000000 0.157240 0.509711
0.000000 0.157240 0.534341
0.000000 0.157240 0.558872
0.000000 0.157240 0.583310
0.000000 0.157240 0.607660
0.000000 0.157240 0.631925
0.000000 0.157240 0.656109
0.000000 0.157240 0.680215
0.000000 0.157240 0.704248
0.000000 0.157240 0.728209
0.000000 0.157240 0.752103
0.000000 0.157240 0.775930
0.000000 0.157240 0.799694
0.000000 0.157240 0.823396
0.000000 0.193073 0.000000
0.000000 0.193073 0.033952
0.000000 0.193073 0.064242
0.000000 0.193073 0.093287
0.000000 0.193073 0.121553
0.000000 0.193073 0.149253
0.000000 0.193073 0.176510
0.000000 0.193073 0.203405
0.000000 0.193073 0.229992
0.000000 0.193073 0.256315
0.000000 0.193073 0.282404
0.000000 0.193073 0.308285
0.000000 0.193073 0.333978
0.000000 0.193073 0.359500
0.000000 0.193073 0.384865
0.000000 0.193073 0.410086
0.000000 0.193073 0.435172
0.000000 0.193073 0.460134
0.000000 0.193073 0.484977
0.000000 0.193073 0.509711
0.000000 0.193073 0.534341
0.000000 0.193073 0.558872
0.000000 0.193073 0.583310
0.000000 0.193073 0.607660
0.000000 0.193073 0.631925
0.000000 0.193073 0.656109
0.000000 0.193073 0.680215
0.000000 0.193073 0.704248
0.000000 0.193073 0.728209
0.000000 0.193073 0.752103
0.000000 0.193073 0.775930
0.000000 0.193073 0.799694
0.000000 0.193073 0.823396
0.000000 0.228332 0.000000
0.000000 0.228332 0.033952
0.000000 0.228332 0.064242
0.000000 0.228332 0.093287
0.000000 0.228332 0.121553
0.000000 0.228332 0.149253
0.000000 0.228332 0.176510
0.000000 0.228332 0.203405
0.000000 0.228332 0.229992
0.000000 0.228332 0.256315
0.000000 0.228332 0.282404
0.000000 0.228332 0.308285
0.000000 0.228332 0.333978
0.000000 0.228332 0.359500
0.000000 0.228332 0.384865
0.000000 0.228332 0.410086
0.000000 0.228332 0.435172
0.000000 0.228332 0.460134
0.000000 0.228332 0.484977
0.000000 0.228332 0.509711
0.000000 0.228332 0.534341
0.000000 0.228332 0.558872
0.000000 0.228332 0.583310
0.000000 0.228332 0.607660
0.000000 0.228332 0.631925
0.000000 0.228332 0.656109
0.000000 0.228332 0.680215
0.000000 0.228332 0.704248
0.000000 0.228332 0.728209
0.000000 0.228332 0.752103
0.000000 0.228332 0.775930
0.000000 0.228332 0.799694
0.000000 0.218310 0.926157
0.000000 0.263123 0.000000
0.000000 0.263123 0.033952
0.000000 0.263123 0.064242
0.000000 0.263123 0.093287
0.000000 0.263123 0.121553
0.000000 0.263123 0.149253
0.000000 0.263123 0.176510
0.000000 0.263123 0.203405
0.000000 0.263123 0.229992
0.000000 0.263123 0.256315
0.000000 0.263123 0.282404
0.000000 0.263123 0.308285
0.000000 0.263123 0.333978
0.000000 0.263123 0.359500
0.000000 0.263123 0.384865
0.000000 0.263123 0.410086
0.000000 0.263123 0.435172
0.000000 0.263123 0.460134
0.000000 0.263123 0.484977
0.000000 0.263123 0.509711
0.000000 0.263123 0.534341
0.000000 0.263123 0.558872
0.000000 0.263123 0.583310
0.000000 0.263123 0.607660
0.000000 0.263123 0.631925
0.000000 0.263123 0.656109
0.000000 0.263123 0.680215
0.000000 0.263123 0.704248
0.000000 0.263123 0.728209
0.000000 0.263123 0.752103
0.000000 0.251573 0.872767
0.000000 0.251573 0.899497
0.000000 0.251573 0.926157
0.000000 0.297517 0.000000
0.000000 0.297517 0.033952
0.000000 0.297517 0.064242
0.000000 0.297517 0.093287
0.000000 0.297517 0.121553
0.000000 0.297517 0.149253
0.000000 0.297517 0.176510
0.000000 0.297517 0.203405
0.000000 0.297517 0.229992
0.000000 0.297517 0.256315
0.000000 0.297517 0.282404
0.000000 0.297517 0.308285
0.000000 0.297517 0.333978
0.000000 0.297517 0.359500
0.000000 0.297517 0.384865
0.000000 0.297517 0.410086
0.000000 0.297517 0.435172
0.000000 0.297517 0.460134
0.000000 0.297517 0.484977
0.000000 0.297517 0.509711
0.000000 0.297517 0.534341
0.000000 0.297517 0.558872
0.000000 0.297517 0.583310
0.000000 0.297517 0.607660
0.000000 0.297517 0.631925
0.000000 0.297517 0.656109
0.000000 0.297517 0.680215
0.000000 0.297517 0.704248
0.000000 0.284457 0.819091
0.000000 0.284457 0.845966
0.000000 0.284457 0.872767
0.000000 0.284457 0.899497
0.000000 0.284457 0.926157
0.000000 0.331567 0.000000
0.000000 0.331567 0.033952
0.000000 0.331567 0.064242
0.000000 0.331567 0.093287
0.000000 0.331567 0.121553
0.000000 0.331567 0.149253
0.000000 0.331567 0.176510
0.000000 0.331567 0.203405
0.000000 0.331567 0.229992
0.000000 0.331567 0.256315
0.000000 0.331567 0.282404
0.000000 0.331567 0.308285
0.000000 0.331567 0.333978
0.000000 0.331567 0.359500
0.000000 0.331567 0.384865
0.000000 0.331567 0.410086
0.000000 0.331567 0.435172
0.000000 0.331567 0.460134
0.000000 0.331567 0.484977
0.000000 0.331567 0.509711
0.000000 0.331567 0.534341
0.000000 0.331567 0.558872
0.000000 0.331567 0.583310
0.000000 0.331567 0.607660
0.000000 0.331567 0.631925
0.000000 0.331567 0.656109
0.000000 0.317013 0.765107
0.000000 0.317013 0.792139
0.000000 0.317013 0.819091
0.000000 0.317013 0.845966
0.000000 0.317013 0.872767
0.000000 0.317013 0.899497
0.000000 0.317013 0.926157
0.000000 0.365316 0.000000
0.000000 0.365316 0.033952
0.000000 0.365316 0.064242
0.000000 0.365316 0.093287
0.000000 0.365316 0.121553
0.000000 0.365316 0.149253
0.000000 0.365316 0.176510
0.000000 0.365316 0.203405
0.000000 0.365316 0.229992
0.000000 0.365316 0.256315
0.000000 0.365316 0.282404
0.000000 0.365316 0.308285
0.000000 0.365316 0.333978
0.000000 0.365316 0.359500
0.000000 0.365316 0.384865
0.000000 0.365316 0.410086
0.000000 0.365316 0.435172
0.000000 0.365316 0.460134
0.000000 0.365316 0.484977
0.000000 0.365316 0.509711
0.000000 0.365316 0.534341
0.000000 0.365316 0.558872
0.000000 0.365316 0.583310
0.000000 0.365316 0.607660
0.000000 0.349280 0.710790
0.000000 0.349280 0.737992
0.000000 0.349280 0.765107
0.000000 0.349280 0.792139
0.000000 0.349280 0.819091
0.000000 0.349280 0.845966
0.000000 0.349280 0.872767
0.000000 0.349280 0.899497
0.000000 0.349280 0.926157
0.000000 0.398795 0.000000
0.000000 0.398795 0.033952
0.000000 0.398795 0.064242
0.000000 0.398795 0.093287
0.000000 0.398795 0.121553
0.000000 0.398795 0.149253
0.000000 0.398795 0.176510
0.000000 0.398795 0.203405
0.000000 0.398795 0.229992
0.000000 0.398795 0.256315
0.000000 0.398795 0.282404
0.000000 0.398795 0.308285
0.000000 0.398795 0.333978
0.000000 0.398795 0.359500
0.000000 0.398795 0.384865
0.000000 0.398795 0.410086
0.000000 0.398795 0.435172
0.000000 0.398795 0.460134
0.000000 0.398795 0.484977
0.000000 0.398795 0.509711
0.000000 0.398795 0.534341
0.000000 0.398795 0.558872
0.000000 0.381290 0.656109
0.000000 0.381290 0.683497
0.000000 0.381290 0.710790
0.000000 0.381290 0.737992
0.000000 0.381290 0.765107
0.000000 0.381290 0.792139
0.000000 0.381290 0.819091
0.000000 0.381290 0.845966
0.000000 0.381290 0.872767
0.000000 0.381290 0.899497
0.000000 0.381290 0.926157
0.000000 0.432031 0.000000
0.000000 0.432031 0.033952
0.000000 0.432031 0.064242
0.000000 0.432031 0.093287
0.000000 0.432031 0.121553
0.000000 0.432031 0.149253
0.000000 0.432031 0.176510
0.000000 0.432031 0.203405
0.000000 0.432031 0.229992
0.000000 0.432031 0.256315
0.000000 0.432031 0.282404
0.000000 0.432031 0.308285
0.000000 0.432031 0.333978
0.000000 0.432031 0.359500
0.000000 0.432031 0.384865
0.000000 0.432031 0.410086
0.000000 0.432031 0.435172
0.000000 0.432031 0.460134
0.000000 0.432031 0.484977
0.000000 0.432031 0.509711
0.000000 0.413067 0.601028
0.000000 0.413067 0.628621
0.000000 0.413067 0.656109
0.000000 0.413067 0.683497
0.000000 0.413067 0.710790
0.000000 0.413067 0.737992
0.000000 0.413067 0.765107
0.000000 0.413067 0.792139
0.000000 0.413067 0.819091
0.000000 0.413067 0.845966
0.000000 0.413067 0.872767
0.000000 0.413067 0.899497
0.000000 0.413067 0.926157
0.000000 0.465046 0.000000
0.000000 0.465046 0.033952
0.000000 0.465046 0.064242
0.000000 0.465046 0.093287
0.000000 0.465046 0.121553
0.000000 0.465046 0.149253
0.000000 0.465046 0.176510
0.000000 0.465046 0.203405
0.000000 0.465046 0.229992
0.000000 0.465046 0.256315
0.000000 0.465046 0.282404
0.000000 0.465046 0.308285
0.000000 0.465046 0.333978
0.000000 0.465046 0.359500
0.000000 0.465046 0.384865
0.000000 0.465046 0.410086
0.000000 0.465046 0.435172
0.000000 0.465046 0.460134
0.000000 0.444633 0.545503
0.000000 0.444633 0.573324
0.000000 0.444633 0.601028
0.000000 0.444633 0.628621
0.000000 0.444633 0.656109
0.000000 0.444633 0.683497
0.000000 0.444633 0.710790
0.000000 0.444633 0.737992
0.000000 0.444633 0.765107
0.000000 0.444633 0.792139
0.000000 0.444633 0.819091
0.000000 0.444633 0.845966
0.000000 0.444633 0.872767
0.000000 0.444633 0.899497
0.000000 0.444633 0.926157
0.000000 0.497859 0.000000
0.000000 0.497859 0.033952
0.000000 0.497859 0.064242
0.000000 0.497859 0.093287
0.000000 0.497859 0.121553
0.000000 0.497859 0.149253
0.000000 0.497859 0.176510
0.000000 0.497859 0.203405
0.000000 0.497859 0.229992
0.000000 0.497859 0.256315
0.000000 0.497859 0.282404
0.000000 0.497859 0.308285
0.000000 0.497859 0.333978
0.000000 0.497859 0.359500
0.000000 0.497859 0.384865
0.000000 0.497859 0.410086
0.000000 0.476005 0.489483
0.000000 0.476005 0.517559
0.000000 0.476005 0.545503
0.000000 0.476005 0.573324
0.000000 0.476005 0.601028
0.000000 0.476005 0.628621
0.000000 0.476005 0.656109
0.000000 0.476005 0.683497
0.000000 0.476005 0.710790
0.000000 0.476005 0.737992
0.000000 0.476005 0.765107
0.000000 0.476005 0.792139
0.000000 0.476005 0.819091
0.000000 0.476005 0.845966
0.000000 0.476005 0.872767
0.000000 0.476005 0.899497
0.000000 0.476005 0.926157
0.000000 0.530484 0.000000
0.000000 0.530484 0.033952
0.000000 0.530484 0.064242
0.000000 0.530484 0.093287
0.000000 0.530484 0.121553
0.000000 0.530484 0.149253
0.000000 0.530484 0.176510
0.000000 0.530484 0.203405
0.000000 0.530484 0.229992
0.000000 0.530484 0.256315
0.000000 0.530484 0.282404
0.000000 0.530484 0.308285
0.000000 0.530484 0.333978
0.000000 0.530484 0.359500
0.000000 0.507199 0.432897
0.000000 0.507199 0.461265
0.000000 0.507199 0.489483
0.000000 0.507199 0.517559
0.000000 0.507199 0.545503
0.000000 0.507199 0.573324
0.000000 0.507199 0.601028
0.000000 0.507199 0.628621
0.000000 0.507199 0.656109
0.000000 0.507199 0.683497
0.000000 0.507199 0.710790
0.000000 0.507199 0.737992
0.000000 0.507199 0.765107
0.000000 0.507199 0.792139
0.000000 0.507199 0.819091
0.000000 0.507199 0.845966
0.000000 0.507199 0.872767
0.000000 0.507199 0.899497
0.000000 0.507199 0.926157
0.000000 0.562936 0.000000
0.000000 0.562936 0.033952
0.000000 0.562936 0.064242
0.000000 0.562936 0.093287
0.000000 0.562936 0.121553
0.000000 0.562936 0.149253
0.000000 0.562936 0.176510
0.000000 0.562936 0.203405
0.000000 0.562936 0.229992
0.000000 0.562936 0.256315
0.000000 0.562936 0.282404
0.000000 0.562936 0.308285
0.000000 0.538226 0.375659
0.000000 0.538226 0.404366
0.000000 0.538226 0.432897
0.000000 0.538226 0.461265
0.000000 0.538226 0.489483
0.000000 0.538226 0.517559
0.000000 0.538226 0.545503
0.000000 0.538226 0.573324
0.000000 0.538226 0.601028
0.000000 0.538226 0.628621
0.000000 0.538226 0.656109
0.000000 0.538226 0.683497
0.000000 0.538226 0.710790
0.000000 0.538226 0.737992
0.000000 0.538226 0.765107
0.000000 0.538226 0.792139
0.000000 0.538226 0.819091
0.000000 0.538226 0.845966
0.000000 0.538226 0.872767
0.000000 0.538226 0.899497
0.000000 0.538226 0.926157
0.000000 0.595225 0.000000
0.000000 0.595225 0.033952
0.000000 0.595225 0.064242
0.000000 0.595225 0.093287
0.000000 0.595225 0.121553
0.000000 0.595225 0.149253
0.000000 0.595225 0.176510
0.000000 0.595225 0.203405
0.000000 0.595225 0.229992
0.000000 0.595225 0.256315
0.000000 0.569098 0.317649
0.000000 0.569098 0.346759
0.000000 0.569098 0.375659
0.000000 0.569098 0.404366
0.000000 0.569098 0.432897
0.000000 0.569098 0.461265
0.000000 0.569098 0.489483
0.000000 0.569098 0.517559
0.000000 0.569098 0.545503
0.000000 0.569098 0.573324
0.000000 0.569098 0.601028
0.000000 0.569098 0.628621
0.000000 0.569098 0.656109
0.000000 0.569098 0.683497
0.000000 0.569098 0.710790
0.000000 0.569098 0.737992
0.000000 0.569098 0.765107
0.000000 0.569098 0.792139
0.000000 0.569098 0.819091
0.000000 0.569098 0.845966
0.000000 0.569098 0.872767
0.000000 0.579561 0.833076
0.000000 0.579561 0.857768
0.000000 0.627363 0.000000
0.000000 0.627363 0.033952
0.000000 0.627363 0.064242
0.000000 0.627363 0.093287
0.000000 0.627363 0.121553
0.000000 0.627363 0.149253
0.000000 0.627363 0.176510
0.000000 0.627363 0.203405
0.000000 0.599825 0.258696
0.000000 0.599825 0.288304
0.000000 0.599825 0.317649
0.000000 0.599825 0.346759
0.000000 0.599825 0.375659
0.000000 0.599825 0.404366
0.000000 0.599825 0.432897
0.000000 0.599825 0.461265
0.000000 0.599825 0.489483
0.000000 0.599825 0.517559
0.000000 0.599825 0.545503
0.000000 0.599825 0.573324
0.000000 0.599825 0.601028
0.000000 0.599825 0.628621
0.000000 0.599825 0.656109
0.000000 0.599825 0.683497
0.000000 0.599825 0.710790
0.000000 0.599825 0.737992
0.000000 0.599825 0.765107
0.000000 0.599825 0.792139
0.000000 0.599825 0.819091
0.000000 0.610853 0.783498
0.000000 0.610853 0.808320
0.000000 0.610853 0.833076
0.000000 0.610853 0.857768
0.000000 0.659359 0.000000
0.000000 0.659359 0.033952
0.000000 0.659359 0.064242
0.000000 0.659359 0.093287
0.000000 0.659359 0.121553
0.000000 0.659359 0.149253
0.000000 0.630416 0.198539
0.000000 0.630416 0.228790
0.000000 0.630416 0.258696
0.000000 0.630416 0.288304
0.000000 0.630416 0.317649
0.000000 0.630416 0.346759
0.000000 0.630416 0.375659
0.000000 0.630416 0.404366
0.000000 0.630416 0.432897
0.000000 0.630416 0.461265
0.000000 0.630416 0.489483
0.000000 0.630416 0.517559
0.000000 0.630416 0.545503
0.000000 0.630416 0.573324
0.000000 0.630416 0.601028
0.000000 0.630416 0.628621
0.000000 0.630416 0.656109
0.000000 0.630416 0.683497
0.000000 0.630416 0.710790
0.000000 0.630416 0.737992
0.000000 0.630416 0.765107
0.000000 0.642007 0.733646
0.000000 0.642007 0.758607
0.000000 0.642007 0.783498
0.000000 0.642007 0.808320
0.000000 0.642007 0.833076
0.000000 0.642007 0.857768
0.000000 0.691219 0.000000
0.000000 0.691219 0.033952
0.000000 0.691219 0.064242
0.000000 0.691219 0.093287
0.000000 0.660879 0.136723
0.000000 0.660879 0.167880
0.000000 0.660879 0.198539
0.000000 0.660879 0.228790
0.000000 0.660879 0.258696
0.000000 0.660879 0.288304
0.000000 0.660879 0.317649
0.000000 0.660879 0.346759
0.000000 0.660879 0.375659
0.000000 0.660879 0.404366
0.000000 0.660879 0.432897
0.000000 0.660879 0.461265
0.000000 0.660879 0.489483
0.000000 0.660879 0.517559
0.000000 0.660879 0.545503
0.000000 0.660879 0.573324
0.000000 0.660879 0.601028
0.000000 0.660879 0.628621
0.000000 0.660879 0.656109
0.000000 0.660879 0.683497
0.000000 0.660879 0.710790
0.000000 0.673029 0.683497
0.000000 0.673029 0.708610
0.000000 0.673029 0.733646
0.000000 0.673029 0.758607
0.000000 0.673029 0.783498
0.000000 0.673029 0.808320
0.000000 0.673029 0.833076
0.000000 0.673029 0.857768
0.000000 0.722953 0.000000
0.000000 0.722953 0.033952
0.000000 0.691219 0.072259
0.000000 0.691219 0.104930
0.000000 0.691219 0.136723
0.000000 0.691219 0.167880
0.000000 0.691219 0.198539
0.000000 0.691219 0.228790
0.000000 0.691219 0.258696
0.000000 0.691219 0.288304
0.000000 0.691219 0.317649
0.000000 0.691219 0.346759
0.000000 0.691219 0.375659
0.000000 0.691219 0.404366
0.000000 0.691219 0.432897
0.000000 0.691219 0.461265
0.000000 0.691219 0.489483
0.000000 0.691219 0.517559
0.000000 0.691219 0.545503
0.000000 0.691219 0.573324
0.000000 0.691219 0.601028
0.000000 0.691219 0.628621
0.000000 0.691219 0.656109
0.000000 0.703928 0.633026
0.000000 0.703928 0.658303
0.000000 0.703928 0.683497
0.000000 0.703928 0.708610
0.000000 0.703928 0.733646
0.000000 0.703928 0.758607
0.000000 0.703928 0.783498
0.000000 0.703928 0.808320
0.000000 0.703928 0.833076
0.000000 0.703928 0.857768
0.000000 0.721445 0.000000
0.000000 0.721445 0.038190
0.000000 0.721445 0.072259
0.000000 0.721445 0.104930
0.000000 0.721445 0.136723
0.000000 0.721445 0.167880
0.000000 0.721445 0.198539
0.000000 0.721445 0.228790
0.000000 0.721445 0.258696
0.000000 0.721445 0.288304
0.000000 0.721445 0.317649
0.000000 0.721445 0.346759
0.000000 0.721445 0.375659
0.000000 0.721445 0.404366
0.000000 0.721445 0.432897
0.000000 0.721445 0.461265
0.000000 0.721445 0.489483
0.000000 0.721445 0.517559
0.000000 0.721445 0.545503
0.000000 0.721445 0.573324
0.000000 0.721445 0.601028
0.000000 0.721445 0.628621
0.000000 0.734709 0.607660
0.000000 0.734709 0.633026
0.000000 0.734709 0.658303
0.000000 0.734709 0.683497
0.000000 0.734709 0.708610
0.000000 0.734709 0.733646
0.000000 0.734709 0.758607
0.000000 0.734709 0.783498
0.000000 0.734709 0.808320
0.000000 0.734709 0.833076
0.000000 0.734709 0.857768
0.000000 0.751560 0.000000
0.000000 0.751560 0.038190
0.000000 0.751560 0.072259
0.000000 0.751560 0.104930
0.000000 0.751560 0.136723
0.000000 0.751560 0.167880
0.000000 0.751560 0.198539
0.000000 0.751560 0.228790
0.000000 0.751560 0.258696
0.000000 0.751560 0.288304
0.000000 0.751560 0.317649
0.000000 0.751560 0.346759
0.000000 0.751560 0.375659
0.000000 0.751560 0.404366
0.000000 0.751560 0.432897
0.000000 0.751560 0.461265
0.000000 0.751560 0.489483
0.000000 0.751560 0.517559
0.000000 0.751560 0.545503
0.000000 0.751560 0.573324
0.000000 0.765378 0.556646
0.000000 0.765378 0.582202
0.000000 0.765378 0.607660
0.000000 0.765378 0.633026
0.000000 0.765378 0.658303
0.000000 0.765378 0.683497
0.000000 0.765378 0.708610
0.000000 0.765378 0.733646
0.000000 0.765378 0.758607
0.000000 0.765378 0.783498
0.000000 0.765378 0.808320
0.000000 0.765378 0.833076
0.000000 0.765378 0.857768
0.000000 0.781571 0.000000
0.000000 0.781571 0.038190
0.000000 0.781571 0.072259
0.000000 0.781571 0.104930
0.000000 0.781571 0.136723
0.000000 0.781571 0.167880
0.000000 0.781571 0.198539
0.000000 0.781571 0.228790
0.000000 0.781571 0.258696
0.000000 0.781571 0.288304
0.000000 0.781571 0.317649
0.000000 0.781571 0.346759
0.000000 0.781571 0.375659
0.000000 0.781571 0.404366
0.000000 0.781571 0.432897
0.000000 0.781571 0.461265
0.000000 0.781571 0.489483
0.000000 0.781571 0.517559
0.000000 0.795941 0.505222
0.000000 0.795941 0.530988
0.000000 0.795941 0.556646
0.000000 0.795941 0.582202
0.000000 0.795941 0.607660
0.000000 0.795941 0.633026
0.000000 0.795941 0.658303
0.000000 0.795941 0.683497
0.000000 0.795941 0.708610
0.000000 0.795941 0.733646
0.000000 0.795941 0.758607
0.000000 0.795941 0.783498
0.000000 0.795941 0.808320
0.000000 0.795941 0.833076
0.000000 0.795941 0.857768
0.000000 0.811482 0.000000
0.000000 0.811482 0.038190
0.000000 0.811482 0.072259
0.000000 0.811482 0.104930
0.000000 0.811482 0.136723
0.000000 0.811482 0.167880
0.000000 0.811482 0.198539
0.000000 0.811482 0.228790
0.000000 0.811482 0.258696
0.000000 0.811482 0.288304
0.000000 0.811482 0.317649
0.000000 0.811482 0.346759
0.000000 0.811482 0.375659
0.000000 0.811482 0.404366
0.000000 0.811482 0.432897
0.000000 0.811482 0.461265
0.000000 0.826402 0.453338
0.000000 0.826402 0.479341
0.000000 0.826402 0.505222
0.000000 0.826402 0.530988
0.000000 0.826402 0.556646
0.000000 0.826402 0.582202
0.000000 0.826402 0.607660
0.000000 0.826402 0.633026
0.000000 0.826402 0.658303
0.000000 0.826402 0.683497
0.000000 0.826402 0.708610
0.000000 0.826402 0.733646
0.000000 0.826402 0.758607
0.000000 0.826402 0.783498
0.000000 0.826402 0.808320
0.000000 0.826402 0.833076
0.000000 0.826402 0.857768
0.000000 0.841298 0.000000
0.000000 0.841298 0.038190
0.000000 0.841298 0.072259
0.000000 0.841298 0.104930
0.000000 0.841298 0.136723
0.000000 0.841298 0.167880
0.000000 0.841298 0.198539
0.000000 0.841298 0.228790
0.000000 0.841298 0.258696
0.000000 0.841298 0.288304
0.000000 0.841298 0.317649
0.000000 0.841298 0.346759
0.000000 0.841298 0.375659
0.000000 0.841298 0.404366
0.000000 0.856765 0.400931
0.000000 0.856765 0.427204
0.000000 0.856765 0.453338
0.000000 0.856765 0.479341
0.000000 0.856765 0.505222
0.000000 0.856765 0.530988
0.000000 0.856765 0.556646
0.000000 0.856765 0.582202
0.000000 0.856765 0.607660
0.000000 0.856765 0.633026
0.000000 0.856765 0.658303
0.000000 0.856765 0.683497
0.000000 0.856765 0.708610
0.000000 0.856765 0.733646
0.000000 0.856765 0.758607
