app/src/main/assets/luts/11_Soft_Teal.cube
TITLE "Soft Teal Style"
LUT_3D_SIZE 5
0.000000 0.000000 0.000000
0.000000 0.000000 0.229992
0.000000 0.000000 0.435172
0.000000 0.000000 0.631925
0.000000 0.000000 0.823396
0.000000 0.297517 0.000000
0.000000 0.297517 0.229992
0.000000 0.297517 0.435172
0.000000 0.297517 0.631925
0.000000 0.284457 0.926157
0.000000 0.562936 0.000000
0.000000 0.562936 0.229992
0.000000 0.538226 0.489483
0.000000 0.538226 0.710790
0.000000 0.538226 0.926157
0.000000 0.781571 0.000000
0.000000 0.781571 0.258696
0.000000 0.781571 0.489483
0.000000 0.795941 0.658303
0.000000 0.795941 0.857768
0.000000 1.018385 0.000000
0.000000 1.037109 0.239593
0.000000 1.037109 0.453338
0.000000 1.037109 0.658303
0.000000 1.037109 0.857768
0.332763 0.000000 0.000000
0.332763 0.000000 0.229992
0.332763 0.000000 0.435172
0.332763 0.000000 0.631925
0.332763 0.000000 0.823396
0.332763 0.297517 0.000000
0.332763 0.297517 0.229992
0.332763 0.297517 0.435172
0.332763 0.297517 0.631925
0.299816 0.284457 0.926157
0.332763 0.562936 0.000000
0.332763 0.562936 0.229992
0.299816 0.538226 0.489483
0.299816 0.538226 0.710790
0.313580 0.548121 0.857768
0.299816 0.781571 0.000000
0.299816 0.781571 0.258696
0.313580 0.795941 0.453338
0.313580 0.795941 0.658303
0.313580 0.795941 0.857768
0.313580 1.037109 0.000000
0.313580 1.037109 0.239593
0.313580 1.037109 0.453338
0.313580 1.037109 0.658303
0.313580 1.037109 0.857768
0.629626 0.000000 0.000000
0.629626 0.000000 0.229992
0.629626 0.000000 0.435172
0.629626 0.000000 0.631925
0.629626 0.000000 0.823396
0.629626 0.297517 0.000000
0.629626 0.297517 0.229992
0.629626 0.297517 0.435172
0.567286 0.284457 0.710790
0.567286 0.284457 0.926157
0.629626 0.562936 0.000000
0.567286 0.538226 0.258696
0.567286 0.538226 0.489483
0.567286 0.538226 0.710790
0.593330 0.548121 0.857768
0.567286 0.781571 0.000000
0.567286 0.781571 0.258696
0.593330 0.795941 0.453338
0.593330 0.795941 0.658303
0.593330 0.795941 0.857768
0.593330 1.037109 0.000000
0.593330 1.037109 0.239593
0.593330 1.037109 0.453338
0.593330 1.037109 0.658303
0.593330 1.037109 0.857768
0.914296 0.000000 0.000000
0.914296 0.000000 0.229992
0.914296 0.000000 0.435172
0.914296 0.000000 0.631925
0.914296 0.000000 0.823396
0.914296 0.297517 0.000000
0.914296 0.297517 0.229992
0.914296 0.297517 0.435172
0.823770 0.284457 0.710790
0.823770 0.284457 0.926157
0.914296 0.562936 0.000000
0.823770 0.538226 0.258696
0.823770 0.538226 0.489483
0.861589 0.548121 0.658303
0.861589 0.548121 0.857768
0.823770 0.781571 0.000000
0.861589 0.795941 0.239593
0.861589 0.795941 0.453338
0.861589 0.795941 0.658303
0.861589 0.795941 0.857768
0.861589 1.037109 0.000000
0.861589 1.037109 0.239593
0.861589 1.037109 0.453338
0.861589 1.037109 0.658303
0.861589 1.037109 0.857768
1.191325 0.000000 0.000000
1.191325 0.000000 0.229992
1.191325 0.000000 0.435172
1.191325 0.000000 0.631925
1.073371 0.000000 0.926157
1.191325 0.297517 0.000000
1.191325 0.297517 0.229992
1.073371 0.284457 0.489483
1.073371 0.284457 0.710790
1.073371 0.284457 0.926157
1.073371 0.538226 0.000000
1.073371 0.538226 0.258696
1.073371 0.538226 0.489483
1.122649 0.548121 0.658303
1.122649 0.548121 0.857768
1.073371 0.781571 0.000000
1.122649 0.795941 0.239593
1.122649 0.795941 0.453338
1.122649 0.795941 0.658303
1.122649 0.795941 0.857768
1.122649 1.037109 0.000000
1.122649 1.037109 0.239593
1.122649 1.037109 0.453338
1.122649 1.037109 0.658303
1.122649 1.037109 0.857768
