app/src/main/assets/luts/11_Soft_Teal.cube
TITLE "Soft Teal Style"
LUT_3D_SIZE 9
0.000000 0.000000 0.000000
0.000000 0.000000 0.121553
0.000000 0.000000 0.229992
0.000000 0.000000 0.333978
0.000000 0.000000 0.435172
0.000000 0.000000 0.534341
0.000000 0.000000 0.631925
0.000000 0.000000 0.728209
0.000000 0.000000 0.823396
0.000000 0.157240 0.000000
0.000000 0.157240 0.121553
0.000000 0.157240 0.229992
0.000000 0.157240 0.333978
0.000000 0.157240 0.435172
0.000000 0.157240 0.534341
0.000000 0.157240 0.631925
0.000000 0.157240 0.728209
0.000000 0.157240 0.823396
0.000000 0.297517 0.000000
0.000000 0.297517 0.121553
0.000000 0.297517 0.229992
0.000000 0.297517 0.333978
0.000000 0.297517 0.435172
0.000000 0.297517 0.534341
0.000000 0.297517 0.631925
0.000000 0.284457 0.819091
0.000000 0.284457 0.926157
0.000000 0.432031 0.000000
0.000000 0.432031 0.121553
0.000000 0.432031 0.229992
0.000000 0.432031 0.333978
0.000000 0.432031 0.435172
0.000000 0.413067 0.601028
0.000000 0.413067 0.710790
0.000000 0.413067 0.819091
0.000000 0.413067 0.926157
0.000000 0.562936 0.000000
0.000000 0.562936 0.121553
0.000000 0.562936 0.229992
0.000000 0.538226 0.375659
0.000000 0.538226 0.489483
0.000000 0.538226 0.601028
0.000000 0.538226 0.710790
0.000000 0.538226 0.819091
0.000000 0.538226 0.926157
0.000000 0.691219 0.000000
0.000000 0.660879 0.136723
0.000000 0.660879 0.258696
0.000000 0.660879 0.375659
0.000000 0.660879 0.489483
0.000000 0.660879 0.601028
0.000000 0.660879 0.710790
0.000000 0.673029 0.758607
0.000000 0.673029 0.857768
0.000000 0.781571 0.000000
0.000000 0.781571 0.136723
0.000000 0.781571 0.258696
0.000000 0.781571 0.375659
0.000000 0.781571 0.489483
0.000000 0.795941 0.556646
0.000000 0.795941 0.658303
0.000000 0.795941 0.758607
0.000000 0.795941 0.857768
0.000000 0.900657 0.000000
0.000000 0.900657 0.136723
0.000000 0.900657 0.258696
0.000000 0.917216 0.347919
0.000000 0.917216 0.453338
0.000000 0.917216 0.556646
0.000000 0.917216 0.658303
0.000000 0.917216 0.758607
0.000000 0.917216 0.857768
0.000000 1.018385 0.000000
0.000000 1.037109 0.126627
0.000000 1.037109 0.239593
0.000000 1.037109 0.347919
0.000000 1.037109 0.453338
0.000000 1.037109 0.556646
0.000000 1.037109 0.658303
0.000000 1.037109 0.758607
0.000000 1.037109 0.857768
0.175868 0.000000 0.000000
0.175868 0.000000 0.121553
0.175868 0.000000 0.229992
0.175868 0.000000 0.333978
0.175868 0.000000 0.435172
0.175868 0.000000 0.534341
0.175868 0.000000 0.631925
0.175868 0.000000 0.728209
0.175868 0.000000 0.823396
0.175868 0.157240 0.000000
0.175868 0.157240 0.121553
0.175868 0.157240 0.229992
0.175868 0.157240 0.333978
0.175868 0.157240 0.435172
0.175868 0.157240 0.534341
0.175868 0.157240 0.631925
0.175868 0.157240 0.728209
0.175868 0.157240 0.823396
0.175868 0.297517 0.000000
0.175868 0.297517 0.121553
0.175868 0.297517 0.229992
0.175868 0.297517 0.333978
0.175868 0.297517 0.435172
0.175868 0.297517 0.534341
0.175868 0.297517 0.631925
0.158455 0.284457 0.819091
0.158455 0.284457 0.926157
0.175868 0.432031 0.000000
0.175868 0.432031 0.121553
0.175868 0.432031 0.229992
0.175868 0.432031 0.333978
0.175868 0.432031 0.435172
0.158455 0.413067 0.601028
0.158455 0.413067 0.710790
0.158455 0.413067 0.819091
0.158455 0.413067 0.926157
0.175868 0.562936 0.000000
0.175868 0.562936 0.121553
0.175868 0.562936 0.229992
0.158455 0.538226 0.375659
0.158455 0.538226 0.489483
0.158455 0.538226 0.601028
0.158455 0.538226 0.710790
0.158455 0.538226 0.819091
0.165730 0.548121 0.857768
0.175868 0.691219 0.000000
0.158455 0.660879 0.136723
0.158455 0.660879 0.258696
0.158455 0.660879 0.375659
0.158455 0.660879 0.489483
0.158455 0.660879 0.601028
0.165730 0.673029 0.658303
0.165730 0.673029 0.758607
0.165730 0.673029 0.857768
0.158455 0.781571 0.000000
0.158455 0.781571 0.136723
0.158455 0.781571 0.258696
0.158455 0.781571 0.375659
0.165730 0.795941 0.453338
0.165730 0.795941 0.556646
0.165730 0.795941 0.658303
0.165730 0.795941 0.758607
0.165730 0.795941 0.857768
0.158455 0.900657 0.000000
0.158455 0.900657 0.136723
0.165730 0.917216 0.239593
0.165730 0.917216 0.347919
0.165730 0.917216 0.453338
0.165730 0.917216 0.556646
0.165730 0.917216 0.658303
0.165730 0.917216 0.758607
0.165730 0.917216 0.857768
0.165730 1.037109 0.000000
0.165730 1.037109 0.126627
0.165730 1.037109 0.239593
0.165730 1.037109 0.347919
0.165730 1.037109 0.453338
0.165730 1.037109 0.556646
0.165730 1.037109 0.658303
0.165730 1.037109 0.758607
0.165730 1.037109 0.857768
0.332763 0.000000 0.000000
0.332763 0.000000 0.121553
0.332763 0.000000 0.229992
0.332763 0.000000 0.333978
0.332763 0.000000 0.435172
0.332763 0.000000 0.534341
0.332763 0.000000 0.631925
0.332763 0.000000 0.728209
0.332763 0.000000 0.823396
0.332763 0.157240 0.000000
0.332763 0.157240 0.121553
0.332763 0.157240 0.229992
0.332763 0.157240 0.333978
0.332763 0.157240 0.435172
0.332763 0.157240 0.534341
0.332763 0.157240 0.631925
0.332763 0.157240 0.728209
0.299816 0.150338 0.926157
0.332763 0.297517 0.000000
0.332763 0.297517 0.121553
0.332763 0.297517 0.229992
0.332763 0.297517 0.333978
0.332763 0.297517 0.435172
0.332763 0.297517 0.534341
0.332763 0.297517 0.631925
0.299816 0.284457 0.819091
0.299816 0.284457 0.926157
0.332763 0.432031 0.000000
0.332763 0.432031 0.121553
0.332763 0.432031 0.229992
0.332763 0.432031 0.333978
0.332763 0.432031 0.435172
0.299816 0.413067 0.601028
0.299816 0.413067 0.710790
0.299816 0.413067 0.819091
0.299816 0.413067 0.926157
0.332763 0.562936 0.000000
0.332763 0.562936 0.121553
0.332763 0.562936 0.229992
0.299816 0.538226 0.375659
0.299816 0.538226 0.489483
0.299816 0.538226 0.601028
0.299816 0.538226 0.710790
0.299816 0.538226 0.819091
0.313580 0.548121 0.857768
0.332763 0.691219 0.000000
0.299816 0.660879 0.136723
0.299816 0.660879 0.258696
0.299816 0.660879 0.375659
0.299816 0.660879 0.489483
0.299816 0.660879 0.601028
0.313580 0.673029 0.658303
0.313580 0.673029 0.758607
0.313580 0.673029 0.857768
0.299816 0.781571 0.000000
0.299816 0.781571 0.136723
0.299816 0.781571 0.258696
0.299816 0.781571 0.375659
0.313580 0.795941 0.453338
0.313580 0.795941 0.556646
0.313580 0.795941 0.658303
0.313580 0.795941 0.758607
0.313580 0.795941 0.857768
0.299816 0.900657 0.000000
0.299816 0.900657 0.136723
0.313580 0.917216 0.239593
0.313580 0.917216 0.347919
0.313580 0.917216 0.453338
0.313580 0.917216 0.556646
0.313580 0.917216 0.658303
0.313580 0.917216 0.758607
0.313580 0.917216 0.857768
0.313580 1.037109 0.000000
0.313580 1.037109 0.126627
0.313580 1.037109 0.239593
0.313580 1.037109 0.347919
0.313580 1.037109 0.453338
0.313580 1.037109 0.556646
0.313580 1.037109 0.658303
0.313580 1.037109 0.758607
0.313580 1.037109 0.857768
0.483214 0.000000 0.000000
0.483214 0.000000 0.121553
0.483214 0.000000 0.229992
0.483214 0.000000 0.333978
0.483214 0.000000 0.435172
0.483214 0.000000 0.534341
0.483214 0.000000 0.631925
0.483214 0.000000 0.728209
0.483214 0.000000 0.823396
0.483214 0.157240 0.000000
0.483214 0.157240 0.121553
0.483214 0.157240 0.229992
0.483214 0.157240 0.333978
0.483214 0.157240 0.435172
0.483214 0.157240 0.534341
0.483214 0.157240 0.631925
0.483214 0.157240 0.728209
0.435370 0.150338 0.926157
0.483214 0.297517 0.000000
0.483214 0.297517 0.121553
0.483214 0.297517 0.229992
0.483214 0.297517 0.333978
0.483214 0.297517 0.435172
0.483214 0.297517 0.534341
0.435370 0.284457 0.710790
0.435370 0.284457 0.819091
0.435370 0.284457 0.926157
0.483214 0.432031 0.000000
0.483214 0.432031 0.121553
0.483214 0.432031 0.229992
0.483214 0.432031 0.333978
0.435370 0.413067 0.489483
0.435370 0.413067 0.601028
0.435370 0.413067 0.710790
0.435370 0.413067 0.819091
0.435370 0.413067 0.926157
0.483214 0.562936 0.000000
0.483214 0.562936 0.121553
0.435370 0.538226 0.258696
0.435370 0.538226 0.375659
0.435370 0.538226 0.489483
0.435370 0.538226 0.601028
0.435370 0.538226 0.710790
0.435370 0.538226 0.819091
0.455358 0.548121 0.857768
0.435370 0.660879 0.000000
0.435370 0.660879 0.136723
0.435370 0.660879 0.258696
0.435370 0.660879 0.375659
0.435370 0.660879 0.489483
0.435370 0.660879 0.601028
0.455358 0.673029 0.658303
0.455358 0.673029 0.758607
0.455358 0.673029 0.857768
0.435370 0.781571 0.000000
0.435370 0.781571 0.136723
0.435370 0.781571 0.258696
0.435370 0.781571 0.375659
0.455358 0.795941 0.453338
0.455358 0.795941 0.556646
0.455358 0.795941 0.658303
0.455358 0.795941 0.758607
0.455358 0.795941 0.857768
0.435370 0.900657 0.000000
0.435370 0.900657 0.136723
0.455358 0.917216 0.239593
0.455358 0.917216 0.347919
0.455358 0.917216 0.453338
0.455358 0.917216 0.556646
0.455358 0.917216 0.658303
0.455358 0.917216 0.758607
0.455358 0.917216 0.857768
0.455358 1.037109 0.000000
0.455358 1.037109 0.126627
0.455358 1.037109 0.239593
0.455358 1.037109 0.347919
0.455358 1.037109 0.453338
0.455358 1.037109 0.556646
0.455358 1.037109 0.658303
0.455358 1.037109 0.758607
0.455358 1.037109 0.857768
0.629626 0.000000 0.000000
0.629626 0.000000 0.121553
0.629626 0.000000 0.229992
0.629626 0.000000 0.333978
0.629626 0.000000 0.435172
0.629626 0.000000 0.534341
0.629626 0.000000 0.631925
0.629626 0.000000 0.728209
0.629626 0.000000 0.823396
0.629626 0.157240 0.000000
0.629626 0.157240 0.121553
0.629626 0.157240 0.229992
0.629626 0.157240 0.333978
0.629626 0.157240 0.435172
0.629626 0.157240 0.534341
0.629626 0.157240 0.631925
0.629626 0.157240 0.728209
0.567286 0.150338 0.926157
0.629626 0.297517 0.000000
0.629626 0.297517 0.121553
0.629626 0.297517 0.229992
0.629626 0.297517 0.333978
0.629626 0.297517 0.435172
0.629626 0.297517 0.534341
0.567286 0.284457 0.710790
0.567286 0.284457 0.819091
0.567286 0.284457 0.926157
0.629626 0.432031 0.000000
0.629626 0.432031 0.121553
0.629626 0.432031 0.229992
0.629626 0.432031 0.333978
0.567286 0.413067 0.489483
0.567286 0.413067 0.601028
0.567286 0.413067 0.710790
0.567286 0.413067 0.819091
0.567286 0.413067 0.926157
0.629626 0.562936 0.000000
0.629626 0.562936 0.121553
0.567286 0.538226 0.258696
0.567286 0.538226 0.375659
0.567286 0.538226 0.489483
0.567286 0.538226 0.601028
0.567286 0.538226 0.710790
0.593330 0.548121 0.758607
0.593330 0.548121 0.857768
0.567286 0.660879 0.000000
0.567286 0.660879 0.136723
0.567286 0.660879 0.258696
0.567286 0.660879 0.375659
0.567286 0.660879 0.489483
0.593330 0.673029 0.556646
0.593330 0.673029 0.658303
0.593330 0.673029 0.758607
0.593330 0.673029 0.857768
0.567286 0.781571 0.000000
0.567286 0.781571 0.136723
0.567286 0.781571 0.258696
0.593330 0.795941 0.347919
0.593330 0.795941 0.453338
0.593330 0.795941 0.556646
0.593330 0.795941 0.658303
0.593330 0.795941 0.758607
0.593330 0.795941 0.857768
0.567286 0.900657 0.000000
0.593330 0.917216 0.126627
0.593330 0.917216 0.239593
0.593330 0.917216 0.347919
0.593330 0.917216 0.453338
0.593330 0.917216 0.556646
0.593330 0.917216 0.658303
0.593330 0.917216 0.758607
0.593330 0.917216 0.857768
0.593330 1.037109 0.000000
0.593330 1.037109 0.126627
0.593330 1.037109 0.239593
0.593330 1.037109 0.347919
0.593330 1.037109 0.453338
0.593330 1.037109 0.556646
0.593330 1.037109 0.658303
0.593330 1.037109 0.758607
0.593330 1.037109 0.857768
0.773108 0.000000 0.000000
0.773108 0.000000 0.121553
0.773108 0.000000 0.229992
0.773108 0.000000 0.333978
0.773108 0.000000 0.435172
0.773108 0.000000 0.534341
0.773108 0.000000 0.631925
0.773108 0.000000 0.728209
0.773108 0.000000 0.823396
0.773108 0.157240 0.000000
0.773108 0.157240 0.121553
0.773108 0.157240 0.229992
0.773108 0.157240 0.333978
0.773108 0.157240 0.435172
0.773108 0.157240 0.534341
0.773108 0.157240 0.631925
0.696562 0.150338 0.819091
0.696562 0.150338 0.926157
0.773108 0.297517 0.000000
0.773108 0.297517 0.121553
0.773108 0.297517 0.229992
0.773108 0.297517 0.333978
0.773108 0.297517 0.435172
0.696562 0.284457 0.601028
0.696562 0.284457 0.710790
0.696562 0.284457 0.819091
0.696562 0.284457 0.926157
0.773108 0.432031 0.000000
0.773108 0.432031 0.121553
0.773108 0.432031 0.229992
0.696562 0.413067 0.375659
0.696562 0.413067 0.489483
0.696562 0.413067 0.601028
0.696562 0.413067 0.710790
0.696562 0.413067 0.819091
0.696562 0.413067 0.926157
0.773108 0.562936 0.000000
0.696562 0.538226 0.136723
0.696562 0.538226 0.258696
0.696562 0.538226 0.375659
0.696562 0.538226 0.489483
0.696562 0.538226 0.601028
0.696562 0.538226 0.710790
0.728540 0.548121 0.758607
0.728540 0.548121 0.857768
0.696562 0.660879 0.000000
0.696562 0.660879 0.136723
0.696562 0.660879 0.258696
0.696562 0.660879 0.375659
0.696562 0.660879 0.489483
0.728540 0.673029 0.556646
0.728540 0.673029 0.658303
0.728540 0.673029 0.758607
0.728540 0.673029 0.857768
0.696562 0.781571 0.000000
0.696562 0.781571 0.136723
0.696562 0.781571 0.258696
0.728540 0.795941 0.347919
0.728540 0.795941 0.453338
0.728540 0.795941 0.556646
0.728540 0.795941 0.658303
0.728540 0.795941 0.758607
0.728540 0.795941 0.857768
0.696562 0.900657 0.000000
0.728540 0.917216 0.126627
0.728540 0.917216 0.239593
0.728540 0.917216 0.347919
0.728540 0.917216 0.453338
0.728540 0.917216 0.556646
0.728540 0.917216 0.658303
0.728540 0.917216 0.758607
0.728540 0.917216 0.857768
0.728540 1.037109 0.000000
0.728540 1.037109 0.126627
0.728540 1.037109 0.239593
0.728540 1.037109 0.347919
0.728540 1.037109 0.453338
0.728540 1.037109 0.556646
0.728540 1.037109 0.658303
0.728540 1.037109 0.758607
0.728540 1.037109 0.857768
0.914296 0.000000 0.000000
0.914296 0.000000 0.121553
0.914296 0.000000 0.229992
0.914296 0.000000 0.333978
0.914296 0.000000 0.435172
0.914296 0.000000 0.534341
0.914296 0.000000 0.631925
0.914296 0.000000 0.728209
0.914296 0.000000 0.823396
0.914296 0.157240 0.000000
0.914296 0.157240 0.121553
0.914296 0.157240 0.229992
0.914296 0.157240 0.333978
0.914296 0.157240 0.435172
0.914296 0.157240 0.534341
0.914296 0.157240 0.631925
0.823770 0.150338 0.819091
0.823770 0.150338 0.926157
0.914296 0.297517 0.000000
0.914296 0.297517 0.121553
0.914296 0.297517 0.229992
0.914296 0.297517 0.333978
0.914296 0.297517 0.435172
0.823770 0.284457 0.601028
0.823770 0.284457 0.710790
0.823770 0.284457 0.819091
0.823770 0.284457 0.926157
0.914296 0.432031 0.000000
0.914296 0.432031 0.121553
0.914296 0.432031 0.229992
0.823770 0.413067 0.375659
0.823770 0.413067 0.489483
0.823770 0.413067 0.601028
0.823770 0.413067 0.710790
0.823770 0.413067 0.819091
0.861589 0.420662 0.857768
0.914296 0.562936 0.000000
0.823770 0.538226 0.136723
0.823770 0.538226 0.258696
0.823770 0.538226 0.375659
0.823770 0.538226 0.489483
0.823770 0.538226 0.601028
0.861589 0.548121 0.658303
0.861589 0.548121 0.758607
0.861589 0.548121 0.857768
0.823770 0.660879 0.000000
0.823770 0.660879 0.136723
0.823770 0.660879 0.258696
0.823770 0.660879 0.375659
0.861589 0.673029 0.453338
0.861589 0.673029 0.556646
0.861589 0.673029 0.658303
0.861589 0.673029 0.758607
0.861589 0.673029 0.857768
0.823770 0.781571 0.000000
0.823770 0.781571 0.136723
0.861589 0.795941 0.239593
0.861589 0.795941 0.347919
0.861589 0.795941 0.453338
0.861589 0.795941 0.556646
0.861589 0.795941 0.658303
0.861589 0.795941 0.758607
0.861589 0.795941 0.857768
0.823770 0.900657 0.000000
0.861589 0.917216 0.126627
0.861589 0.917216 0.239593
0.861589 0.917216 0.347919
0.861589 0.917216 0.453338
0.861589 0.917216 0.556646
0.861589 0.917216 0.658303
0.861589 0.917216 0.758607
0.861589 0.917216 0.857768
0.861589 1.037109 0.000000
0.861589 1.037109 0.126627
0.861589 1.037109 0.239593
0.861589 1.037109 0.347919
0.861589 1.037109 0.453338
0.861589 1.037109 0.556646
0.861589 1.037109 0.658303
0.861589 1.037109 0.758607
0.861589 1.037109 0.857768
1.053605 0.000000 0.000000
1.053605 0.000000 0.121553
1.053605 0.000000 0.229992
1.053605 0.000000 0.333978
1.053605 0.000000 0.435172
1.053605 0.000000 0.534341
1.053605 0.000000 0.631925
1.053605 0.000000 0.728209
1.053605 0.000000 0.823396
1.053605 0.157240 0.000000
1.053605 0.157240 0.121553
1.053605 0.157240 0.229992
1.053605 0.157240 0.333978
1.053605 0.157240 0.435172
1.053605 0.157240 0.534341
1.053605 0.157240 0.631925
0.949286 0.150338 0.819091
0.949286 0.150338 0.926157
1.053605 0.297517 0.000000
1.053605 0.297517 0.121553
1.053605 0.297517 0.229992
1.053605 0.297517 0.333978
1.053605 0.297517 0.435172
0.949286 0.284457 0.601028
0.949286 0.284457 0.710790
0.949286 0.284457 0.819091
0.949286 0.284457 0.926157
1.053605 0.432031 0.000000
1.053605 0.432031 0.121553
1.053605 0.432031 0.229992
0.949286 0.413067 0.375659
0.949286 0.413067 0.489483
0.949286 0.413067 0.601028
0.949286 0.413067 0.710790
0.949286 0.413067 0.819091
0.992868 0.420662 0.857768
1.053605 0.562936 0.000000
0.949286 0.538226 0.136723
0.949286 0.538226 0.258696
0.949286 0.538226 0.375659
0.949286 0.538226 0.489483
0.949286 0.538226 0.601028
0.992868 0.548121 0.658303
0.992868 0.548121 0.758607
0.992868 0.548121 0.857768
0.949286 0.660879 0.000000
0.949286 0.660879 0.136723
0.949286 0.660879 0.258696
0.949286 0.660879 0.375659
0.992868 0.673029 0.453338
0.992868 0.673029 0.556646
0.992868 0.673029 0.658303
0.992868 0.673029 0.758607
0.992868 0.673029 0.857768
0.949286 0.781571 0.000000
0.949286 0.781571 0.136723
0.992868 0.795941 0.239593
0.992868 0.795941 0.347919
0.992868 0.795941 0.453338
0.992868 0.795941 0.556646
0.992868 0.795941 0.658303
0.992868 0.795941 0.758607
0.992868 0.795941 0.857768
0.992868 0.917216 0.000000
0.992868 0.917216 0.126627
0.992868 0.917216 0.239593
0.992868 0.917216 0.347919
0.992868 0.917216 0.453338
0.992868 0.917216 0.556646
0.992868 0.917216 0.658303
0.992868 0.917216 0.758607
0.992868 0.917216 0.857768
0.992868 1.037109 0.000000
0.992868 1.037109 0.126627
0.992868 1.037109 0.239593
0.992868 1.037109 0.347919
0.992868 1.037109 0.453338
0.992868 1.037109 0.556646
0.992868 1.037109 0.658303
0.992868 1.037109 0.758607
0.992868 1.037109 0.857768
1.191325 0.000000 0.000000
1.191325 0.000000 0.121553
1.191325 0.000000 0.229992
1.191325 0.000000 0.333978
1.191325 0.000000 0.435172
1.191325 0.000000 0.534341
1.191325 0.000000 0.631925
1.191325 0.000000 0.728209
1.073371 0.000000 0.926157
1.191325 0.157240 0.000000
1.191325 0.157240 0.121553
1.191325 0.157240 0.229992
1.191325 0.157240 0.333978
1.191325 0.157240 0.435172
1.191325 0.157240 0.534341
1.073371 0.150338 0.710790
1.073371 0.150338 0.819091
1.073371 0.150338 0.926157
1.191325 0.297517 0.000000
1.191325 0.297517 0.121553
1.191325 0.297517 0.229992
1.191325 0.297517 0.333978
1.073371 0.284457 0.489483
1.073371 0.284457 0.601028
1.073371 0.284457 0.710790
1.073371 0.284457 0.819091
1.073371 0.284457 0.926157
1.191325 0.432031 0.000000
1.191325 0.432031 0.121553
1.073371 0.413067 0.258696
1.073371 0.413067 0.375659
1.073371 0.413067 0.489483
1.073371 0.413067 0.601028
1.073371 0.413067 0.710790
1.073371 0.413067 0.819091
1.122649 0.420662 0.857768
1.073371 0.538226 0.000000
1.073371 0.538226 0.136723
1.073371 0.538226 0.258696
1.073371 0.538226 0.375659
1.073371 0.538226 0.489483
1.073371 0.538226 0.601028
1.122649 0.548121 0.658303
1.122649 0.548121 0.758607
1.122649 0.548121 0.857768
1.073371 0.660879 0.000000
1.073371 0.660879 0.136723
1.073371 0.660879 0.258696
1.073371 0.660879 0.375659
1.122649 0.673029 0.453338
1.122649 0.673029 0.556646
1.122649 0.673029 0.658303
1.122649 0.673029 0.758607
1.122649 0.673029 0.857768
1.073371 0.781571 0.000000
1.073371 0.781571 0.136723
1.122649 0.795941 0.239593
1.122649 0.795941 0.347919
1.122649 0.795941 0.453338
1.122649 0.795941 0.556646
1.122649 0.795941 0.658303
1.122649 0.795941 0.758607
1.122649 0.795941 0.857768
1.122649 0.917216 0.000000
1.122649 0.917216 0.126627
1.122649 0.917216 0.239593
1.122649 0.917216 0.347919
1.122649 0.917216 0.453338
1.122649 0.917216 0.556646
1.122649 0.917216 0.658303
1.122649 0.917216 0.758607
1.122649 0.917216 0.857768
1.122649 1.037109 0.000000
1.122649 1.037109 0.126627
1.122649 1.037109 0.239593
1.122649 1.037109 0.347919
1.122649 1.037109 0.453338
1.122649 1.037109 0.556646
1.122649 1.037109 0.658303
1.122649 1.037109 0.758607
1.122649 1.037109 0.857768
