app/src/main/assets/luts/12_High_Contrast.cube
TITLE "High Contrast Style"
LUT_3D_SIZE 9
0.000000 0.000000 0.000000
0.000000 0.000000 0.125994
0.000000 0.000000 0.219368
0.000000 0.000000 0.303422
0.000000 0.000000 0.381942
0.000000 0.000000 0.456589
0.000000 0.000000 0.528288
0.000000 0.000000 0.597624
0.000000 0.000000 0.665000
0.000000 0.132625 0.000000
0.000000 0.132625 0.125994
0.000000 0.132625 0.219368
0.000000 0.132625 0.303422
0.000000 0.132625 0.381942
0.000000 0.132625 0.456589
0.000000 0.132625 0.528288
0.000000 0.189465 0.853749
0.000000 0.189465 0.950000
0.000000 0.230914 0.000000
0.000000 0.230914 0.125994
0.000000 0.230914 0.219368
0.000000 0.230914 0.303422
0.000000 0.230914 0.381942
0.000000 0.329877 0.652270
0.000000 0.329877 0.754697
0.000000 0.329877 0.853749
0.000000 0.329877 0.950000
0.000000 0.319391 0.000000
0.000000 0.319391 0.125994
0.000000 0.319391 0.219368
0.000000 0.456273 0.433460
0.000000 0.456273 0.545632
0.000000 0.456273 0.652270
0.000000 0.456273 0.754697
0.000000 0.456273 0.853749
0.000000 0.456273 0.950000
0.000000 0.402044 0.000000
0.000000 0.574349 0.179991
0.000000 0.574349 0.313383
0.000000 0.574349 0.433460
0.000000 0.574349 0.545632
0.000000 0.574349 0.652270
0.000000 0.574349 0.754697
0.000000 0.574349 0.853749
0.000000 0.574349 0.950000
0.000000 0.686600 0.000000
0.000000 0.686600 0.179991
0.000000 0.686600 0.313383
0.000000 0.686600 0.433460
0.000000 0.686600 0.545632
0.000000 0.686600 0.652270
0.000000 0.686600 0.754697
0.000000 0.686600 0.853749
0.000000 0.686600 0.950000
0.000000 0.794418 0.000000
0.000000 0.794418 0.179991
0.000000 0.794418 0.313383
0.000000 0.794418 0.433460
0.000000 0.794418 0.545632
0.000000 0.794418 0.652270
0.000000 0.794418 0.754697
0.000000 0.913581 0.981811
0.000000 0.913581 1.092500
0.000000 0.898683 0.000000
0.000000 0.898683 0.179991
0.000000 0.898683 0.313383
0.000000 0.898683 0.433460
0.000000 0.898683 0.545632
0.000000 1.033485 0.750111
0.000000 1.033485 0.867902
0.000000 1.033485 0.981811
0.000000 1.033485 1.092500
0.000000 1.000000 0.000000
0.000000 1.000000 0.179991
0.000000 1.000000 0.313383
0.000000 1.000000 0.433460
0.000000 1.150000 0.627476
0.000000 1.150000 0.750111
0.000000 1.150000 0.867902
0.000000 1.150000 0.981811
0.000000 1.150000 1.092500
0.149203 0.000000 0.000000
0.149203 0.000000 0.125994
0.149203 0.000000 0.219368
0.149203 0.000000 0.303422
0.149203 0.000000 0.381942
0.149203 0.000000 0.456589
0.149203 0.000000 0.528288
0.149203 0.000000 0.597624
0.198938 0.000000 0.950000
0.149203 0.132625 0.000000
0.149203 0.132625 0.125994
0.149203 0.132625 0.219368
0.149203 0.132625 0.303422
0.149203 0.132625 0.381942
0.149203 0.132625 0.456589
0.198938 0.189465 0.754697
0.198938 0.189465 0.853749
0.198938 0.189465 0.950000
0.149203 0.230914 0.000000
0.149203 0.230914 0.125994
0.149203 0.230914 0.219368
0.149203 0.230914 0.303422
0.198938 0.329877 0.545632
0.198938 0.329877 0.652270
0.198938 0.329877 0.754697
0.198938 0.329877 0.853749
0.198938 0.329877 0.950000
0.149203 0.319391 0.000000
0.149203 0.319391 0.125994
0.198938 0.456273 0.313383
0.198938 0.456273 0.433460
0.198938 0.456273 0.545632
0.198938 0.456273 0.652270
0.198938 0.456273 0.754697
0.198938 0.456273 0.853749
0.198938 0.456273 0.950000
0.198938 0.574349 0.000000
0.198938 0.574349 0.179991
0.198938 0.574349 0.313383
0.198938 0.574349 0.433460
0.198938 0.574349 0.545632
0.198938 0.574349 0.652270
0.198938 0.574349 0.754697
0.198938 0.574349 0.853749
0.198938 0.574349 0.950000
0.198938 0.686600 0.000000
0.198938 0.686600 0.179991
0.198938 0.686600 0.313383
0.198938 0.686600 0.433460
0.198938 0.686600 0.545632
0.198938 0.686600 0.652270
0.198938 0.686600 0.754697
0.198938 0.686600 0.853749
0.198938 0.686600 0.950000
0.198938 0.794418 0.000000
0.198938 0.794418 0.179991
0.198938 0.794418 0.313383
0.198938 0.794418 0.433460
0.198938 0.794418 0.545632
0.198938 0.794418 0.652270
0.198938 0.794418 0.754697
0.218832 0.913581 0.981811
0.218832 0.913581 1.092500
0.198938 0.898683 0.000000
0.198938 0.898683 0.179991
0.198938 0.898683 0.313383
0.198938 0.898683 0.433460
0.198938 0.898683 0.545632
0.218832 1.033485 0.750111
0.218832 1.033485 0.867902
0.218832 1.033485 0.981811
0.218832 1.033485 1.092500
0.198938 1.000000 0.000000
0.198938 1.000000 0.179991
0.198938 1.000000 0.313383
0.218832 1.150000 0.498479
0.218832 1.150000 0.627476
0.218832 1.150000 0.750111
0.218832 1.150000 0.867902
0.218832 1.150000 0.981811
0.218832 1.150000 1.092500
0.259778 0.000000 0.000000
0.259778 0.000000 0.125994
0.259778 0.000000 0.219368
0.259778 0.000000 0.303422
0.259778 0.000000 0.381942
0.259778 0.000000 0.456589
0.259778 0.000000 0.528288
0.259778 0.000000 0.597624
0.346371 0.000000 0.950000
0.259778 0.132625 0.000000
0.259778 0.132625 0.125994
0.259778 0.132625 0.219368
0.259778 0.132625 0.303422
0.259778 0.132625 0.381942
0.259778 0.132625 0.456589
0.346371 0.189465 0.754697
0.346371 0.189465 0.853749
0.346371 0.189465 0.950000
0.259778 0.230914 0.000000
0.259778 0.230914 0.125994
0.259778 0.230914 0.219368
0.259778 0.230914 0.303422
0.346371 0.329877 0.545632
0.346371 0.329877 0.652270
0.346371 0.329877 0.754697
0.346371 0.329877 0.853749
0.346371 0.329877 0.950000
0.259778 0.319391 0.000000
0.259778 0.319391 0.125994
0.346371 0.456273 0.313383
0.346371 0.456273 0.433460
0.346371 0.456273 0.545632
0.346371 0.456273 0.652270
0.346371 0.456273 0.754697
0.346371 0.456273 0.853749
0.346371 0.456273 0.950000
0.346371 0.574349 0.000000
0.346371 0.574349 0.179991
0.346371 0.574349 0.313383
0.346371 0.574349 0.433460
0.346371 0.574349 0.545632
0.346371 0.574349 0.652270
0.346371 0.574349 0.754697
0.346371 0.574349 0.853749
0.346371 0.574349 0.950000
0.346371 0.686600 0.000000
0.346371 0.686600 0.179991
0.346371 0.686600 0.313383
0.346371 0.686600 0.433460
0.346371 0.686600 0.545632
0.346371 0.686600 0.652270
0.346371 0.686600 0.754697
0.346371 0.686600 0.853749
0.346371 0.686600 0.950000
0.346371 0.794418 0.000000
0.346371 0.794418 0.179991
0.346371 0.794418 0.313383
0.346371 0.794418 0.433460
0.346371 0.794418 0.545632
0.346371 0.794418 0.652270
0.346371 0.794418 0.754697
0.381008 0.913581 0.981811
0.381008 0.913581 1.092500
0.346371 0.898683 0.000000
0.346371 0.898683 0.179991
0.346371 0.898683 0.313383
0.346371 0.898683 0.433460
0.346371 0.898683 0.545632
0.381008 1.033485 0.750111
0.381008 1.033485 0.867902
0.381008 1.033485 0.981811
0.381008 1.033485 1.092500
0.346371 1.000000 0.000000
0.346371 1.000000 0.179991
0.346371 1.000000 0.313383
0.381008 1.150000 0.498479
0.381008 1.150000 0.627476
0.381008 1.150000 0.750111
0.381008 1.150000 0.867902
0.381008 1.150000 0.981811
0.381008 1.150000 1.092500
0.359315 0.000000 0.000000
0.359315 0.000000 0.125994
0.359315 0.000000 0.219368
0.359315 0.000000 0.303422
0.359315 0.000000 0.381942
0.359315 0.000000 0.456589
0.359315 0.000000 0.528288
0.479087 0.000000 0.853749
0.479087 0.000000 0.950000
0.359315 0.132625 0.000000
0.359315 0.132625 0.125994
0.359315 0.132625 0.219368
0.359315 0.132625 0.303422
0.359315 0.132625 0.381942
0.479087 0.189465 0.652270
0.479087 0.189465 0.754697
0.479087 0.189465 0.853749
0.479087 0.189465 0.950000
0.359315 0.230914 0.000000
0.359315 0.230914 0.125994
0.359315 0.230914 0.219368
0.479087 0.329877 0.433460
0.479087 0.329877 0.545632
0.479087 0.329877 0.652270
0.479087 0.329877 0.754697
0.479087 0.329877 0.853749
0.479087 0.329877 0.950000
0.359315 0.319391 0.000000
0.479087 0.456273 0.179991
0.479087 0.456273 0.313383
0.479087 0.456273 0.433460
0.479087 0.456273 0.545632
0.479087 0.456273 0.652270
0.479087 0.456273 0.754697
0.479087 0.456273 0.853749
0.479087 0.456273 0.950000
0.479087 0.574349 0.000000
0.479087 0.574349 0.179991
0.479087 0.574349 0.313383
0.479087 0.574349 0.433460
0.479087 0.574349 0.545632
0.479087 0.574349 0.652270
0.479087 0.574349 0.754697
0.479087 0.574349 0.853749
0.479087 0.574349 0.950000
0.479087 0.686600 0.000000
0.479087 0.686600 0.179991
0.479087 0.686600 0.313383
0.479087 0.686600 0.433460
0.479087 0.686600 0.545632
0.479087 0.686600 0.652270
0.479087 0.686600 0.754697
0.479087 0.686600 0.853749
0.526996 0.789590 1.092500
0.479087 0.794418 0.000000
0.479087 0.794418 0.179991
0.479087 0.794418 0.313383
0.479087 0.794418 0.433460
0.479087 0.794418 0.545632
0.479087 0.794418 0.652270
0.526996 0.913581 0.867902
0.526996 0.913581 0.981811
0.526996 0.913581 1.092500
0.479087 0.898683 0.000000
0.479087 0.898683 0.179991
0.479087 0.898683 0.313383
0.479087 0.898683 0.433460
0.526996 1.033485 0.627476
0.526996 1.033485 0.750111
0.526996 1.033485 0.867902
0.526996 1.033485 0.981811
0.526996 1.033485 1.092500
0.479087 1.000000 0.000000
0.479087 1.000000 0.179991
0.526996 1.150000 0.360391
0.526996 1.150000 0.498479
0.526996 1.150000 0.627476
0.526996 1.150000 0.750111
0.526996 1.150000 0.867902
0.526996 1.150000 0.981811
0.526996 1.150000 1.092500
0.452300 0.000000 0.000000
0.452300 0.000000 0.125994
0.452300 0.000000 0.219368
0.452300 0.000000 0.303422
0.452300 0.000000 0.381942
0.452300 0.000000 0.456589
0.452300 0.000000 0.528288
0.603067 0.000000 0.853749
0.603067 0.000000 0.950000
0.452300 0.132625 0.000000
0.452300 0.132625 0.125994
0.452300 0.132625 0.219368
0.452300 0.132625 0.303422
0.452300 0.132625 0.381942
0.603067 0.189465 0.652270
0.603067 0.189465 0.754697
0.603067 0.189465 0.853749
0.603067 0.189465 0.950000
0.452300 0.230914 0.000000
0.452300 0.230914 0.125994
0.452300 0.230914 0.219368
0.603067 0.329877 0.433460
0.603067 0.329877 0.545632
0.603067 0.329877 0.652270
0.603067 0.329877 0.754697
0.603067 0.329877 0.853749
0.603067 0.329877 0.950000
0.452300 0.319391 0.000000
0.603067 0.456273 0.179991
0.603067 0.456273 0.313383
0.603067 0.456273 0.433460
0.603067 0.456273 0.545632
0.603067 0.456273 0.652270
0.603067 0.456273 0.754697
0.603067 0.456273 0.853749
0.603067 0.456273 0.950000
0.603067 0.574349 0.000000
0.603067 0.574349 0.179991
0.603067 0.574349 0.313383
0.603067 0.574349 0.433460
0.603067 0.574349 0.545632
0.603067 0.574349 0.652270
0.603067 0.574349 0.754697
0.603067 0.574349 0.853749
0.603067 0.574349 0.950000
0.603067 0.686600 0.000000
0.603067 0.686600 0.179991
0.603067 0.686600 0.313383
0.603067 0.686600 0.433460
0.603067 0.686600 0.545632
0.603067 0.686600 0.652270
0.603067 0.686600 0.754697
0.603067 0.686600 0.853749
0.663373 0.789590 1.092500
0.603067 0.794418 0.000000
0.603067 0.794418 0.179991
0.603067 0.794418 0.313383
0.603067 0.794418 0.433460
0.603067 0.794418 0.545632
0.603067 0.794418 0.652270
0.663373 0.913581 0.867902
0.663373 0.913581 0.981811
0.663373 0.913581 1.092500
0.603067 0.898683 0.000000
0.603067 0.898683 0.179991
0.603067 0.898683 0.313383
0.603067 0.898683 0.433460
0.663373 1.033485 0.627476
0.663373 1.033485 0.750111
0.663373 1.033485 0.867902
0.663373 1.033485 0.981811
0.663373 1.033485 1.092500
0.603067 1.000000 0.000000
0.603067 1.000000 0.179991
0.663373 1.150000 0.360391
0.663373 1.150000 0.498479
0.663373 1.150000 0.627476
0.663373 1.150000 0.750111
0.663373 1.150000 0.867902
0.663373 1.150000 0.981811
0.663373 1.150000 1.092500
0.540698 0.000000 0.000000
0.540698 0.000000 0.125994
0.540698 0.000000 0.219368
0.540698 0.000000 0.303422
0.540698 0.000000 0.381942
0.540698 0.000000 0.456589
0.540698 0.000000 0.528288
0.720930 0.000000 0.853749
0.720930 0.000000 0.950000
0.540698 0.132625 0.000000
0.540698 0.132625 0.125994
0.540698 0.132625 0.219368
0.540698 0.132625 0.303422
0.540698 0.132625 0.381942
0.720930 0.189465 0.652270
0.720930 0.189465 0.754697
0.720930 0.189465 0.853749
0.720930 0.189465 0.950000
0.540698 0.230914 0.000000
0.540698 0.230914 0.125994
0.540698 0.230914 0.219368
0.720930 0.329877 0.433460
0.720930 0.329877 0.545632
0.720930 0.329877 0.652270
0.720930 0.329877 0.754697
0.720930 0.329877 0.853749
0.720930 0.329877 0.950000
0.540698 0.319391 0.000000
0.720930 0.456273 0.179991
0.720930 0.456273 0.313383
0.720930 0.456273 0.433460
0.720930 0.456273 0.545632
0.720930 0.456273 0.652270
0.720930 0.456273 0.754697
0.720930 0.456273 0.853749
0.720930 0.456273 0.950000
0.720930 0.574349 0.000000
0.720930 0.574349 0.179991
0.720930 0.574349 0.313383
0.720930 0.574349 0.433460
0.720930 0.574349 0.545632
0.720930 0.574349 0.652270
0.720930 0.574349 0.754697
0.720930 0.574349 0.853749
0.720930 0.574349 0.950000
0.720930 0.686600 0.000000
0.720930 0.686600 0.179991
0.720930 0.686600 0.313383
0.720930 0.686600 0.433460
0.720930 0.686600 0.545632
0.720930 0.686600 0.652270
0.720930 0.686600 0.754697
0.720930 0.686600 0.853749
0.793023 0.789590 1.092500
0.720930 0.794418 0.000000
0.720930 0.794418 0.179991
0.720930 0.794418 0.313383
0.720930 0.794418 0.433460
0.720930 0.794418 0.545632
0.720930 0.794418 0.652270
0.793023 0.913581 0.867902
0.793023 0.913581 0.981811
0.793023 0.913581 1.092500
0.720930 0.898683 0.000000
0.720930 0.898683 0.179991
0.720930 0.898683 0.313383
0.720930 0.898683 0.433460
0.793023 1.033485 0.627476
0.793023 1.033485 0.750111
0.793023 1.033485 0.867902
0.793023 1.033485 0.981811
0.793023 1.033485 1.092500
0.720930 1.000000 0.000000
0.720930 1.000000 0.179991
0.793023 1.150000 0.360391
0.793023 1.150000 0.498479
0.793023 1.150000 0.627476
0.793023 1.150000 0.750111
0.793023 1.150000 0.867902
0.793023 1.150000 0.981811
0.793023 1.150000 1.092500
0.625604 0.000000 0.000000
0.625604 0.000000 0.125994
0.625604 0.000000 0.219368
0.625604 0.000000 0.303422
0.625604 0.000000 0.381942
0.625604 0.000000 0.456589
0.834139 0.000000 0.754697
0.834139 0.000000 0.853749
0.834139 0.000000 0.950000
0.625604 0.132625 0.000000
0.625604 0.132625 0.125994
0.625604 0.132625 0.219368
0.625604 0.132625 0.303422
0.834139 0.189465 0.545632
0.834139 0.189465 0.652270
0.834139 0.189465 0.754697
0.834139 0.189465 0.853749
0.834139 0.189465 0.950000
0.625604 0.230914 0.000000
0.625604 0.230914 0.125994
0.834139 0.329877 0.313383
0.834139 0.329877 0.433460
0.834139 0.329877 0.545632
0.834139 0.329877 0.652270
0.834139 0.329877 0.754697
0.834139 0.329877 0.853749
0.834139 0.329877 0.950000
0.834139 0.456273 0.000000
0.834139 0.456273 0.179991
0.834139 0.456273 0.313383
0.834139 0.456273 0.433460
0.834139 0.456273 0.545632
0.834139 0.456273 0.652270
0.834139 0.456273 0.754697
0.834139 0.456273 0.853749
0.834139 0.456273 0.950000
0.834139 0.574349 0.000000
0.834139 0.574349 0.179991
0.834139 0.574349 0.313383
0.834139 0.574349 0.433460
0.834139 0.574349 0.545632
0.834139 0.574349 0.652270
0.834139 0.574349 0.754697
0.834139 0.574349 0.853749
0.834139 0.574349 0.950000
0.834139 0.686600 0.000000
0.834139 0.686600 0.179991
0.834139 0.686600 0.313383
0.834139 0.686600 0.433460
0.834139 0.686600 0.545632
0.834139 0.686600 0.652270
0.834139 0.686600 0.754697
0.917553 0.789590 0.981811
0.917553 0.789590 1.092500
0.834139 0.794418 0.000000
0.834139 0.794418 0.179991
0.834139 0.794418 0.313383
0.834139 0.794418 0.433460
0.834139 0.794418 0.545632
0.917553 0.913581 0.750111
0.917553 0.913581 0.867902
0.917553 0.913581 0.981811
0.917553 0.913581 1.092500
0.834139 0.898683 0.000000
0.834139 0.898683 0.179991
0.834139 0.898683 0.313383
0.917553 1.033485 0.498479
0.917553 1.033485 0.627476
0.917553 1.033485 0.750111
0.917553 1.033485 0.867902
0.917553 1.033485 0.981811
0.917553 1.033485 1.092500
0.834139 1.000000 0.000000
0.917553 1.150000 0.206990
0.917553 1.150000 0.360391
0.917553 1.150000 0.498479
0.917553 1.150000 0.627476
0.917553 1.150000 0.750111
0.917553 1.150000 0.867902
0.917553 1.150000 0.981811
0.917553 1.150000 1.092500
0.707713 0.000000 0.000000
0.707713 0.000000 0.125994
0.707713 0.000000 0.219368
0.707713 0.000000 0.303422
0.707713 0.000000 0.381942
0.707713 0.000000 0.456589
0.943617 0.000000 0.754697
0.943617 0.000000 0.853749
0.943617 0.000000 0.950000
0.707713 0.132625 0.000000
0.707713 0.132625 0.125994
0.707713 0.132625 0.219368
0.707713 0.132625 0.303422
0.943617 0.189465 0.545632
0.943617 0.189465 0.652270
0.943617 0.189465 0.754697
0.943617 0.189465 0.853749
0.943617 0.189465 0.950000
0.707713 0.230914 0.000000
0.707713 0.230914 0.125994
0.943617 0.329877 0.313383
0.943617 0.329877 0.433460
0.943617 0.329877 0.545632
0.943617 0.329877 0.652270
0.943617 0.329877 0.754697
0.943617 0.329877 0.853749
0.943617 0.329877 0.950000
0.943617 0.456273 0.000000
0.943617 0.456273 0.179991
0.943617 0.456273 0.313383
0.943617 0.456273 0.433460
0.943617 0.456273 0.545632
0.943617 0.456273 0.652270
0.943617 0.456273 0.754697
0.943617 0.456273 0.853749
0.943617 0.456273 0.950000
0.943617 0.574349 0.000000
0.943617 0.574349 0.179991
0.943617 0.574349 0.313383
0.943617 0.574349 0.433460
0.943617 0.574349 0.545632
0.943617 0.574349 0.652270
0.943617 0.574349 0.754697
0.943617 0.574349 0.853749
0.943617 0.574349 0.950000
0.943617 0.686600 0.000000
0.943617 0.686600 0.179991
0.943617 0.686600 0.313383
0.943617 0.686600 0.433460
0.943617 0.686600 0.545632
0.943617 0.686600 0.652270
0.943617 0.686600 0.754697
1.037979 0.789590 0.981811
1.037979 0.789590 1.092500
0.943617 0.794418 0.000000
0.943617 0.794418 0.179991
0.943617 0.794418 0.313383
0.943617 0.794418 0.433460
0.943617 0.794418 0.545632
1.037979 0.913581 0.750111
1.037979 0.913581 0.867902
1.037979 0.913581 0.981811
1.037979 0.913581 1.092500
0.943617 0.898683 0.000000
0.943617 0.898683 0.179991
0.943617 0.898683 0.313383
1.037979 1.033485 0.498479
1.037979 1.033485 0.627476
1.037979 1.033485 0.750111
1.037979 1.033485 0.867902
1.037979 1.033485 0.981811
1.037979 1.033485 1.092500
0.943617 1.000000 0.000000
1.037979 1.150000 0.206990
1.037979 1.150000 0.360391
1.037979 1.150000 0.498479
1.037979 1.150000 0.627476
1.037979 1.150000 0.750111
1.037979 1.150000 0.867902
1.037979 1.150000 0.981811
1.037979 1.150000 1.092500
0.787500 0.000000 0.000000
0.787500 0.000000 0.125994
0.787500 0.000000 0.219368
0.787500 0.000000 0.303422
0.787500 0.000000 0.381942
1.050000 0.000000 0.652270
1.050000 0.000000 0.754697
1.050000 0.000000 0.853749
1.050000 0.000000 0.950000
0.787500 0.132625 0.000000
0.787500 0.132625 0.125994
0.787500 0.132625 0.219368
0.787500 0.132625 0.303422
1.050000 0.189465 0.545632
1.050000 0.189465 0.652270
1.050000 0.189465 0.754697
1.050000 0.189465 0.853749
1.050000 0.189465 0.950000
0.787500 0.230914 0.000000
0.787500 0.230914 0.125994
1.050000 0.329877 0.313383
1.050000 0.329877 0.433460
1.050000 0.329877 0.545632
1.050000 0.329877 0.652270
1.050000 0.329877 0.754697
1.050000 0.329877 0.853749
1.050000 0.329877 0.950000
1.050000 0.456273 0.000000
1.050000 0.456273 0.179991
1.050000 0.456273 0.313383
1.050000 0.456273 0.433460
1.050000 0.456273 0.545632
1.050000 0.456273 0.652270
1.050000 0.456273 0.754697
1.050000 0.456273 0.853749
1.050000 0.456273 0.950000
1.050000 0.574349 0.000000
1.050000 0.574349 0.179991
1.050000 0.574349 0.313383
1.050000 0.574349 0.433460
1.050000 0.574349 0.545632
1.050000 0.574349 0.652270
1.050000 0.574349 0.754697
1.050000 0.574349 0.853749
1.155000 0.660502 1.092500
1.050000 0.686600 0.000000
1.050000 0.686600 0.179991
1.050000 0.686600 0.313383
1.050000 0.686600 0.433460
1.050000 0.686600 0.545632
1.050000 0.686600 0.652270
1.155000 0.789590 0.867902
1.155000 0.789590 0.981811
1.155000 0.789590 1.092500
1.050000 0.794418 0.000000
1.050000 0.794418 0.179991
1.050000 0.794418 0.313383
1.050000 0.794418 0.433460
1.155000 0.913581 0.627476
1.155000 0.913581 0.750111
1.155000 0.913581 0.867902
1.155000 0.913581 0.981811
1.155000 0.913581 1.092500
1.050000 0.898683 0.000000
1.050000 0.898683 0.179991
1.155000 1.033485 0.360391
1.155000 1.033485 0.498479
1.155000 1.033485 0.627476
1.155000 1.033485 0.750111
1.155000 1.033485 0.867902
1.155000 1.033485 0.981811
1.155000 1.033485 1.092500
1.155000 1.150000 0.000000
1.155000 1.150000 0.206990
1.155000 1.150000 0.360391
1.155000 1.150000 0.498479
1.155000 1.150000 0.627476
1.155000 1.150000 0.750111
1.155000 1.150000 0.867902
1.155000 1.150000 0.981811
1.155000 1.150000 1.092500
