app/src/main/assets/luts/12_High_Contrast.cube
TITLE "High Contrast Style"
LUT_3D_SIZE 33
0.000000 0.000000 0.000000
0.000000 0.000000 0.041562
0.000000 0.000000 0.072365
0.000000 0.000000 0.100092
0.000000 0.000000 0.125994
0.000000 0.000000 0.150618
0.000000 0.000000 0.174270
0.000000 0.000000 0.197142
0.000000 0.000000 0.219368
0.000000 0.000000 0.241044
0.000000 0.000000 0.262242
0.000000 0.000000 0.283019
0.000000 0.000000 0.303422
0.000000 0.000000 0.323487
0.000000 0.000000 0.343245
0.000000 0.000000 0.362723
0.000000 0.000000 0.381942
0.000000 0.000000 0.400923
0.000000 0.000000 0.419681
0.000000 0.000000 0.438232
0.000000 0.000000 0.456589
0.000000 0.000000 0.474763
0.000000 0.000000 0.492765
0.000000 0.000000 0.510604
0.000000 0.000000 0.528288
0.000000 0.000000 0.545825
0.000000 0.000000 0.563223
0.000000 0.000000 0.580487
0.000000 0.000000 0.597624
0.000000 0.000000 0.614639
0.000000 0.000000 0.631537
0.000000 0.000000 0.648322
0.000000 0.000000 0.665000
0.000000 0.043750 0.000000
0.000000 0.043750 0.041562
0.000000 0.043750 0.072365
0.000000 0.043750 0.100092
0.000000 0.043750 0.125994
0.000000 0.043750 0.150618
0.000000 0.043750 0.174270
0.000000 0.043750 0.197142
0.000000 0.043750 0.219368
0.000000 0.043750 0.241044
0.000000 0.043750 0.262242
0.000000 0.043750 0.283019
0.000000 0.043750 0.303422
0.000000 0.043750 0.323487
0.000000 0.043750 0.343245
0.000000 0.043750 0.362723
0.000000 0.043750 0.381942
0.000000 0.043750 0.400923
0.000000 0.043750 0.419681
0.000000 0.043750 0.438232
0.000000 0.043750 0.456589
0.000000 0.043750 0.474763
0.000000 0.043750 0.492765
0.000000 0.043750 0.510604
0.000000 0.043750 0.528288
0.000000 0.043750 0.545825
0.000000 0.043750 0.563223
0.000000 0.043750 0.580487
0.000000 0.043750 0.597624
0.000000 0.043750 0.614639
0.000000 0.043750 0.631537
0.000000 0.062500 0.926175
0.000000 0.062500 0.950000
0.000000 0.076173 0.000000
0.000000 0.076173 0.041562
0.000000 0.076173 0.072365
0.000000 0.076173 0.100092
0.000000 0.076173 0.125994
0.000000 0.076173 0.150618
0.000000 0.076173 0.174270
0.000000 0.076173 0.197142
0.000000 0.076173 0.219368
0.000000 0.076173 0.241044
0.000000 0.076173 0.262242
0.000000 0.076173 0.283019
0.000000 0.076173 0.303422
0.000000 0.076173 0.323487
0.000000 0.076173 0.343245
0.000000 0.076173 0.362723
0.000000 0.076173 0.381942
0.000000 0.076173 0.400923
0.000000 0.076173 0.419681
0.000000 0.076173 0.438232
0.000000 0.076173 0.456589
0.000000 0.076173 0.474763
0.000000 0.076173 0.492765
0.000000 0.076173 0.510604
0.000000 0.076173 0.528288
0.000000 0.076173 0.545825
0.000000 0.076173 0.563223
0.000000 0.076173 0.580487
0.000000 0.076173 0.597624
0.000000 0.108819 0.878056
0.000000 0.108819 0.902195
0.000000 0.108819 0.926175
0.000000 0.108819 0.950000
0.000000 0.105360 0.000000
0.000000 0.105360 0.041562
0.000000 0.105360 0.072365
0.000000 0.105360 0.100092
0.000000 0.105360 0.125994
0.000000 0.105360 0.150618
0.000000 0.105360 0.174270
0.000000 0.105360 0.197142
0.000000 0.105360 0.219368
0.000000 0.105360 0.241044
0.000000 0.105360 0.262242
0.000000 0.105360 0.283019
0.000000 0.105360 0.303422
0.000000 0.105360 0.323487
0.000000 0.105360 0.343245
0.000000 0.105360 0.362723
0.000000 0.105360 0.381942
0.000000 0.105360 0.400923
0.000000 0.105360 0.419681
0.000000 0.105360 0.438232
0.000000 0.105360 0.456589
0.000000 0.105360 0.474763
0.000000 0.105360 0.492765
0.000000 0.105360 0.510604
0.000000 0.105360 0.528288
0.000000 0.105360 0.545825
0.000000 0.105360 0.563223
0.000000 0.150514 0.829267
0.000000 0.150514 0.853749
0.000000 0.150514 0.878056
0.000000 0.150514 0.902195
0.000000 0.150514 0.926175
0.000000 0.150514 0.950000
0.000000 0.132625 0.000000
0.000000 0.132625 0.041562
0.000000 0.132625 0.072365
0.000000 0.132625 0.100092
0.000000 0.132625 0.125994
0.000000 0.132625 0.150618
0.000000 0.132625 0.174270
0.000000 0.132625 0.197142
0.000000 0.132625 0.219368
0.000000 0.132625 0.241044
0.000000 0.132625 0.262242
0.000000 0.132625 0.283019
0.000000 0.132625 0.303422
0.000000 0.132625 0.323487
0.000000 0.132625 0.343245
0.000000 0.132625 0.362723
0.000000 0.132625 0.381942
0.000000 0.132625 0.400923
0.000000 0.132625 0.419681
0.000000 0.132625 0.438232
0.000000 0.132625 0.456589
0.000000 0.132625 0.474763
0.000000 0.132625 0.492765
0.000000 0.132625 0.510604
0.000000 0.132625 0.528288
0.000000 0.189465 0.779750
0.000000 0.189465 0.804604
0.000000 0.189465 0.829267
0.000000 0.189465 0.853749
0.000000 0.189465 0.878056
0.000000 0.189465 0.902195
0.000000 0.189465 0.926175
0.000000 0.189465 0.950000
0.000000 0.158546 0.000000
0.000000 0.158546 0.041562
0.000000 0.158546 0.072365
0.000000 0.158546 0.100092
0.000000 0.158546 0.125994
0.000000 0.158546 0.150618
0.000000 0.158546 0.174270
0.000000 0.158546 0.197142
0.000000 0.158546 0.219368
0.000000 0.158546 0.241044
0.000000 0.158546 0.262242
0.000000 0.158546 0.283019
0.000000 0.158546 0.303422
0.000000 0.158546 0.323487
0.000000 0.158546 0.343245
0.000000 0.158546 0.362723
0.000000 0.158546 0.381942
0.000000 0.158546 0.400923
0.000000 0.158546 0.419681
0.000000 0.158546 0.438232
0.000000 0.158546 0.456589
0.000000 0.158546 0.474763
0.000000 0.158546 0.492765
0.000000 0.226494 0.729434
0.000000 0.226494 0.754697
0.000000 0.226494 0.779750
0.000000 0.226494 0.804604
0.000000 0.226494 0.829267
0.000000 0.226494 0.853749
0.000000 0.226494 0.878056
0.000000 0.226494 0.902195
0.000000 0.226494 0.926175
0.000000 0.226494 0.950000
0.000000 0.183442 0.000000
0.000000 0.183442 0.041562
0.000000 0.183442 0.072365
0.000000 0.183442 0.100092
0.000000 0.183442 0.125994
0.000000 0.183442 0.150618
0.000000 0.183442 0.174270
0.000000 0.183442 0.197142
0.000000 0.183442 0.219368
0.000000 0.183442 0.241044
0.000000 0.183442 0.262242
0.000000 0.183442 0.283019
0.000000 0.183442 0.303422
0.000000 0.183442 0.323487
0.000000 0.183442 0.343245
0.000000 0.183442 0.362723
0.000000 0.183442 0.381942
0.000000 0.183442 0.400923
0.000000 0.183442 0.419681
0.000000 0.183442 0.438232
0.000000 0.183442 0.456589
0.000000 0.262060 0.678233
0.000000 0.262060 0.703950
0.000000 0.262060 0.729434
0.000000 0.262060 0.754697
0.000000 0.262060 0.779750
0.000000 0.262060 0.804604
0.000000 0.262060 0.829267
0.000000 0.262060 0.853749
0.000000 0.262060 0.878056
0.000000 0.262060 0.902195
0.000000 0.262060 0.926175
0.000000 0.262060 0.950000
0.000000 0.207518 0.000000
0.000000 0.207518 0.041562
0.000000 0.207518 0.072365
0.000000 0.207518 0.100092
0.000000 0.207518 0.125994
0.000000 0.207518 0.150618
0.000000 0.207518 0.174270
0.000000 0.207518 0.197142
0.000000 0.207518 0.219368
0.000000 0.207518 0.241044
0.000000 0.207518 0.262242
0.000000 0.207518 0.283019
0.000000 0.207518 0.303422
0.000000 0.207518 0.323487
0.000000 0.207518 0.343245
0.000000 0.207518 0.362723
0.000000 0.207518 0.381942
0.000000 0.207518 0.400923
0.000000 0.207518 0.419681
0.000000 0.296455 0.626046
0.000000 0.296455 0.652270
0.000000 0.296455 0.678233
0.000000 0.296455 0.703950
0.000000 0.296455 0.729434
0.000000 0.296455 0.754697
0.000000 0.296455 0.779750
0.000000 0.296455 0.804604
0.000000 0.296455 0.829267
0.000000 0.296455 0.853749
0.000000 0.296455 0.878056
0.000000 0.296455 0.902195
0.000000 0.296455 0.926175
0.000000 0.296455 0.950000
0.000000 0.230914 0.000000
0.000000 0.230914 0.041562
0.000000 0.230914 0.072365
0.000000 0.230914 0.100092
0.000000 0.230914 0.125994
0.000000 0.230914 0.150618
0.000000 0.230914 0.174270
0.000000 0.230914 0.197142
0.000000 0.230914 0.219368
0.000000 0.230914 0.241044
0.000000 0.230914 0.262242
0.000000 0.230914 0.283019
0.000000 0.230914 0.303422
0.000000 0.230914 0.323487
0.000000 0.230914 0.343245
0.000000 0.230914 0.362723
0.000000 0.230914 0.381942
0.000000 0.329877 0.572747
0.000000 0.329877 0.599545
0.000000 0.329877 0.626046
0.000000 0.329877 0.652270
0.000000 0.329877 0.678233
0.000000 0.329877 0.703950
0.000000 0.329877 0.729434
0.000000 0.329877 0.754697
0.000000 0.329877 0.779750
0.000000 0.329877 0.804604
0.000000 0.329877 0.829267
0.000000 0.329877 0.853749
0.000000 0.329877 0.878056
0.000000 0.329877 0.902195
0.000000 0.329877 0.926175
0.000000 0.329877 0.950000
0.000000 0.253730 0.000000
0.000000 0.253730 0.041562
0.000000 0.253730 0.072365
0.000000 0.253730 0.100092
0.000000 0.253730 0.125994
0.000000 0.253730 0.150618
0.000000 0.253730 0.174270
0.000000 0.253730 0.197142
0.000000 0.253730 0.219368
0.000000 0.253730 0.241044
0.000000 0.253730 0.262242
0.000000 0.253730 0.283019
0.000000 0.253730 0.303422
0.000000 0.253730 0.323487
0.000000 0.253730 0.343245
0.000000 0.362472 0.518175
0.000000 0.362472 0.545632
0.000000 0.362472 0.572747
0.000000 0.362472 0.599545
0.000000 0.362472 0.626046
0.000000 0.362472 0.652270
0.000000 0.362472 0.678233
0.000000 0.362472 0.703950
0.000000 0.362472 0.729434
0.000000 0.362472 0.754697
0.000000 0.362472 0.779750
0.000000 0.362472 0.804604
0.000000 0.362472 0.829267
0.000000 0.362472 0.853749
0.000000 0.362472 0.878056
0.000000 0.362472 0.902195
0.000000 0.362472 0.926175
0.000000 0.362472 0.950000
0.000000 0.276044 0.000000
0.000000 0.276044 0.041562
0.000000 0.276044 0.072365
0.000000 0.276044 0.100092
0.000000 0.276044 0.125994
0.000000 0.276044 0.150618
0.000000 0.276044 0.174270
0.000000 0.276044 0.197142
0.000000 0.276044 0.219368
0.000000 0.276044 0.241044
0.000000 0.276044 0.262242
0.000000 0.276044 0.283019
0.000000 0.276044 0.303422
0.000000 0.394348 0.462124
0.000000 0.394348 0.490350
0.000000 0.394348 0.518175
0.000000 0.394348 0.545632
0.000000 0.394348 0.572747
0.000000 0.394348 0.599545
0.000000 0.394348 0.626046
0.000000 0.394348 0.652270
0.000000 0.394348 0.678233
0.000000 0.394348 0.703950
0.000000 0.394348 0.729434
0.000000 0.394348 0.754697
0.000000 0.394348 0.779750
0.000000 0.394348 0.804604
0.000000 0.394348 0.829267
0.000000 0.394348 0.853749
0.000000 0.394348 0.878056
0.000000 0.394348 0.902195
0.000000 0.394348 0.926175
0.000000 0.394348 0.950000
0.000000 0.297915 0.000000
0.000000 0.297915 0.041562
0.000000 0.297915 0.072365
0.000000 0.297915 0.100092
0.000000 0.297915 0.125994
0.000000 0.297915 0.150618
0.000000 0.297915 0.174270
0.000000 0.297915 0.197142
0.000000 0.297915 0.219368
0.000000 0.297915 0.241044
0.000000 0.297915 0.262242
0.000000 0.425593 0.404313
0.000000 0.425593 0.433460
0.000000 0.425593 0.462124
0.000000 0.425593 0.490350
0.000000 0.425593 0.518175
0.000000 0.425593 0.545632
0.000000 0.425593 0.572747
0.000000 0.425593 0.599545
0.000000 0.425593 0.626046
0.000000 0.425593 0.652270
0.000000 0.425593 0.678233
0.000000 0.425593 0.703950
0.000000 0.425593 0.729434
0.000000 0.425593 0.754697
0.000000 0.425593 0.779750
0.000000 0.425593 0.804604
0.000000 0.425593 0.829267
0.000000 0.425593 0.853749
0.000000 0.425593 0.878056
0.000000 0.425593 0.902195
0.000000 0.425593 0.926175
0.000000 0.425593 0.950000
0.000000 0.319391 0.000000
0.000000 0.319391 0.041562
0.000000 0.319391 0.072365
0.000000 0.319391 0.100092
0.000000 0.319391 0.125994
0.000000 0.319391 0.150618
0.000000 0.319391 0.174270
0.000000 0.319391 0.197142
0.000000 0.319391 0.219368
0.000000 0.456273 0.344348
0.000000 0.456273 0.374631
0.000000 0.456273 0.404313
0.000000 0.456273 0.433460
0.000000 0.456273 0.462124
0.000000 0.456273 0.490350
0.000000 0.456273 0.518175
0.000000 0.456273 0.545632
0.000000 0.456273 0.572747
0.000000 0.456273 0.599545
0.000000 0.456273 0.626046
0.000000 0.456273 0.652270
0.000000 0.456273 0.678233
0.000000 0.456273 0.703950
0.000000 0.456273 0.729434
0.000000 0.456273 0.754697
0.000000 0.456273 0.779750
0.000000 0.456273 0.804604
0.000000 0.456273 0.829267
0.000000 0.456273 0.853749
0.000000 0.456273 0.878056
0.000000 0.456273 0.902195
0.000000 0.456273 0.926175
0.000000 0.456273 0.950000
0.000000 0.340512 0.000000
0.000000 0.340512 0.041562
0.000000 0.340512 0.072365
0.000000 0.340512 0.100092
0.000000 0.340512 0.125994
0.000000 0.340512 0.150618
0.000000 0.340512 0.174270
0.000000 0.486446 0.281632
0.000000 0.486446 0.313383
0.000000 0.486446 0.344348
0.000000 0.486446 0.374631
0.000000 0.486446 0.404313
0.000000 0.486446 0.433460
0.000000 0.486446 0.462124
0.000000 0.486446 0.490350
0.000000 0.486446 0.518175
0.000000 0.486446 0.545632
0.000000 0.486446 0.572747
0.000000 0.486446 0.599545
0.000000 0.486446 0.626046
0.000000 0.486446 0.652270
0.000000 0.486446 0.678233
0.000000 0.486446 0.703950
0.000000 0.486446 0.729434
0.000000 0.486446 0.754697
0.000000 0.486446 0.779750
0.000000 0.486446 0.804604
0.000000 0.486446 0.829267
0.000000 0.486446 0.853749
0.000000 0.486446 0.878056
0.000000 0.486446 0.902195
0.000000 0.486446 0.926175
0.000000 0.486446 0.950000
0.000000 0.361310 0.000000
0.000000 0.361310 0.041562
0.000000 0.361310 0.072365
0.000000 0.361310 0.100092
0.000000 0.361310 0.125994
0.000000 0.516158 0.215169
0.000000 0.516158 0.248957
0.000000 0.516158 0.281632
0.000000 0.516158 0.313383
0.000000 0.516158 0.344348
0.000000 0.516158 0.374631
0.000000 0.516158 0.404313
0.000000 0.516158 0.433460
0.000000 0.516158 0.462124
0.000000 0.516158 0.490350
0.000000 0.516158 0.518175
0.000000 0.516158 0.545632
0.000000 0.516158 0.572747
0.000000 0.516158 0.599545
0.000000 0.516158 0.626046
0.000000 0.516158 0.652270
0.000000 0.516158 0.678233
0.000000 0.516158 0.703950
0.000000 0.516158 0.729434
0.000000 0.516158 0.754697
0.000000 0.516158 0.779750
0.000000 0.516158 0.804604
0.000000 0.516158 0.829267
0.000000 0.516158 0.853749
0.000000 0.516158 0.878056
0.000000 0.516158 0.902195
0.000000 0.516158 0.926175
0.000000 0.516158 0.950000
0.000000 0.381813 0.000000
0.000000 0.381813 0.041562
0.000000 0.381813 0.072365
0.000000 0.545448 0.142988
0.000000 0.545448 0.179991
0.000000 0.545448 0.215169
0.000000 0.545448 0.248957
0.000000 0.545448 0.281632
0.000000 0.545448 0.313383
0.000000 0.545448 0.344348
0.000000 0.545448 0.374631
0.000000 0.545448 0.404313
0.000000 0.545448 0.433460
0.000000 0.545448 0.462124
0.000000 0.545448 0.490350
0.000000 0.545448 0.518175
0.000000 0.545448 0.545632
0.000000 0.545448 0.572747
0.000000 0.545448 0.599545
0.000000 0.545448 0.626046
0.000000 0.545448 0.652270
0.000000 0.545448 0.678233
0.000000 0.545448 0.703950
0.000000 0.545448 0.729434
0.000000 0.545448 0.754697
0.000000 0.545448 0.779750
0.000000 0.545448 0.804604
0.000000 0.545448 0.829267
0.000000 0.545448 0.853749
0.000000 0.545448 0.878056
0.000000 0.545448 0.902195
0.000000 0.545448 0.926175
0.000000 0.545448 0.950000
0.000000 0.402044 0.000000
0.000000 0.574349 0.059375
0.000000 0.574349 0.103378
0.000000 0.574349 0.142988
0.000000 0.574349 0.179991
0.000000 0.574349 0.215169
0.000000 0.574349 0.248957
0.000000 0.574349 0.281632
0.000000 0.574349 0.313383
0.000000 0.574349 0.344348
0.000000 0.574349 0.374631
0.000000 0.574349 0.404313
0.000000 0.574349 0.433460
0.000000 0.574349 0.462124
0.000000 0.574349 0.490350
0.000000 0.574349 0.518175
0.000000 0.574349 0.545632
0.000000 0.574349 0.572747
0.000000 0.574349 0.599545
0.000000 0.574349 0.626046
0.000000 0.574349 0.652270
0.000000 0.574349 0.678233
0.000000 0.574349 0.703950
0.000000 0.574349 0.729434
0.000000 0.574349 0.754697
0.000000 0.574349 0.779750
0.000000 0.574349 0.804604
0.000000 0.574349 0.829267
0.000000 0.574349 0.853749
0.000000 0.574349 0.878056
0.000000 0.574349 0.902195
0.000000 0.574349 0.926175
0.000000 0.574349 0.950000
0.000000 0.602891 0.000000
0.000000 0.602891 0.059375
0.000000 0.602891 0.103378
0.000000 0.602891 0.142988
0.000000 0.602891 0.179991
0.000000 0.602891 0.215169
0.000000 0.602891 0.248957
0.000000 0.602891 0.281632
0.000000 0.602891 0.313383
0.000000 0.602891 0.344348
0.000000 0.602891 0.374631
0.000000 0.602891 0.404313
0.000000 0.602891 0.433460
0.000000 0.602891 0.462124
0.000000 0.602891 0.490350
0.000000 0.602891 0.518175
0.000000 0.602891 0.545632
0.000000 0.602891 0.572747
0.000000 0.602891 0.599545
0.000000 0.602891 0.626046
0.000000 0.602891 0.652270
0.000000 0.602891 0.678233
0.000000 0.602891 0.703950
0.000000 0.602891 0.729434
0.000000 0.602891 0.754697
0.000000 0.602891 0.779750
0.000000 0.602891 0.804604
0.000000 0.602891 0.829267
0.000000 0.602891 0.853749
0.000000 0.602891 0.878056
0.000000 0.602891 0.902195
0.000000 0.602891 0.926175
0.000000 0.602891 0.950000
0.000000 0.631100 0.000000
0.000000 0.631100 0.059375
0.000000 0.631100 0.103378
0.000000 0.631100 0.142988
0.000000 0.631100 0.179991
0.000000 0.631100 0.215169
0.000000 0.631100 0.248957
0.000000 0.631100 0.281632
0.000000 0.631100 0.313383
0.000000 0.631100 0.344348
0.000000 0.631100 0.374631
0.000000 0.631100 0.404313
0.000000 0.631100 0.433460
0.000000 0.631100 0.462124
0.000000 0.631100 0.490350
0.000000 0.631100 0.518175
0.000000 0.631100 0.545632
0.000000 0.631100 0.572747
0.000000 0.631100 0.599545
0.000000 0.631100 0.626046
0.000000 0.631100 0.652270
0.000000 0.631100 0.678233
0.000000 0.631100 0.703950
0.000000 0.631100 0.729434
0.000000 0.631100 0.754697
0.000000 0.631100 0.779750
0.000000 0.631100 0.804604
0.000000 0.631100 0.829267
0.000000 0.631100 0.853749
0.000000 0.631100 0.878056
0.000000 0.631100 0.902195
0.000000 0.631100 0.926175
0.000000 0.631100 0.950000
0.000000 0.658996 0.000000
0.000000 0.658996 0.059375
0.000000 0.658996 0.103378
0.000000 0.658996 0.142988
0.000000 0.658996 0.179991
0.000000 0.658996 0.215169
0.000000 0.658996 0.248957
0.000000 0.658996 0.281632
0.000000 0.658996 0.313383
0.000000 0.658996 0.344348
0.000000 0.658996 0.374631
0.000000 0.658996 0.404313
0.000000 0.658996 0.433460
0.000000 0.658996 0.462124
0.000000 0.658996 0.490350
0.000000 0.658996 0.518175
0.000000 0.658996 0.545632
0.000000 0.658996 0.572747
0.000000 0.658996 0.599545
0.000000 0.658996 0.626046
0.000000 0.658996 0.652270
0.000000 0.658996 0.678233
0.000000 0.658996 0.703950
0.000000 0.658996 0.729434
0.000000 0.658996 0.754697
0.000000 0.658996 0.779750
0.000000 0.658996 0.804604
0.000000 0.658996 0.829267
0.000000 0.658996 0.853749
0.000000 0.658996 0.878056
0.000000 0.658996 0.902195
0.000000 0.658996 0.926175
0.000000 0.658996 0.950000
0.000000 0.686600 0.000000
0.000000 0.686600 0.059375
0.000000 0.686600 0.103378
0.000000 0.686600 0.142988
0.000000 0.686600 0.179991
0.000000 0.686600 0.215169
0.000000 0.686600 0.248957
0.000000 0.686600 0.281632
0.000000 0.686600 0.313383
0.000000 0.686600 0.344348
0.000000 0.686600 0.374631
0.000000 0.686600 0.404313
0.000000 0.686600 0.433460
0.000000 0.686600 0.462124
0.000000 0.686600 0.490350
0.000000 0.686600 0.518175
0.000000 0.686600 0.545632
0.000000 0.686600 0.572747
0.000000 0.686600 0.599545
0.000000 0.686600 0.626046
0.000000 0.686600 0.652270
0.000000 0.686600 0.678233
0.000000 0.686600 0.703950
0.000000 0.686600 0.729434
0.000000 0.686600 0.754697
0.000000 0.686600 0.779750
0.000000 0.686600 0.804604
0.000000 0.686600 0.829267
0.000000 0.686600 0.853749
0.000000 0.686600 0.878056
0.000000 0.686600 0.902195
0.000000 0.686600 0.926175
0.000000 0.686600 0.950000
0.000000 0.713930 0.000000
0.000000 0.713930 0.059375
0.000000 0.713930 0.103378
0.000000 0.713930 0.142988
0.000000 0.713930 0.179991
0.000000 0.713930 0.215169
0.000000 0.713930 0.248957
0.000000 0.713930 0.281632
0.000000 0.713930 0.313383
0.000000 0.713930 0.344348
0.000000 0.713930 0.374631
0.000000 0.713930 0.404313
0.000000 0.713930 0.433460
0.000000 0.713930 0.462124
0.000000 0.713930 0.490350
0.000000 0.713930 0.518175
0.000000 0.713930 0.545632
0.000000 0.713930 0.572747
0.000000 0.713930 0.599545
0.000000 0.713930 0.626046
0.000000 0.713930 0.652270
0.000000 0.713930 0.678233
0.000000 0.713930 0.703950
0.000000 0.713930 0.729434
0.000000 0.713930 0.754697
0.000000 0.713930 0.779750
0.000000 0.713930 0.804604
0.000000 0.713930 0.829267
0.000000 0.713930 0.853749
0.000000 0.713930 0.878056
0.000000 0.713930 0.902195
0.000000 0.713930 0.926175
0.000000 0.713930 0.950000
0.000000 0.741000 0.000000
0.000000 0.741000 0.059375
0.000000 0.741000 0.103378
0.000000 0.741000 0.142988
0.000000 0.741000 0.179991
0.000000 0.741000 0.215169
0.000000 0.741000 0.248957
0.000000 0.741000 0.281632
0.000000 0.741000 0.313383
0.000000 0.741000 0.344348
0.000000 0.741000 0.374631
0.000000 0.741000 0.404313
0.000000 0.741000 0.433460
0.000000 0.741000 0.462124
0.000000 0.741000 0.490350
0.000000 0.741000 0.518175
0.000000 0.741000 0.545632
0.000000 0.741000 0.572747
0.000000 0.741000 0.599545
0.000000 0.741000 0.626046
0.000000 0.741000 0.652270
0.000000 0.741000 0.678233
0.000000 0.741000 0.703950
0.000000 0.741000 0.729434
0.000000 0.741000 0.754697
0.000000 0.741000 0.779750
0.000000 0.741000 0.804604
0.000000 0.741000 0.829267
0.000000 0.741000 0.853749
0.000000 0.741000 0.878056
0.000000 0.741000 0.902195
0.000000 0.741000 0.926175
0.000000 0.852150 1.092500
0.000000 0.767825 0.000000
0.000000 0.767825 0.059375
0.000000 0.767825 0.103378
0.000000 0.767825 0.142988
0.000000 0.767825 0.179991
0.000000 0.767825 0.215169
0.000000 0.767825 0.248957
0.000000 0.767825 0.281632
0.000000 0.767825 0.313383
0.000000 0.767825 0.344348
0.000000 0.767825 0.374631
0.000000 0.767825 0.404313
0.000000 0.767825 0.433460
0.000000 0.767825 0.462124
0.000000 0.767825 0.490350
0.000000 0.767825 0.518175
0.000000 0.767825 0.545632
0.000000 0.767825 0.572747
0.000000 0.767825 0.599545
0.000000 0.767825 0.626046
0.000000 0.767825 0.652270
0.000000 0.767825 0.678233
0.000000 0.767825 0.703950
0.000000 0.767825 0.729434
0.000000 0.767825 0.754697
0.000000 0.767825 0.779750
0.000000 0.767825 0.804604
0.000000 0.767825 0.829267
0.000000 0.767825 0.853749
0.000000 0.767825 0.878056
0.000000 0.882999 1.037525
0.000000 0.882999 1.065101
0.000000 0.882999 1.092500
0.000000 0.794418 0.000000
0.000000 0.794418 0.059375
0.000000 0.794418 0.103378
0.000000 0.794418 0.142988
0.000000 0.794418 0.179991
0.000000 0.794418 0.215169
0.000000 0.794418 0.248957
0.000000 0.794418 0.281632
0.000000 0.794418 0.313383
0.000000 0.794418 0.344348
0.000000 0.794418 0.374631
0.000000 0.794418 0.404313
0.000000 0.794418 0.433460
0.000000 0.794418 0.462124
0.000000 0.794418 0.490350
0.000000 0.794418 0.518175
0.000000 0.794418 0.545632
0.000000 0.794418 0.572747
0.000000 0.794418 0.599545
0.000000 0.794418 0.626046
0.000000 0.794418 0.652270
0.000000 0.794418 0.678233
0.000000 0.794418 0.703950
0.000000 0.794418 0.729434
0.000000 0.794418 0.754697
0.000000 0.794418 0.779750
0.000000 0.794418 0.804604
0.000000 0.794418 0.829267
0.000000 0.913581 0.981811
0.000000 0.913581 1.009764
0.000000 0.913581 1.037525
0.000000 0.913581 1.065101
0.000000 0.913581 1.092500
0.000000 0.820790 0.000000
0.000000 0.820790 0.059375
0.000000 0.820790 0.103378
0.000000 0.820790 0.142988
0.000000 0.820790 0.179991
0.000000 0.820790 0.215169
0.000000 0.820790 0.248957
0.000000 0.820790 0.281632
0.000000 0.820790 0.313383
0.000000 0.820790 0.344348
0.000000 0.820790 0.374631
0.000000 0.820790 0.404313
0.000000 0.820790 0.433460
0.000000 0.820790 0.462124
0.000000 0.820790 0.490350
0.000000 0.820790 0.518175
0.000000 0.820790 0.545632
0.000000 0.820790 0.572747
0.000000 0.820790 0.599545
0.000000 0.820790 0.626046
0.000000 0.820790 0.652270
0.000000 0.820790 0.678233
0.000000 0.820790 0.703950
0.000000 0.820790 0.729434
0.000000 0.820790 0.754697
0.000000 0.820790 0.779750
0.000000 0.943908 0.925295
0.000000 0.943908 0.953658
0.000000 0.943908 0.981811
0.000000 0.943908 1.009764
0.000000 0.943908 1.037525
0.000000 0.943908 1.065101
0.000000 0.943908 1.092500
0.000000 0.846952 0.000000
0.000000 0.846952 0.059375
0.000000 0.846952 0.103378
0.000000 0.846952 0.142988
0.000000 0.846952 0.179991
0.000000 0.846952 0.215169
0.000000 0.846952 0.248957
0.000000 0.846952 0.281632
0.000000 0.846952 0.313383
0.000000 0.846952 0.344348
0.000000 0.846952 0.374631
0.000000 0.846952 0.404313
0.000000 0.846952 0.433460
0.000000 0.846952 0.462124
0.000000 0.846952 0.490350
0.000000 0.846952 0.518175
0.000000 0.846952 0.545632
0.000000 0.846952 0.572747
0.000000 0.846952 0.599545
0.000000 0.846952 0.626046
0.000000 0.846952 0.652270
0.000000 0.846952 0.678233
0.000000 0.846952 0.703950
0.000000 0.846952 0.729434
0.000000 0.973995 0.867902
0.000000 0.973995 0.896713
0.000000 0.973995 0.925295
0.000000 0.973995 0.953658
0.000000 0.973995 0.981811
