app/src/main/assets/luts/12_High_Contrast.cube
TITLE "High Contrast Style"
LUT_3D_SIZE 5
0.000000 0.000000 0.000000
0.000000 0.000000 0.219368
0.000000 0.000000 0.381942
0.000000 0.000000 0.528288
0.000000 0.000000 0.665000
0.000000 0.230914 0.000000
0.000000 0.230914 0.219368
0.000000 0.230914 0.381942
0.000000 0.329877 0.754697
0.000000 0.329877 0.950000
0.000000 0.402044 0.000000
0.000000 0.574349 0.313383
0.000000 0.574349 0.545632
0.000000 0.574349 0.754697
0.000000 0.574349 0.950000
0.000000 0.794418 0.000000
0.000000 0.794418 0.313383
0.000000 0.794418 0.545632
0.000000 0.794418 0.754697
0.000000 0.913581 1.092500
0.000000 1.000000 0.000000
0.000000 1.000000 0.313383
0.000000 1.150000 0.627476
0.000000 1.150000 0.867902
0.000000 1.150000 1.092500
0.259778 0.000000 0.000000
0.259778 0.000000 0.219368
0.259778 0.000000 0.381942
0.259778 0.000000 0.528288
0.346371 0.000000 0.950000
0.259778 0.230914 0.000000
0.259778 0.230914 0.219368
0.346371 0.329877 0.545632
0.346371 0.329877 0.754697
0.346371 0.329877 0.950000
0.346371 0.574349 0.000000
0.346371 0.574349 0.313383
0.346371 0.574349 0.545632
0.346371 0.574349 0.754697
0.346371 0.574349 0.950000
0.346371 0.794418 0.000000
0.346371 0.794418 0.313383
0.346371 0.794418 0.545632
0.346371 0.794418 0.754697
0.381008 0.913581 1.092500
0.346371 1.000000 0.000000
0.346371 1.000000 0.313383
0.381008 1.150000 0.627476
0.381008 1.150000 0.867902
0.381008 1.150000 1.092500
0.452300 0.000000 0.000000
0.452300 0.000000 0.219368
0.452300 0.000000 0.381942
0.452300 0.000000 0.528288
0.603067 0.000000 0.950000
0.452300 0.230914 0.000000
0.452300 0.230914 0.219368
0.603067 0.329877 0.545632
0.603067 0.329877 0.754697
0.603067 0.329877 0.950000
0.603067 0.574349 0.000000
0.603067 0.574349 0.313383
0.603067 0.574349 0.545632
0.603067 0.574349 0.754697
0.603067 0.574349 0.950000
0.603067 0.794418 0.000000
0.603067 0.794418 0.313383
0.603067 0.794418 0.545632
0.663373 0.913581 0.867902
0.663373 0.913581 1.092500
0.603067 1.000000 0.000000
0.663373 1.150000 0.360391
0.663373 1.150000 0.627476
0.663373 1.150000 0.867902
0.663373 1.150000 1.092500
0.625604 0.000000 0.000000
0.625604 0.000000 0.219368
0.625604 0.000000 0.381942
0.834139 0.000000 0.754697
0.834139 0.000000 0.950000
0.625604 0.230914 0.000000
0.834139 0.329877 0.313383
0.834139 0.329877 0.545632
0.834139 0.329877 0.754697
0.834139 0.329877 0.950000
0.834139 0.574349 0.000000
0.834139 0.574349 0.313383
0.834139 0.574349 0.545632
0.834139 0.574349 0.754697
0.834139 0.574349 0.950000
0.834139 0.794418 0.000000
0.834139 0.794418 0.313383
0.834139 0.794418 0.545632
0.917553 0.913581 0.867902
0.917553 0.913581 1.092500
0.834139 1.000000 0.000000
0.917553 1.150000 0.360391
0.917553 1.150000 0.627476
0.917553 1.150000 0.867902
0.917553 1.150000 1.092500
0.787500 0.000000 0.000000
0.787500 0.000000 0.219368
0.787500 0.000000 0.381942
1.050000 0.000000 0.754697
1.050000 0.000000 0.950000
0.787500 0.230914 0.000000
1.050000 0.329877 0.313383
1.050000 0.329877 0.545632
1.050000 0.329877 0.754697
1.050000 0.329877 0.950000
1.050000 0.574349 0.000000
1.050000 0.574349 0.313383
1.050000 0.574349 0.545632
1.050000 0.574349 0.754697
1.155000 0.660502 1.092500
1.050000 0.794418 0.000000
1.050000 0.794418 0.313383
1.155000 0.913581 0.627476
1.155000 0.913581 0.867902
1.155000 0.913581 1.092500
1.155000 1.150000 0.000000
1.155000 1.150000 0.360391
1.155000 1.150000 0.627476
1.155000 1.150000 0.867902
1.155000 1.150000 1.092500
